; generated by Slic3r 1.1.1-dev on 2014-04-28 at 18:28:03

; perimeters extrusion width = 0.50mm
; infill extrusion width = 0.52mm
; solid infill extrusion width = 0.52mm
; top infill extrusion width = 0.52mm

G21 ; set units to millimeters
M107
G28 ; home all axes
G90 ; use absolute coordinates
G92 E0
M82 ; use absolute distances for extrusion
M204 S2000
G1 F600.000 E-1.00000
G92 E0
G1 Z0.400 F9000.000
G1 X60.544 Y68.633 F9000.000
G1 E1.00000 F600.000
G1 X62.309 Y67.070 E1.07189 F4410
G1 X64.493 Y66.182 E1.14378
G1 X66.000 Y66.018 E1.18999
G1 X124.000 Y66.018 E2.95836
G1 X126.324 Y66.415 E3.03025
G1 X128.385 Y67.561 E3.10214
G1 X129.948 Y69.327 E3.17404
G1 X130.836 Y71.511 E3.24593
G1 X131.000 Y73.018 E3.29214
G1 X131.000 Y126.982 E4.93745
G1 X130.603 Y129.306 E5.00935
G1 X129.456 Y131.367 E5.08124
G1 X127.691 Y132.930 E5.15313
G1 X125.507 Y133.818 E5.22502
G1 X124.000 Y133.982 E5.27123
G1 X66.000 Y133.982 E7.03960
G1 X63.676 Y133.585 E7.11149
G1 X61.615 Y132.439 E7.18338
G1 X60.052 Y130.673 E7.25527
G1 X59.164 Y128.489 E7.32717
G1 X59.000 Y126.982 E7.37337
G1 X59.000 Y73.018 E9.01869
G1 X59.397 Y70.694 E9.09058
G1 X60.507 Y68.699 E9.16019
G1 X61.039 Y68.818 F9000.000
G1 X62.787 Y67.367 E9.22945 F4410
G1 X66.000 Y66.518 E9.33076
G1 X124.000 Y66.518 E11.09913
G1 X126.237 Y66.915 E11.16839
G1 X128.200 Y68.057 E11.23765
G1 X129.651 Y69.805 E11.30690
G1 X130.500 Y73.018 E11.40822
G1 X130.500 Y126.982 E13.05354
G1 X130.103 Y129.219 E13.12279
G1 X128.961 Y131.182 E13.19205
G1 X127.213 Y132.633 E13.26131
G1 X124.000 Y133.482 E13.36263
G1 X66.000 Y133.482 E15.13099
G1 X63.763 Y133.085 E15.20025
G1 X61.800 Y131.943 E15.26951
G1 X60.349 Y130.195 E15.33877
G1 X59.500 Y126.982 E15.44008
G1 X59.500 Y73.018 E17.08540
G1 X59.897 Y70.781 E17.15466
G1 X61.002 Y68.883 E17.22163
G1 F600.000 E16.22163
G92 E0
G1 X85.975 Y106.183 F9000.000
G1 E1.00000 F600.000
G1 X88.025 Y106.183 E1.06253 F2016
G1 X89.596 Y107.501 E1.12506
G1 X89.953 Y109.521 E1.18759
G1 X88.927 Y111.297 E1.25011
G1 X87.000 Y111.998 E1.31264
G1 X85.073 Y111.297 E1.37517
G1 X84.047 Y109.521 E1.43770
G1 X84.404 Y107.501 E1.50023
G1 X85.917 Y106.231 E1.56047
G1 X86.157 Y106.683 F9000.000
G1 X87.843 Y106.683 E1.61190 F2016
G1 X89.136 Y107.767 E1.66333
G1 X89.429 Y109.428 E1.71476
G1 X88.585 Y110.889 E1.76619
G1 X87.000 Y111.466 E1.81762
G1 X85.415 Y110.889 E1.86906
G1 X84.571 Y109.428 E1.92049
G1 X84.864 Y107.767 E1.97192
G1 X86.099 Y106.731 E2.02106
G1 X86.300 Y106.204 F9000.000
G1 F600.000 E1.02106
G92 E0
G1 X85.975 Y118.165 F9000.000
G1 E1.00000 F600.000
G1 X88.025 Y118.165 E1.06253 F2016
G1 X89.596 Y119.483 E1.12506
G1 X89.953 Y121.503 E1.18759
G1 X88.927 Y123.279 E1.25011
G1 X87.000 Y123.980 E1.31264
G1 X85.073 Y123.279 E1.37517
G1 X84.047 Y121.503 E1.43770
G1 X84.404 Y119.483 E1.50023
G1 X85.917 Y118.213 E1.56047
G1 X86.157 Y118.665 F9000.000
G1 X87.843 Y118.665 E1.61190 F2016
G1 X89.136 Y119.749 E1.66333
G1 X89.429 Y121.410 E1.71476
G1 X88.585 Y122.871 E1.76619
G1 X87.000 Y123.448 E1.81762
G1 X85.415 Y122.871 E1.86906
G1 X84.571 Y121.410 E1.92049
G1 X84.864 Y119.749 E1.97192
G1 X86.099 Y118.713 E2.02106
G1 X86.300 Y118.186 F9000.000
G1 F600.000 E1.02106
G92 E0
G1 X82.750 Y126.232 F9000.000
G1 E1.00000 F600.000
G1 X82.750 Y103.750 E1.68546 F4410
G1 X91.250 Y103.750 E1.94461
G1 X91.250 Y126.232 E2.63007
G1 X82.825 Y126.232 E2.88694
G1 X82.250 Y126.732 F9000.000
G1 X82.250 Y103.250 E3.60289 F3570
G1 X91.750 Y103.250 E3.89253
G1 X91.750 Y126.732 E4.60848
G1 X82.325 Y126.732 E4.89584
G1 X82.500 Y126.299 F9000.000
G1 X83.131 Y125.885 F9000.000
G1 X83.097 Y125.837 E4.89714 F4620
G1 X83.785 Y125.885 E4.91224
G1 X83.097 Y124.903 E4.93851
G1 X83.097 Y123.969 E4.95897
G1 X84.438 Y125.885 E5.01021
G1 X85.092 Y125.885 E5.02453
G1 X83.097 Y123.036 E5.10074
G1 X83.097 Y122.102 E5.12120
G1 X85.746 Y125.885 E5.22238
G1 X86.399 Y125.885 E5.23670
G1 X83.982 Y122.433 E5.32905
G1 X85.628 Y123.850 F9000.000
G1 X87.053 Y125.885 E5.38348 F4620
G1 X87.707 Y125.885 E5.39780
G1 X86.505 Y124.169 E5.44370
G1 X87.227 Y124.267 E5.45966
G1 X88.360 Y125.885 E5.50295
G1 X89.014 Y125.885 E5.51727
G1 X87.748 Y124.077 E5.56563
G1 X88.269 Y123.887 E5.57778
G1 X89.668 Y125.885 E5.63121
G1 X90.321 Y125.885 E5.64554
G1 X88.790 Y123.698 E5.70404
G1 X89.247 Y123.418 E5.71579
G1 X90.903 Y125.782 E5.77904
G1 X90.903 Y124.849 E5.79949
G1 X89.543 Y122.906 E5.85145
G1 X89.838 Y122.394 E5.86440
G1 X90.903 Y123.915 E5.90507
G1 X90.903 Y122.981 E5.92553
G1 X90.292 Y122.109 E5.94887
G1 X90.865 Y121.994 E5.96168
G1 X90.903 Y122.048 E5.96313
G1 X90.045 Y120.027 F9000.000
G1 X90.345 Y120.455 E5.97456 F4620
G1 X90.903 Y120.321 E5.98713
G1 X83.984 Y110.439 E6.25101
G1 X83.097 Y110.105 E6.27175
G1 X88.991 Y118.522 E6.49651
G1 X87.845 Y117.818 F9000.000
G1 X83.097 Y111.037 E6.67759 F4620
G1 X83.097 Y111.969 E6.69798
G1 X87.192 Y117.818 E6.85416
G1 X86.539 Y117.818 E6.86844
G1 X83.097 Y112.902 E6.99973
G1 X83.097 Y113.834 E7.02012
G1 X85.887 Y117.818 E7.12651
G1 X85.461 Y118.143 E7.13822
G1 X83.097 Y114.766 E7.22838
G1 X83.097 Y115.698 E7.24878
G1 X85.050 Y118.488 E7.32326
G1 X84.639 Y118.833 E7.33501
G1 X83.097 Y116.631 E7.39381
G1 X83.097 Y117.563 E7.41420
G1 X84.228 Y119.178 E7.45733
G1 X83.998 Y119.783 E7.47148
G1 X83.097 Y118.495 E7.50586
G1 X83.097 Y119.427 E7.52625
G1 X83.827 Y120.470 E7.55411
G1 X83.097 Y120.360 E7.57026
G1 X83.132 Y120.410 E7.57160
G1 F600.000 E6.57160
G92 E0
G1 X90.903 Y119.389 F9000.000
G1 E1.00000 F600.000
G1 X85.640 Y111.872 E1.20071 F4620
G1 X86.516 Y112.191 E1.22111
G1 X90.903 Y118.456 E1.38841
G1 X90.903 Y117.524 E1.40880
G1 X87.233 Y112.283 E1.54877
G1 X87.753 Y112.093 E1.56088
G1 X90.903 Y116.592 E1.68101
G1 X90.903 Y115.660 E1.70140
G1 X88.273 Y111.904 E1.80169
G1 X88.794 Y111.714 E1.81380
G1 X90.903 Y114.727 E1.89425
G1 X90.903 Y113.795 E1.91465
G1 X89.249 Y111.433 E1.97773
G1 X89.544 Y110.922 E1.99063
G1 X90.903 Y112.863 E2.04246
G1 X90.903 Y111.930 E2.06285
G1 X89.839 Y110.411 E2.10343
G1 X90.292 Y110.126 E2.11514
G1 X90.903 Y110.998 E2.13843
G1 X90.903 Y110.066 E2.15882
G1 X90.865 Y110.012 E2.16027
G1 X88.048 Y105.836 F9000.000
G1 X86.831 Y104.097 E2.20840 F4620
G1 X86.157 Y104.097 E2.22366
G1 X87.375 Y105.836 E2.27178
G1 X86.702 Y105.836 E2.28704
G1 X85.484 Y104.097 E2.33517
G1 X84.811 Y104.097 E2.35043
G1 X86.029 Y105.836 E2.39856
G1 X85.538 Y106.096 E2.41115
G1 X84.138 Y104.097 E2.46649
G1 X83.465 Y104.097 E2.48175
G1 X85.114 Y106.452 E2.54693
G1 X84.690 Y106.808 E2.55947
G1 X83.097 Y104.532 E2.62245
G1 X83.097 Y105.494 E2.64424
G1 X84.266 Y107.163 E2.69045
G1 X84.007 Y107.754 E2.70508
G1 X83.097 Y106.455 E2.74104
G1 X83.097 Y107.416 E2.76283
G1 X83.849 Y108.490 E2.79256
G1 X83.097 Y108.378 E2.80980
G1 X83.132 Y108.428 E2.81118
G1 X88.177 Y104.097 F9000.000
G1 X90.903 Y107.991 E2.91894 F4620
G1 X90.555 Y108.455 E2.93210
G1 X87.504 Y104.097 E3.05272
G1 X88.850 Y104.097 E3.08324
G1 X90.903 Y107.029 E3.16440
G1 X90.903 Y106.068 E3.18619
G1 X89.523 Y104.097 E3.24075
G1 X90.196 Y104.097 E3.25601
G1 X90.903 Y105.107 E3.28396
G1 X90.903 Y104.145 E3.30575
G1 X90.869 Y104.097 E3.30709
G1 F600.000 E2.30709
G92 E0
G1 X73.596 Y107.501 F9000.000
G1 E1.00000 F600.000
G1 X73.953 Y109.521 E1.06253 F2016
G1 X72.927 Y111.297 E1.12506
G1 X71.000 Y111.998 E1.18759
G1 X69.073 Y111.297 E1.25011
G1 X68.047 Y109.521 E1.31264
G1 X68.404 Y107.501 E1.37517
G1 X69.975 Y106.183 E1.43770
G1 X72.025 Y106.183 E1.50023
G1 X73.539 Y107.453 E1.56047
G1 X73.136 Y107.767 F9000.000
G1 X73.429 Y109.428 E1.61190 F2016
G1 X72.585 Y110.889 E1.66333
G1 X71.000 Y111.466 E1.71476
G1 X69.415 Y110.889 E1.76619
G1 X68.571 Y109.428 E1.81762
G1 X68.864 Y107.767 E1.86906
G1 X70.157 Y106.683 E1.92049
G1 X71.843 Y106.683 E1.97192
G1 X73.078 Y107.719 E2.02106
G1 X73.632 Y107.825 F9000.000
G1 X72.025 Y118.165 F9000.000
G1 X73.596 Y119.483 E2.08359 F2016
G1 X73.953 Y121.503 E2.14612
G1 X72.927 Y123.279 E2.20865
G1 X71.000 Y123.980 E2.27118
G1 X69.073 Y123.279 E2.33371
G1 X68.047 Y121.503 E2.39623
G1 X68.404 Y119.483 E2.45876
G1 X69.975 Y118.165 E2.52129
G1 X71.950 Y118.165 E2.58153
G1 X71.843 Y118.665 F9000.000
G1 X73.136 Y119.749 E2.63296 F2016
G1 X73.429 Y121.410 E2.68439
G1 X72.585 Y122.871 E2.73583
G1 X71.000 Y123.448 E2.78726
G1 X69.415 Y122.871 E2.83869
G1 X68.571 Y121.410 E2.89012
G1 X68.864 Y119.749 E2.94155
G1 X70.157 Y118.665 E2.99298
G1 X71.768 Y118.665 E3.04213
G1 X72.261 Y118.390 F9000.000
G1 F600.000 E2.04213
G92 E0
G1 X75.250 Y126.232 F9000.000
G1 E1.00000 F600.000
G1 X66.750 Y126.232 E1.25916 F4410
G1 X66.750 Y103.750 E1.94461
G1 X75.250 Y103.750 E2.20377
G1 X75.250 Y126.157 E2.88694
G1 X75.750 Y126.732 F9000.000
G1 X66.250 Y126.732 E3.17659 F3570
G1 X66.250 Y103.250 E3.89253
G1 X75.750 Y103.250 E4.18218
G1 X75.750 Y126.657 E4.89584
G1 X75.317 Y126.482 F9000.000
G1 X74.903 Y122.048 F9000.000
G1 X74.865 Y121.994 E4.89729 F4620
G1 X74.292 Y122.109 E4.91010
G1 X74.903 Y122.981 E4.93344
G1 X74.903 Y123.915 E4.95390
G1 X73.838 Y122.394 E4.99457
G1 X73.543 Y122.906 E5.00752
G1 X74.903 Y124.849 E5.05948
G1 X74.903 Y125.782 E5.07993
G1 X73.247 Y123.418 E5.14317
G1 X72.790 Y123.698 E5.15493
G1 X74.321 Y125.885 E5.21343
G1 X73.668 Y125.885 E5.22775
G1 X72.269 Y123.887 E5.28119
G1 X71.748 Y124.077 E5.29333
G1 X73.014 Y125.885 E5.34170
G1 X72.360 Y125.885 E5.35602
G1 X71.227 Y124.267 E5.39931
G1 X70.505 Y124.169 E5.41527
G1 X71.707 Y125.885 E5.46116
G1 X71.053 Y125.885 E5.47549
G1 X69.628 Y123.850 E5.52992
G1 X67.982 Y122.433 F9000.000
G1 X70.399 Y125.885 E5.62227 F4620
G1 X69.746 Y125.885 E5.63659
G1 X67.097 Y122.102 E5.73777
G1 X67.097 Y123.036 E5.75823
G1 X69.092 Y125.885 E5.83444
G1 X68.438 Y125.885 E5.84876
G1 X67.097 Y123.969 E5.90000
G1 X67.097 Y124.903 E5.92045
G1 X67.785 Y125.885 E5.94672
G1 X67.097 Y125.837 E5.96183
G1 X67.131 Y125.885 E5.96313
G1 X67.132 Y120.410 F9000.000
G1 X67.097 Y120.360 E5.96446 F4620
G1 X67.827 Y120.470 E5.98062
G1 X67.097 Y119.427 E6.00847
G1 X67.097 Y118.495 E6.02887
G1 X67.998 Y119.783 E6.06325
G1 X68.228 Y119.178 E6.07740
G1 X67.097 Y117.563 E6.12052
G1 X67.097 Y116.631 E6.14092
G1 X68.639 Y118.833 E6.19972
G1 X69.050 Y118.488 E6.21146
G1 X67.097 Y115.698 E6.28595
G1 X67.097 Y114.766 E6.30634
G1 X69.461 Y118.143 E6.39651
G1 X69.887 Y117.818 E6.40822
G1 X67.097 Y113.834 E6.51461
G1 X67.097 Y112.902 E6.53500
G1 X70.539 Y117.818 E6.66628
G1 X71.192 Y117.818 E6.68056
G1 X67.097 Y111.969 E6.83674
G1 X67.097 Y111.037 E6.85714
G1 X71.845 Y117.818 E7.03821
G1 X72.991 Y118.522 F9000.000
G1 X67.097 Y110.105 E7.26298 F4620
G1 X67.984 Y110.439 E7.28371
G1 X74.903 Y120.321 E7.54759
G1 X74.345 Y120.455 E7.56016
G1 X74.045 Y120.027 E7.57160
G1 X74.903 Y119.389 F9000.000
G1 X69.640 Y111.872 E7.77231 F4620
G1 X70.516 Y112.191 E7.79270
G1 X74.903 Y118.456 E7.96001
G1 X74.903 Y117.524 E7.98040
G1 X71.233 Y112.283 E8.12037
G1 X71.753 Y112.093 E8.13248
G1 X74.903 Y116.592 E8.25261
G1 X74.903 Y115.660 E8.27300
G1 X72.273 Y111.904 E8.37329
G1 X72.794 Y111.714 E8.38540
G1 X74.903 Y114.727 E8.46585
G1 X74.903 Y113.795 E8.48625
G1 X73.249 Y111.433 E8.54932
G1 X73.544 Y110.922 E8.56223
G1 X74.903 Y112.863 E8.61406
G1 X74.903 Y111.930 E8.63445
G1 X73.839 Y110.411 E8.67503
G1 X74.292 Y110.126 E8.68674
G1 X74.903 Y110.998 E8.71003
G1 X74.903 Y110.066 E8.73042
G1 X74.865 Y110.012 E8.73187
G1 X72.048 Y105.836 F9000.000
G1 X70.831 Y104.097 E8.77999 F4620
G1 X70.157 Y104.097 E8.79525
G1 X71.375 Y105.836 E8.84338
G1 X70.702 Y105.836 E8.85864
G1 X69.484 Y104.097 E8.90677
G1 X68.811 Y104.097 E8.92203
G1 X70.029 Y105.836 E8.97016
G1 X69.538 Y106.096 E8.98275
G1 X68.138 Y104.097 E9.03808
G1 X67.465 Y104.097 E9.05334
G1 X69.114 Y106.452 E9.11852
G1 X68.690 Y106.808 E9.13107
G1 X67.097 Y104.532 E9.19404
G1 X67.097 Y105.494 E9.21584
G1 X68.266 Y107.163 E9.26205
G1 X68.007 Y107.754 E9.27668
G1 X67.097 Y106.455 E9.31264
G1 X67.097 Y107.416 E9.33443
G1 X67.849 Y108.490 E9.36415
G1 X67.097 Y108.378 E9.38139
G1 X67.132 Y108.428 E9.38278
G1 X72.177 Y104.097 F9000.000
G1 X74.903 Y107.991 E9.49054 F4620
G1 X74.555 Y108.455 E9.50370
G1 X71.504 Y104.097 E9.62432
G1 X72.850 Y104.097 E9.65484
G1 X74.903 Y107.029 E9.73600
G1 X74.903 Y106.068 E9.75779
G1 X73.523 Y104.097 E9.81234
G1 X74.196 Y104.097 E9.82760
G1 X74.903 Y105.107 E9.85555
G1 X74.903 Y104.145 E9.87735
G1 X74.869 Y104.097 E9.87869
G1 F600.000 E8.87869
G92 E0
G1 X71.000 Y82.016 F9000.000
G1 E1.00000 F600.000
G1 X69.073 Y81.315 E1.06253 F2016
G1 X68.047 Y79.539 E1.12506
G1 X68.404 Y77.519 E1.18759
G1 X69.975 Y76.201 E1.25011
G1 X72.025 Y76.201 E1.31264
G1 X73.596 Y77.519 E1.37517
G1 X73.953 Y79.539 E1.43770
G1 X72.927 Y81.315 E1.50023
G1 X71.070 Y81.990 E1.56047
G1 X71.000 Y81.484 F9000.000
G1 X69.415 Y80.907 E1.61190 F2016
G1 X68.571 Y79.446 E1.66333
G1 X68.864 Y77.785 E1.71476
G1 X70.157 Y76.701 E1.76619
G1 X71.843 Y76.701 E1.81762
G1 X73.136 Y77.785 E1.86906
G1 X73.429 Y79.446 E1.92049
G1 X72.585 Y80.907 E1.97192
G1 X71.070 Y81.458 E2.02106
G1 X70.701 Y81.885 F9000.000
G1 X69.975 Y88.183 F9000.000
G1 X72.025 Y88.183 E2.08359 F2016
G1 X73.596 Y89.501 E2.14612
G1 X73.953 Y91.521 E2.20865
G1 X72.927 Y93.297 E2.27118
G1 X71.000 Y93.998 E2.33370
G1 X69.073 Y93.297 E2.39623
G1 X68.047 Y91.521 E2.45876
G1 X68.404 Y89.501 E2.52129
G1 X69.917 Y88.231 E2.58153
G1 X70.157 Y88.683 F9000.000
G1 X71.843 Y88.683 E2.63296 F2016
G1 X73.136 Y89.767 E2.68439
G1 X73.429 Y91.428 E2.73583
G1 X72.585 Y92.889 E2.78726
G1 X71.000 Y93.466 E2.83869
G1 X69.415 Y92.889 E2.89012
G1 X68.571 Y91.428 E2.94155
G1 X68.864 Y89.767 E2.99298
G1 X70.099 Y88.731 E3.04213
G1 X70.300 Y88.204 F9000.000
G1 F600.000 E2.04213
G92 E0
G1 X66.750 Y96.250 F9000.000
G1 E1.00000 F600.000
G1 X66.750 Y73.768 E1.68546 F4410
G1 X75.250 Y73.768 E1.94461
G1 X75.250 Y96.250 E2.63007
G1 X66.825 Y96.250 E2.88694
G1 X66.250 Y96.750 F9000.000
G1 X66.250 Y73.268 E3.60289 F3570
G1 X75.750 Y73.268 E3.89253
G1 X75.750 Y96.750 E4.60848
G1 X66.325 Y96.750 E4.89584
G1 X66.500 Y96.317 F9000.000
G1 X67.131 Y95.903 F9000.000
G1 X67.097 Y95.855 E4.89714 F4620
G1 X67.785 Y95.903 E4.91224
G1 X67.097 Y94.921 E4.93851
G1 X67.097 Y93.987 E4.95897
G1 X68.438 Y95.903 E5.01021
G1 X69.092 Y95.903 E5.02453
G1 X67.097 Y93.054 E5.10074
G1 X67.097 Y92.120 E5.12120
G1 X69.746 Y95.903 E5.22238
G1 X70.399 Y95.903 E5.23670
G1 X67.982 Y92.451 E5.32905
G1 X69.628 Y93.868 F9000.000
G1 X71.053 Y95.903 E5.38348 F4620
G1 X71.707 Y95.903 E5.39780
G1 X70.505 Y94.187 E5.44370
G1 X71.227 Y94.285 E5.45966
G1 X72.360 Y95.903 E5.50295
G1 X73.014 Y95.903 E5.51727
G1 X71.748 Y94.095 E5.56563
G1 X72.269 Y93.905 E5.57778
G1 X73.668 Y95.903 E5.63121
G1 X74.321 Y95.903 E5.64554
G1 X72.790 Y93.716 E5.70404
G1 X73.247 Y93.436 E5.71579
G1 X74.903 Y95.800 E5.77904
G1 X74.903 Y94.867 E5.79949
G1 X73.543 Y92.924 E5.85145
G1 X73.838 Y92.412 E5.86440
G1 X74.903 Y93.933 E5.90507
G1 X74.903 Y92.999 E5.92553
G1 X74.292 Y92.127 E5.94887
G1 X74.865 Y92.012 E5.96168
G1 X74.903 Y92.066 E5.96313
G1 X74.045 Y90.045 F9000.000
G1 X74.345 Y90.473 E5.97456 F4620
G1 X74.903 Y90.339 E5.98713
G1 X67.984 Y80.457 E6.25101
G1 X67.097 Y80.123 E6.27175
G1 X72.991 Y88.540 E6.49651
G1 X71.845 Y87.836 F9000.000
G1 X67.097 Y81.055 E6.67759 F4620
G1 X67.097 Y81.987 E6.69798
G1 X71.192 Y87.836 E6.85416
G1 X70.539 Y87.836 E6.86844
G1 X67.097 Y82.919 E6.99973
G1 X67.097 Y83.852 E7.02012
G1 X69.887 Y87.836 E7.12651
G1 X69.461 Y88.161 E7.13822
G1 X67.097 Y84.784 E7.22838
G1 X67.097 Y85.716 E7.24878
G1 X69.050 Y88.506 E7.32326
G1 X68.639 Y88.851 E7.33501
G1 X67.097 Y86.649 E7.39381
G1 X67.097 Y87.581 E7.41420
G1 X68.228 Y89.196 E7.45733
G1 X67.998 Y89.801 E7.47148
G1 X67.097 Y88.513 E7.50586
G1 X67.097 Y89.445 E7.52625
G1 X67.827 Y90.488 E7.55411
G1 X67.097 Y90.378 E7.57026
G1 X67.132 Y90.428 E7.57160
G1 F600.000 E6.57160
G92 E0
G1 X74.903 Y89.407 F9000.000
G1 E1.00000 F600.000
G1 X69.640 Y81.890 E1.20071 F4620
G1 X70.516 Y82.209 E1.22111
G1 X74.903 Y88.474 E1.38841
G1 X74.903 Y87.542 E1.40880
G1 X71.233 Y82.300 E1.54877
G1 X71.753 Y82.111 E1.56088
G1 X74.903 Y86.610 E1.68101
G1 X74.903 Y85.677 E1.70140
G1 X72.273 Y81.922 E1.80169
G1 X72.794 Y81.732 E1.81380
G1 X74.903 Y84.745 E1.89425
