; generated by Slic3r 1.1.4 on 2014-06-17 at 13:33:55

; perimeters extrusion width = 0.50mm
; infill extrusion width = 0.52mm
; solid infill extrusion width = 0.52mm
; top infill extrusion width = 0.52mm

G21 ; set units to millimeters
M107
G28 ; home all axes
G90 ; use absolute coordinates
G92 E0
M82 ; use absolute distances for extrusion
M204 S2000
G1 F1800.000 E-2.00000
G92 E0
G1 Z0.400 F9600.000
G1 X122.145 Y115.666 F9600.000
G1 E2.00000 F1800.000
G1 X123.910 Y114.103 E2.07189 F2700.000
G1 X126.094 Y113.215 E2.14378
G1 X127.601 Y113.051 E2.18999
G1 X158.634 Y113.051 E3.13617
G1 X160.959 Y113.448 E3.20806
G1 X163.019 Y114.595 E3.27995
G1 X164.042 Y115.607 E3.32383
G1 X164.174 Y115.767 E3.33014
G1 X165.343 Y117.814 E3.40204
G1 X165.766 Y120.211 E3.47624
G1 X165.766 Y179.789 E5.29271
G1 X165.369 Y182.113 E5.36460
G1 X164.174 Y184.233 E5.43880
G1 X164.042 Y184.393 E5.44512
G1 X162.260 Y185.937 E5.51701
G1 X160.066 Y186.801 E5.58890
G1 X158.634 Y186.949 E5.63278
G1 X127.601 Y186.949 E6.57896
G1 X125.277 Y186.552 E6.65085
G1 X123.216 Y185.405 E6.72274
G1 X121.653 Y183.640 E6.79463
G1 X120.765 Y181.456 E6.86652
G1 X120.601 Y179.949 E6.91273
G1 X120.601 Y120.051 E8.73896
G1 X120.998 Y117.727 E8.81086
G1 X122.108 Y115.732 E8.88046
G1 X122.640 Y115.851 F9600.000
G1 X124.388 Y114.400 E8.94972 F2700.000
G1 X127.601 Y113.551 E9.05104
G1 X158.634 Y113.551 E9.99721
G1 X160.871 Y113.948 E10.06647
G1 X162.834 Y115.090 E10.13573
G1 X163.656 Y115.924 E10.17142
G1 X163.788 Y116.084 E10.17773
G1 X164.901 Y118.064 E10.24699
G1 X165.266 Y120.211 E10.31339
G1 X165.266 Y179.789 E12.12986
G1 X164.869 Y182.026 E12.19912
G1 X163.788 Y183.916 E12.26552
G1 X163.656 Y184.076 E12.27184
G1 X161.929 Y185.552 E12.34109
G1 X159.800 Y186.344 E12.41035
G1 X158.634 Y186.449 E12.44604
G1 X127.601 Y186.449 E13.39222
G1 X125.364 Y186.052 E13.46147
G1 X123.401 Y184.910 E13.53073
G1 X121.950 Y183.162 E13.59999
G1 X121.101 Y179.949 E13.70131
G1 X121.101 Y120.051 E15.52754
G1 X121.498 Y117.814 E15.59680
G1 X122.603 Y115.916 E15.66377
G1 F1800.000 E13.66377
G92 E0
G1 X158.016 Y179.199 F9600.000
G1 E2.00000 F1800.000
G1 X128.351 Y179.199 E2.90445 F4500.000
G1 X128.351 Y120.801 E4.68495
G1 X158.016 Y120.801 E5.58940
G1 X158.016 Y179.124 E7.36761
G1 X158.516 Y179.699 F9600.000
G1 X127.851 Y179.699 E8.30255 F4050.000
G1 X127.851 Y120.301 E10.11353
G1 X158.516 Y120.301 E11.04847
G1 X158.516 Y179.624 E12.85717
G1 X158.083 Y179.449 F9600.000
G1 F1800.000 E10.85717
G92 E0
G1 X128.698 Y178.812 F9600.000
G1 E2.00000 F1800.000
G1 X128.738 Y178.852 E2.00179 F4500.000
G1 X129.478 Y178.852 E2.02524
G1 X128.698 Y178.072 E2.06020
G1 X128.698 Y177.332 E2.08365
G1 X130.218 Y178.852 E2.15178
G1 X130.958 Y178.852 E2.17523
G1 X128.698 Y176.592 E2.27652
G1 X128.698 Y175.852 E2.29997
G1 X131.698 Y178.852 E2.43443
G1 X132.439 Y178.852 E2.45788
G1 X128.698 Y175.111 E2.62551
G1 X128.698 Y174.371 E2.64896
G1 X133.179 Y178.852 E2.84975
G1 X133.919 Y178.852 E2.87320
G1 X128.698 Y173.631 E3.10715
G1 X128.698 Y172.891 E3.13061
G1 X134.659 Y178.852 E3.39773
G1 X135.399 Y178.852 E3.42118
G1 X128.698 Y172.151 E3.72147
G1 X128.698 Y171.411 E3.74492
G1 X136.139 Y178.852 E4.07837
G1 X136.879 Y178.852 E4.10182
G1 X128.698 Y170.671 E4.46844
G1 X128.698 Y169.930 E4.49190
G1 X137.620 Y178.852 E4.89168
G1 X138.360 Y178.852 E4.91513
G1 X128.698 Y169.190 E5.34809
G1 X128.698 Y168.450 E5.37154
G1 X139.100 Y178.852 E5.83766
G1 X139.840 Y178.852 E5.86111
G1 X128.698 Y167.710 E6.36039
G1 X128.698 Y166.970 E6.38384
G1 X140.580 Y178.852 E6.91629
G1 X141.320 Y178.852 E6.93975
G1 X128.698 Y166.230 E7.50536
G1 X128.698 Y165.490 E7.52882
G1 X142.060 Y178.852 E8.12760
G1 X142.800 Y178.852 E8.15105
G1 X128.698 Y164.750 E8.78300
G1 X128.698 Y164.009 E8.80645
G1 X143.541 Y178.852 E9.47157
G1 X144.281 Y178.852 E9.49502
G1 X128.698 Y163.269 E10.19330
G1 X128.698 Y162.529 E10.21675
G1 X145.021 Y178.852 E10.94820
G1 X145.761 Y178.852 E10.97165
G1 X128.698 Y161.789 E11.73626
G1 X128.698 Y161.049 E11.75971
G1 X146.501 Y178.852 E12.55749
G1 X147.241 Y178.852 E12.58095
G1 X128.698 Y160.309 E13.41189
G1 X128.698 Y159.569 E13.43534
G1 X147.981 Y178.852 E14.29945
G1 X148.721 Y178.852 E14.32291
G1 X128.698 Y158.829 E15.22018
G1 X128.698 Y158.088 E15.24364
G1 X149.462 Y178.852 E16.17408
G1 X150.202 Y178.852 E16.19753
G1 X128.698 Y157.348 E17.16114
G1 X128.698 Y156.608 E17.18459
G1 X150.942 Y178.852 E18.18137
G1 X151.682 Y178.852 E18.20482
G1 X128.698 Y155.868 E19.23476
G1 X128.698 Y155.128 E19.25821
G1 X152.422 Y178.852 E20.32132
G1 X153.162 Y178.852 E20.34477
G1 X128.698 Y154.388 E21.44105
G1 X128.698 Y153.648 E21.46450
G1 X153.902 Y178.852 E22.59394
G1 X154.642 Y178.852 E22.61739
G1 X128.698 Y152.908 E23.78000
G1 X128.698 Y152.167 E23.80345
G1 X155.383 Y178.852 E24.99922
G1 X156.123 Y178.852 E25.02268
G1 X128.698 Y151.427 E26.25162
G1 X128.698 Y150.687 E26.27507
G1 X156.863 Y178.852 E27.53717
G1 X157.603 Y178.852 E27.56062
G1 X128.698 Y149.947 E28.85589
G1 X128.698 Y149.207 E28.87935
G1 X157.669 Y178.178 E30.17757
G1 X157.669 Y177.438 E30.20102
G1 X128.698 Y148.467 E31.49925
G1 X128.698 Y147.727 E31.52270
G1 X157.669 Y176.698 E32.82093
G1 X157.669 Y175.957 E32.84438
G1 X128.698 Y146.987 E34.14260
G1 X128.698 Y146.246 E34.16606
G1 X157.669 Y175.217 E35.46428
G1 X157.669 Y174.477 E35.48773
G1 X128.698 Y145.506 E36.78596
G1 X128.698 Y144.766 E36.80941
G1 X157.669 Y173.737 E38.10763
G1 X157.669 Y172.997 E38.13109
G1 X128.698 Y144.026 E39.42931
G1 X128.698 Y143.286 E39.45276
G1 X157.669 Y172.257 E40.75099
G1 X157.669 Y171.517 E40.77444
G1 X128.698 Y142.546 E42.07267
G1 X128.698 Y141.806 E42.09612
G1 X157.669 Y170.777 E43.39434
G1 X157.669 Y170.036 E43.41779
G1 X128.698 Y141.066 E44.71602
G1 X128.698 Y140.325 E44.73947
G1 X157.669 Y169.296 E46.03770
G1 X157.669 Y168.556 E46.06115
G1 X128.698 Y139.585 E47.35937
G1 X128.698 Y138.845 E47.38282
G1 X157.669 Y167.816 E48.68105
G1 X157.669 Y167.076 E48.70450
G1 X128.698 Y138.105 E50.00273
G1 X128.698 Y137.365 E50.02618
G1 X157.669 Y166.336 E51.32440
G1 X157.669 Y165.596 E51.34786
G1 X128.698 Y136.625 E52.64608
G1 X128.698 Y135.885 E52.66953
G1 X157.669 Y164.856 E53.96776
G1 X157.669 Y164.115 E53.99121
G1 X128.698 Y135.144 E55.28943
G1 X128.698 Y134.404 E55.31289
G1 X157.669 Y163.375 E56.61111
G1 X157.669 Y162.635 E56.63456
G1 X128.698 Y133.664 E57.93279
G1 X128.698 Y132.924 E57.95624
G1 X157.669 Y161.895 E59.25446
G1 X157.669 Y161.155 E59.27792
G1 X128.698 Y132.184 E60.57614
G1 X128.698 Y131.444 E60.59959
G1 X157.669 Y160.415 E61.89782
G1 X157.669 Y159.675 E61.92127
G1 X128.698 Y130.704 E63.21950
G1 X128.698 Y129.964 E63.24295
G1 X157.669 Y158.934 E64.54117
G1 X157.669 Y158.194 E64.56462
G1 X128.698 Y129.223 E65.86285
G1 X128.698 Y128.483 E65.88630
G1 X157.669 Y157.454 E67.18453
G1 X157.669 Y156.714 E67.20798
G1 X128.698 Y127.743 E68.50620
G1 X128.698 Y127.003 E68.52965
G1 X157.669 Y155.974 E69.82788
G1 X157.669 Y155.234 E69.85133
G1 X128.698 Y126.263 E71.14956
G1 X128.698 Y125.523 E71.17301
G1 X157.669 Y154.494 E72.47123
G1 X157.669 Y153.754 E72.49468
G1 X128.698 Y124.783 E73.79291
G1 X128.698 Y124.043 E73.81636
G1 X157.669 Y153.013 E75.11459
G1 X157.669 Y152.273 E75.13804
G1 X128.698 Y123.302 E76.43626
G1 X128.698 Y122.562 E76.45971
G1 X157.669 Y151.533 E77.75794
G1 X157.669 Y150.793 E77.78139
G1 X128.698 Y121.822 E79.07962
G1 X128.764 Y121.148 E79.10108
G1 X157.669 Y150.053 E80.39635
G1 X157.669 Y149.313 E80.41981
G1 X129.504 Y121.148 E81.68191
G1 X130.244 Y121.148 E81.70536
G1 X157.669 Y148.573 E82.93430
G1 X157.669 Y147.833 E82.95775
G1 X130.984 Y121.148 E84.15353
G1 X131.724 Y121.148 E84.17698
G1 X157.669 Y147.092 E85.33959
G1 X157.669 Y146.352 E85.36304
G1 X132.465 Y121.148 E86.49248
G1 X133.205 Y121.148 E86.51593
G1 X157.669 Y145.612 E87.61220
G1 X157.669 Y144.872 E87.63566
G1 X133.945 Y121.148 E88.69877
G1 X134.685 Y121.148 E88.72222
G1 X157.669 Y144.132 E89.75216
G1 X157.669 Y143.392 E89.77561
G1 X135.425 Y121.148 E90.77239
G1 X136.165 Y121.148 E90.79584
G1 X157.669 Y142.652 E91.75945
G1 X157.669 Y141.912 E91.78290
G1 X136.905 Y121.148 E92.71335
G1 X137.645 Y121.148 E92.73680
G1 X157.669 Y141.171 E93.63408
G1 X157.669 Y140.431 E93.65753
G1 X138.386 Y121.148 E94.52164
G1 X139.126 Y121.148 E94.54509
G1 X157.669 Y139.691 E95.37604
G1 X157.669 Y138.951 E95.39949
G1 X139.866 Y121.148 E96.19727
G1 X140.606 Y121.148 E96.22072
G1 X157.669 Y138.211 E96.98533
G1 X157.669 Y137.471 E97.00879
G1 X141.346 Y121.148 E97.74023
G1 X142.086 Y121.148 E97.76368
G1 X157.669 Y136.731 E98.46197
G1 X157.669 Y135.991 E98.48542
G1 X142.826 Y121.148 E99.15053
G1 X143.566 Y121.148 E99.17398
G1 X157.669 Y135.250 E99.80593
G1 X157.669 Y134.510 E99.82939
G1 X144.307 Y121.148 E100.42817
G1 X145.047 Y121.148 E100.45162
G1 X157.669 Y133.770 E101.01724
G1 X157.669 Y133.030 E101.04069
G1 X145.787 Y121.148 E101.57314
G1 X146.527 Y121.148 E101.59659
G1 X157.669 Y132.290 E102.09588
G1 X157.669 Y131.550 E102.11933
G1 X147.267 Y121.148 E102.58545
G1 X148.007 Y121.148 E102.60890
G1 X157.669 Y130.810 E103.04185
G1 X157.669 Y130.069 E103.06530
G1 X148.747 Y121.148 E103.46509
G1 X149.487 Y121.148 E103.48854
G1 X157.669 Y129.329 E103.85516
G1 X157.669 Y128.589 E103.87861
G1 X150.228 Y121.148 E104.21207
G1 X150.968 Y121.148 E104.23552
G1 X157.669 Y127.849 E104.53581
G1 X157.669 Y127.109 E104.55926
G1 X151.708 Y121.148 E104.82638
G1 X152.448 Y121.148 E104.84983
G1 X157.669 Y126.369 E105.08379
G1 X157.669 Y125.629 E105.10724
G1 X153.188 Y121.148 E105.30803
G1 X153.928 Y121.148 E105.33148
G1 X157.669 Y124.889 E105.49910
G1 X157.669 Y124.148 E105.52255
G1 X154.668 Y121.148 E105.65701
G1 X155.408 Y121.148 E105.68046
G1 X157.669 Y123.408 E105.78175
G1 X157.669 Y122.668 E105.80521
G1 X156.149 Y121.148 E105.87333
G1 X156.889 Y121.148 E105.89678
G1 X157.669 Y121.928 E105.93174
G1 X157.669 Y121.188 E105.95519
G1 X157.629 Y121.148 E105.95699
M204 S2000
G1 F1800.000 E103.95699
G92 E0
G1 Z0.800 F9600.000
G1 X158.279 Y179.199 F9600.000
G1 E2.00000 F1800.000
M204 S1200
G1 X128.351 Y179.199 E2.91247 F6000.000
G1 X128.351 Y120.801 E4.69297
G1 X158.279 Y120.801 E5.60543
G1 X158.279 Y179.124 E7.38364
M204 S2000
G1 F1800.000 E5.38364
G92 E0
G1 X127.851 Y179.699 F9600.000
G1 E2.00000 F1800.000
M204 S1200
G1 X127.851 Y120.301 E3.81099 F5400.000
G1 X128.466 Y120.301 E3.82975
G1 X158.516 Y120.301 E4.74594
G1 X158.779 Y120.621 E4.75855
G1 X158.779 Y179.379 E6.55005
G1 X158.516 Y179.699 E6.56266
G1 X127.926 Y179.699 E7.49532
M204 S2000
G1 X128.101 Y179.266 F9600.000
G1 F1800.000 E5.49532
G92 E0
G1 X157.932 Y178.812 F9600.000
G1 E2.00000 F1800.000
M204 S2000
G1 X157.892 Y178.852 E2.00179 F6000.000
G1 X157.156 Y178.852 E2.02512
G1 X157.932 Y178.076 E2.05989
G1 X157.932 Y177.340 E2.08322
G1 X156.420 Y178.852 E2.15098
G1 X155.684 Y178.852 E2.17430
G1 X157.932 Y176.604 E2.27505
G1 X157.932 Y175.868 E2.29837
G1 X154.948 Y178.852 E2.43211
G1 X154.211 Y178.852 E2.45543
G1 X157.932 Y175.132 E2.62215
G1 X157.932 Y174.396 E2.64547
G1 X153.475 Y178.852 E2.84517
G1 X152.739 Y178.852 E2.86850
G1 X157.932 Y173.659 E3.10118
G1 X157.932 Y172.923 E3.12451
G1 X152.003 Y178.852 E3.39018
G1 X151.267 Y178.852 E3.41350
G1 X157.932 Y172.187 E3.71216
G1 X157.932 Y171.451 E3.73548
G1 X150.531 Y178.852 E4.06713
G1 X149.795 Y178.852 E4.09045
G1 X157.932 Y170.715 E4.45508
G1 X157.932 Y169.979 E4.47840
G1 X149.059 Y178.852 E4.87601
G1 X148.323 Y178.852 E4.89934
G1 X157.932 Y169.243 E5.32993
G1 X157.932 Y168.507 E5.35326
G1 X147.587 Y178.852 E5.81684
G1 X146.851 Y178.852 E5.84016
G1 X157.932 Y167.771 E6.33673
G1 X157.932 Y167.035 E6.36005
G1 X146.115 Y178.852 E6.88960
G1 X145.378 Y178.852 E6.91293
G1 X157.932 Y166.299 E7.47546
G1 X157.932 Y165.563 E7.49879
G1 X144.642 Y178.852 E8.09431
G1 X143.906 Y178.852 E8.11763
G1 X157.932 Y164.826 E8.74614
G1 X157.932 Y164.090 E8.76946
G1 X143.170 Y178.852 E9.43095
G1 X142.434 Y178.852 E9.45428
G1 X157.932 Y163.354 E10.14875
G1 X157.932 Y162.618 E10.17208
G1 X141.698 Y178.852 E10.89954
G1 X140.962 Y178.852 E10.92286
G1 X157.932 Y161.882 E11.68331
G1 X157.932 Y161.146 E11.70663
G1 X140.226 Y178.852 E12.50006
G1 X139.490 Y178.852 E12.52338
G1 X157.932 Y160.410 E13.34980
G1 X157.932 Y159.674 E13.37312
G1 X138.754 Y178.852 E14.23252
G1 X138.018 Y178.852 E14.25585
G1 X157.932 Y158.938 E15.14823
G1 X157.932 Y158.202 E15.17156
G1 X137.282 Y178.852 E16.09693
G1 X136.545 Y178.852 E16.12025
G1 X157.932 Y157.466 E17.07860
G1 X157.932 Y156.729 E17.10193
G1 X135.809 Y178.852 E18.09327
G1 X135.073 Y178.852 E18.11659
G1 X157.932 Y155.993 E19.14092
G1 X157.932 Y155.257 E19.16424
G1 X134.337 Y178.852 E20.22155
G1 X133.601 Y178.852 E20.24487
G1 X157.932 Y154.521 E21.33517
G1 X157.932 Y153.785 E21.35849
G1 X132.865 Y178.852 E22.48177
G1 X132.129 Y178.852 E22.50510
G1 X157.932 Y153.049 E23.66136
G1 X157.932 Y152.313 E23.68469
G1 X131.393 Y178.852 E24.87393
G1 X130.657 Y178.852 E24.89726
G1 X157.932 Y151.577 E26.11949
G1 X157.932 Y150.841 E26.14282
G1 X129.921 Y178.852 E27.39804
G1 X129.185 Y178.852 E27.42136
G1 X157.932 Y150.105 E28.70956
G1 X157.932 Y149.369 E28.73289
G1 X128.698 Y178.603 E30.04290
G1 X128.698 Y177.866 E30.06622
G1 X157.932 Y148.633 E31.37623
G1 X157.932 Y147.896 E31.39955
G1 X128.698 Y177.130 E32.70956
G1 X128.698 Y176.394 E32.73289
G1 X157.932 Y147.160 E34.04290
G1 X157.932 Y146.424 E34.06622
G1 X128.698 Y175.658 E35.37623
G1 X128.698 Y174.922 E35.39955
G1 X157.932 Y145.688 E36.70956
G1 X157.932 Y144.952 E36.73289
G1 X128.698 Y174.186 E38.04290
G1 X128.698 Y173.450 E38.06622
G1 X157.932 Y144.216 E39.37623
G1 X157.932 Y143.480 E39.39955
G1 X128.698 Y172.714 E40.70956
G1 X128.698 Y171.978 E40.73289
G1 X157.932 Y142.744 E42.04290
G1 X157.932 Y142.008 E42.06622
G1 X128.698 Y171.242 E43.37623
G1 X128.698 Y170.506 E43.39955
G1 X157.932 Y141.272 E44.70956
G1 X157.932 Y140.536 E44.73289
G1 X128.698 Y169.770 E46.04290
G1 X128.698 Y169.033 E46.06622
G1 X157.932 Y139.800 E47.37623
G1 X157.932 Y139.063 E47.39955
G1 X128.698 Y168.297 E48.70956
G1 X128.698 Y167.561 E48.73289
G1 X157.932 Y138.327 E50.04289
G1 X157.932 Y137.591 E50.06622
G1 X128.698 Y166.825 E51.37623
G1 X128.698 Y166.089 E51.39955
G1 X157.932 Y136.855 E52.70956
G1 X157.932 Y136.119 E52.73288
G1 X128.698 Y165.353 E54.04289
G1 X128.698 Y164.617 E54.06622
G1 X157.932 Y135.383 E55.37623
G1 X157.932 Y134.647 E55.39955
G1 X128.698 Y163.881 E56.70956
G1 X128.698 Y163.145 E56.73288
G1 X157.932 Y133.911 E58.04289
G1 X157.932 Y133.175 E58.06622
G1 X128.698 Y162.409 E59.37623
G1 X128.698 Y161.673 E59.39955
G1 X157.932 Y132.439 E60.70956
G1 X157.932 Y131.703 E60.73288
G1 X128.698 Y160.937 E62.04289
G1 X128.698 Y160.200 E62.06622
G1 X157.932 Y130.967 E63.37623
G1 X157.932 Y130.230 E63.39955
G1 X128.698 Y159.464 E64.70956
G1 X128.698 Y158.728 E64.73288
G1 X157.932 Y129.494 E66.04289
G1 X157.932 Y128.758 E66.06621
G1 X128.698 Y157.992 E67.37622
G1 X128.698 Y157.256 E67.39955
G1 X157.932 Y128.022 E68.70956
G1 X157.932 Y127.286 E68.73288
G1 X128.698 Y156.520 E70.04289
G1 X128.698 Y155.784 E70.06621
G1 X157.932 Y126.550 E71.37622
G1 X157.932 Y125.814 E71.39955
G1 X128.698 Y155.048 E72.70956
G1 X128.698 Y154.312 E72.73288
G1 X157.932 Y125.078 E74.04289
G1 X157.932 Y124.342 E74.06621
G1 X128.698 Y153.576 E75.37622
G1 X128.698 Y152.840 E75.39955
G1 X157.932 Y123.606 E76.70955
G1 X157.932 Y122.870 E76.73288
G1 X128.698 Y152.104 E78.04289
G1 X128.698 Y151.367 E78.06621
G1 X157.932 Y122.134 E79.37622
G1 X157.932 Y121.397 E79.39954
G1 X128.698 Y150.631 E80.70955
G1 X128.698 Y149.895 E80.73288
G1 X157.445 Y121.148 E82.02108
G1 X156.709 Y121.148 E82.04441
G1 X128.698 Y149.159 E83.29962
G1 X128.698 Y148.423 E83.32295
G1 X155.973 Y121.148 E84.54518
G1 X155.237 Y121.148 E84.56851
G1 X128.698 Y147.687 E85.75776
G1 X128.698 Y146.951 E85.78108
G1 X154.501 Y121.148 E86.93735
G1 X153.765 Y121.148 E86.96067
G1 X128.698 Y146.215 E88.08395
G1 X128.698 Y145.479 E88.10727
G1 X153.029 Y121.148 E89.19757
G1 X152.293 Y121.148 E89.22089
G1 X128.698 Y144.743 E90.27820
G1 X128.698 Y144.007 E90.30153
G1 X151.557 Y121.148 E91.32585
G1 X150.821 Y121.148 E91.34917
G1 X128.698 Y143.270 E92.34051
