; generated by Slic3r 1.1.4 on 2014-06-19 at 15:50:56

; perimeters extrusion width = 0.50mm
; infill extrusion width = 0.52mm
; solid infill extrusion width = 0.52mm
; top infill extrusion width = 0.52mm

G21 ; set units to millimeters
M107
G28 ; home all axes
G90 ; use absolute coordinates
G92 E0
M82 ; use absolute distances for extrusion
M204 S2000
G1 F1800.000 E-2.00000
G92 E0
G1 Z0.400 F9600.000
G1 X122.941 Y116.462 F9600.000
G1 E2.00000 F1800.000
G1 X124.706 Y114.899 E2.07189 F3600.000
G1 X126.890 Y114.011 E2.14378
G1 X128.397 Y113.847 E2.18999
G1 X158.634 Y113.847 E3.11190
G1 X161.999 Y114.709 E3.21781
G1 X162.131 Y114.781 E3.22238
G1 X163.978 Y116.247 E3.29427
G1 X165.234 Y118.242 E3.36616
G1 X165.766 Y120.919 E3.44937
G1 X165.766 Y179.081 E5.22266
G1 X165.369 Y181.405 E5.29456
G1 X164.222 Y183.466 E5.36645
G1 X162.131 Y185.219 E5.44965
G1 X162.000 Y185.291 E5.45422
G1 X158.634 Y186.153 E5.56014
G1 X128.397 Y186.153 E6.48204
G1 X126.073 Y185.756 E6.55393
G1 X124.012 Y184.609 E6.62583
G1 X122.449 Y182.844 E6.69772
G1 X121.561 Y180.660 E6.76961
G1 X121.397 Y179.153 E6.81582
G1 X121.397 Y120.847 E8.59351
G1 X121.794 Y118.523 E8.66540
G1 X122.904 Y116.528 E8.73501
G1 X123.436 Y116.647 F9600.000
G1 X125.185 Y115.197 E8.80426 F3600.000
G1 X128.397 Y114.347 E8.90558
G1 X158.634 Y114.347 E9.82748
G1 X161.759 Y115.147 E9.92583
G1 X161.890 Y115.220 E9.93040
G1 X163.661 Y116.643 E9.99966
G1 X164.833 Y118.588 E10.06891
G1 X165.266 Y120.919 E10.14119
G1 X165.266 Y179.081 E11.91449
G1 X164.869 Y181.317 E11.98374
G1 X163.727 Y183.281 E12.05300
G1 X161.891 Y184.780 E12.12528
G1 X161.759 Y184.852 E12.12985
G1 X158.634 Y185.653 E12.22820
G1 X128.397 Y185.653 E13.15010
G1 X126.161 Y185.256 E13.21936
G1 X124.197 Y184.114 E13.28862
G1 X122.747 Y182.366 E13.35788
G1 X121.897 Y179.153 E13.45919
G1 X121.897 Y120.847 E15.23688
G1 X122.294 Y118.611 E15.30614
G1 X123.399 Y116.712 E15.37311
G1 F1800.000 E13.37311
G92 E0
G1 X129.147 Y121.597 F9600.000
G1 E2.00000 F1800.000
G1 X158.016 Y121.597 E2.88018 F5400.000
G1 X158.016 Y178.403 E4.61213
G1 X129.147 Y178.403 E5.49231
G1 X129.147 Y121.672 E7.22198
G1 X128.647 Y121.097 F9600.000
G1 X158.516 Y121.097 E8.13265 F5400.000
G1 X158.516 Y178.903 E9.89509
G1 X128.647 Y178.903 E10.80576
G1 X128.647 Y121.172 E12.56592
G1 X129.080 Y121.347 F9600.000
G1 F1800.000 E10.56592
G92 E0
G1 X157.629 Y121.944 F9600.000
G1 E2.00000 F1800.000
G1 X157.669 Y121.984 E2.00179 F5400.000
G1 X157.669 Y122.723 E2.02520
G1 X156.890 Y121.944 E2.06009
G1 X156.152 Y121.944 E2.08350
G1 X157.669 Y123.461 E2.15149
G1 X157.669 Y124.200 E2.17489
G1 X155.413 Y121.944 E2.27599
G1 X154.674 Y121.944 E2.29939
G1 X157.669 Y124.939 E2.43359
G1 X157.669 Y125.677 E2.45699
G1 X153.936 Y121.944 E2.62428
G1 X153.197 Y121.944 E2.64769
G1 X157.669 Y126.416 E2.84808
G1 X157.669 Y127.155 E2.87149
G1 X152.458 Y121.944 E3.10498
G1 X151.720 Y121.944 E3.12839
G1 X157.669 Y127.893 E3.39498
G1 X157.669 Y128.632 E3.41839
G1 X150.981 Y121.944 E3.71808
G1 X150.242 Y121.944 E3.74149
G1 X157.669 Y129.371 E4.07428
G1 X157.669 Y130.109 E4.09769
G1 X149.504 Y121.944 E4.46358
G1 X148.765 Y121.944 E4.48698
G1 X157.669 Y130.848 E4.88598
G1 X157.669 Y131.587 E4.90938
G1 X148.026 Y121.944 E5.34148
G1 X147.288 Y121.944 E5.36488
G1 X157.669 Y132.325 E5.83008
G1 X157.669 Y133.064 E5.85348
G1 X146.549 Y121.944 E6.35178
G1 X145.810 Y121.944 E6.37519
G1 X157.669 Y133.803 E6.90658
G1 X157.669 Y134.541 E6.92999
G1 X145.072 Y121.944 E7.49448
G1 X144.333 Y121.944 E7.51789
G1 X157.669 Y135.280 E8.11548
G1 X157.669 Y136.018 E8.13889
G1 X143.594 Y121.944 E8.76958
G1 X142.856 Y121.944 E8.79299
G1 X157.669 Y136.757 E9.45678
G1 X157.669 Y137.496 E9.48019
G1 X142.117 Y121.944 E10.17708
G1 X141.378 Y121.944 E10.20049
G1 X157.669 Y138.234 E10.93049
G1 X157.669 Y138.973 E10.95389
G1 X140.640 Y121.944 E11.71699
G1 X139.901 Y121.944 E11.74039
G1 X157.669 Y139.712 E12.53659
G1 X157.669 Y140.450 E12.55999
G1 X139.162 Y121.944 E13.38929
G1 X138.424 Y121.944 E13.41270
G1 X157.669 Y141.189 E14.27509
G1 X157.669 Y141.928 E14.29850
G1 X137.685 Y121.944 E15.19400
G1 X136.947 Y121.944 E15.21740
G1 X157.669 Y142.666 E16.14600
G1 X157.669 Y143.405 E16.16940
G1 X136.208 Y121.944 E17.13110
G1 X135.469 Y121.944 E17.15451
G1 X157.669 Y144.144 E18.14930
G1 X157.669 Y144.882 E18.17271
G1 X134.731 Y121.944 E19.20061
G1 X133.992 Y121.944 E19.22401
G1 X157.669 Y145.621 E20.28501
G1 X157.669 Y146.360 E20.30841
G1 X133.253 Y121.944 E21.40251
G1 X132.515 Y121.944 E21.42592
G1 X157.669 Y147.098 E22.55312
G1 X157.669 Y147.837 E22.57652
G1 X131.776 Y121.944 E23.73682
G1 X131.037 Y121.944 E23.76022
G1 X157.669 Y148.576 E24.95362
G1 X157.669 Y149.314 E24.97703
G1 X130.299 Y121.944 E26.20353
G1 X129.560 Y121.944 E26.22693
G1 X157.669 Y150.053 E27.48653
G1 X157.669 Y150.792 E27.50994
G1 X129.494 Y122.617 E28.77249
G1 X129.494 Y123.355 E28.79589
G1 X157.669 Y151.530 E30.05844
G1 X157.669 Y152.269 E30.08185
G1 X129.494 Y124.094 E31.34440
G1 X129.494 Y124.833 E31.36781
G1 X157.669 Y153.008 E32.63036
G1 X157.669 Y153.746 E32.65376
G1 X129.494 Y125.571 E33.91631
G1 X129.494 Y126.310 E33.93972
G1 X157.669 Y154.485 E35.20227
G1 X157.669 Y155.224 E35.22568
G1 X129.494 Y127.049 E36.48823
G1 X129.494 Y127.787 E36.51163
G1 X157.669 Y155.962 E37.77419
G1 X157.669 Y156.701 E37.79759
G1 X129.494 Y128.526 E39.06014
G1 X129.494 Y129.265 E39.08355
G1 X157.669 Y157.440 E40.34610
G1 X157.669 Y158.178 E40.36950
G1 X129.494 Y130.003 E41.63206
G1 X129.494 Y130.742 E41.65546
G1 X157.669 Y158.917 E42.91801
G1 X157.669 Y159.656 E42.94142
G1 X129.494 Y131.481 E44.20397
G1 X129.494 Y132.219 E44.22738
G1 X157.669 Y160.394 E45.48993
G1 X157.669 Y161.133 E45.51333
G1 X129.494 Y132.958 E46.77588
G1 X129.494 Y133.697 E46.79929
G1 X157.669 Y161.871 E48.06184
G1 X157.669 Y162.610 E48.08525
G1 X129.494 Y134.435 E49.34780
G1 X129.494 Y135.174 E49.37120
G1 X157.669 Y163.349 E50.63376
G1 X157.669 Y164.087 E50.65716
G1 X129.494 Y135.913 E51.91971
G1 X129.494 Y136.651 E51.94312
G1 X157.669 Y164.826 E53.20567
G1 X157.669 Y165.565 E53.22908
G1 X129.494 Y137.390 E54.49163
G1 X129.494 Y138.129 E54.51503
G1 X157.669 Y166.303 E55.77759
G1 X157.669 Y167.042 E55.80099
G1 X129.494 Y138.867 E57.06354
G1 X129.494 Y139.606 E57.08695
G1 X157.669 Y167.781 E58.34950
G1 X157.669 Y168.519 E58.37291
G1 X129.494 Y140.345 E59.63546
G1 X129.494 Y141.083 E59.65886
G1 X157.669 Y169.258 E60.92141
G1 X157.669 Y169.997 E60.94482
G1 X129.494 Y141.822 E62.20737
G1 X129.494 Y142.561 E62.23078
G1 X157.669 Y170.735 E63.49333
G1 X157.669 Y171.474 E63.51673
G1 X129.494 Y143.299 E64.77929
G1 X129.494 Y144.038 E64.80269
G1 X157.669 Y172.213 E66.06524
G1 X157.669 Y172.951 E66.08865
G1 X129.494 Y144.776 E67.35120
G1 X129.494 Y145.515 E67.37461
G1 X157.669 Y173.690 E68.63716
G1 X157.669 Y174.429 E68.66057
G1 X129.494 Y146.254 E69.92312
G1 X129.494 Y146.992 E69.94652
G1 X157.669 Y175.167 E71.20907
G1 X157.669 Y175.906 E71.23248
G1 X129.494 Y147.731 E72.49503
G1 X129.494 Y148.470 E72.51844
G1 X157.669 Y176.645 E73.78099
G1 X157.669 Y177.383 E73.80440
G1 X129.494 Y149.208 E75.06695
G1 X129.494 Y149.947 E75.09035
G1 X157.603 Y178.056 E76.34995
G1 X156.864 Y178.056 E76.37336
G1 X129.494 Y150.686 E77.59986
G1 X129.494 Y151.424 E77.62326
G1 X156.126 Y178.056 E78.81666
G1 X155.387 Y178.056 E78.84007
G1 X129.494 Y152.163 E80.00036
G1 X129.494 Y152.902 E80.02377
G1 X154.648 Y178.056 E81.15097
G1 X153.910 Y178.056 E81.17437
G1 X129.494 Y153.640 E82.26847
G1 X129.494 Y154.379 E82.29188
G1 X153.171 Y178.056 E83.35287
G1 X152.432 Y178.056 E83.37628
G1 X129.494 Y155.118 E84.40418
G1 X129.494 Y155.856 E84.42758
G1 X151.694 Y178.056 E85.42238
G1 X150.955 Y178.056 E85.44578
G1 X129.494 Y156.595 E86.40748
G1 X129.494 Y157.334 E86.43089
G1 X150.216 Y178.056 E87.35948
G1 X149.478 Y178.056 E87.38289
G1 X129.494 Y158.072 E88.27839
G1 X129.494 Y158.811 E88.30179
G1 X148.739 Y178.056 E89.16419
G1 X148.000 Y178.056 E89.18759
G1 X129.494 Y159.550 E90.01689
G1 X129.494 Y160.288 E90.04029
G1 X147.262 Y178.056 E90.83649
G1 X146.523 Y178.056 E90.85990
G1 X129.494 Y161.027 E91.62299
G1 X129.494 Y161.766 E91.64640
G1 X145.784 Y178.056 E92.37639
G1 X145.046 Y178.056 E92.39980
G1 X129.494 Y162.504 E93.09670
G1 X129.494 Y163.243 E93.12010
G1 X144.307 Y178.056 E93.78390
G1 X143.568 Y178.056 E93.80730
G1 X129.494 Y163.982 E94.43800
G1 X129.494 Y164.720 E94.46140
G1 X142.830 Y178.056 E95.05900
G1 X142.091 Y178.056 E95.08240
G1 X129.494 Y165.459 E95.64690
G1 X129.494 Y166.197 E95.67030
G1 X141.353 Y178.056 E96.20170
G1 X140.614 Y178.056 E96.22510
G1 X129.494 Y166.936 E96.72340
G1 X129.494 Y167.675 E96.74680
G1 X139.875 Y178.056 E97.21200
G1 X139.137 Y178.056 E97.23540
G1 X129.494 Y168.413 E97.66750
G1 X129.494 Y169.152 E97.69090
G1 X138.398 Y178.056 E98.08990
G1 X137.659 Y178.056 E98.11330
G1 X129.494 Y169.891 E98.47920
G1 X129.494 Y170.629 E98.50260
G1 X136.921 Y178.056 E98.83540
G1 X136.182 Y178.056 E98.85880
G1 X129.494 Y171.368 E99.15850
G1 X129.494 Y172.107 E99.18190
G1 X135.443 Y178.056 E99.44850
G1 X134.705 Y178.056 E99.47190
G1 X129.494 Y172.845 E99.70540
G1 X129.494 Y173.584 E99.72880
G1 X133.966 Y178.056 E99.92919
G1 X133.227 Y178.056 E99.95260
G1 X129.494 Y174.323 E100.11989
G1 X129.494 Y175.061 E100.14330
G1 X132.489 Y178.056 E100.27749
G1 X131.750 Y178.056 E100.30090
G1 X129.494 Y175.800 E100.40199
G1 X129.494 Y176.539 E100.42539
G1 X131.011 Y178.056 E100.49339
G1 X130.273 Y178.056 E100.51679
G1 X129.494 Y177.277 E100.55169
G1 X129.494 Y178.016 E100.57509
G1 X129.534 Y178.056 E100.57688
M204 S2000
G1 F1800.000 E98.57688
G92 E0
G1 Z0.800 F9600.000
G1 X128.747 Y178.803 F9600.000
G1 E2.00000 F1800.000
M204 S2000
G1 X128.747 Y121.197 E3.75635 F5400.000
G1 X158.279 Y121.197 E4.65674
G1 X158.279 Y178.803 E6.41309
G1 X128.822 Y178.803 E7.31119
M204 S2000
G1 X128.247 Y179.303 F9600.000
M204 S2000
G1 X128.247 Y120.697 E9.09803 F5400.000
G1 X158.570 Y120.697 E10.02255
G1 X158.779 Y120.811 E10.02980
G1 X158.779 Y179.189 E11.80967
G1 X158.570 Y179.303 E11.81692
G1 X128.322 Y179.303 E12.73916
M204 S2000
G1 X128.497 Y178.870 F9600.000
G1 F1800.000 E10.73916
G92 E0
G1 X157.932 Y178.416 F9600.000
G1 E2.00000 F1800.000
M204 S2000
G1 X157.892 Y178.456 E2.00179 F5400.000
G1 X157.153 Y178.456 E2.02519
G1 X157.932 Y177.677 E2.06008
G1 X157.932 Y176.939 E2.08348
G1 X156.415 Y178.456 E2.15146
G1 X155.676 Y178.456 E2.17487
G1 X157.932 Y176.200 E2.27594
G1 X157.932 Y175.462 E2.29934
G1 X154.938 Y178.456 E2.43351
G1 X154.199 Y178.456 E2.45692
G1 X157.932 Y174.723 E2.62418
G1 X157.932 Y173.985 E2.64758
G1 X153.461 Y178.456 E2.84794
G1 X152.722 Y178.456 E2.87134
G1 X157.932 Y173.246 E3.10480
G1 X157.932 Y172.508 E3.12820
G1 X151.984 Y178.456 E3.39475
G1 X151.245 Y178.456 E3.41815
G1 X157.932 Y171.769 E3.71779
G1 X157.932 Y171.031 E3.74120
G1 X150.507 Y178.456 E4.07393
G1 X149.768 Y178.456 E4.09734
G1 X157.932 Y170.292 E4.46317
G1 X157.932 Y169.554 E4.48657
G1 X149.029 Y178.456 E4.88550
G1 X148.291 Y178.456 E4.90890
G1 X157.932 Y168.815 E5.34092
G1 X157.932 Y168.077 E5.36432
G1 X147.552 Y178.456 E5.82944
G1 X146.814 Y178.456 E5.85284
G1 X157.932 Y167.338 E6.35105
G1 X157.932 Y166.599 E6.37445
G1 X146.075 Y178.456 E6.90576
G1 X145.337 Y178.456 E6.92916
G1 X157.932 Y165.861 E7.49356
G1 X157.932 Y165.122 E7.51696
G1 X144.598 Y178.456 E8.11446
G1 X143.860 Y178.456 E8.13786
G1 X157.932 Y164.384 E8.76845
G1 X157.932 Y163.645 E8.79185
G1 X143.121 Y178.456 E9.45554
G1 X142.383 Y178.456 E9.47894
G1 X157.932 Y162.907 E10.17572
G1 X157.932 Y162.168 E10.19912
G1 X141.644 Y178.456 E10.92899
G1 X140.906 Y178.456 E10.95239
G1 X157.932 Y161.430 E11.71536
G1 X157.932 Y160.691 E11.73876
G1 X140.167 Y178.456 E12.53483
G1 X139.429 Y178.456 E12.55823
G1 X157.932 Y159.953 E13.38739
G1 X157.932 Y159.214 E13.41079
G1 X138.690 Y178.456 E14.27304
G1 X137.951 Y178.456 E14.29644
G1 X157.932 Y158.476 E15.19179
G1 X157.932 Y157.737 E15.21519
G1 X137.213 Y178.456 E16.14363
G1 X136.474 Y178.456 E16.16703
G1 X157.932 Y156.999 E17.12857
G1 X157.932 Y156.260 E17.15197
G1 X135.736 Y178.456 E18.14660
G1 X134.997 Y178.456 E18.17000
G1 X157.932 Y155.521 E19.19773
G1 X157.932 Y154.783 E19.22113
G1 X134.259 Y178.456 E20.28195
G1 X133.520 Y178.456 E20.30535
G1 X157.932 Y154.044 E21.39926
G1 X157.932 Y153.306 E21.42266
G1 X132.782 Y178.456 E22.54967
G1 X132.043 Y178.456 E22.57307
G1 X157.932 Y152.567 E23.73318
G1 X157.932 Y151.829 E23.75658
G1 X131.305 Y178.456 E24.94978
G1 X130.566 Y178.456 E24.97318
G1 X157.932 Y151.090 E26.19947
G1 X157.932 Y150.352 E26.22287
G1 X129.828 Y178.456 E27.48226
G1 X129.112 Y178.434 E27.50496
G1 X157.932 Y149.613 E28.79644
G1 X157.932 Y148.875 E28.81984
G1 X129.094 Y177.713 E30.11210
G1 X129.094 Y176.974 E30.13550
G1 X157.932 Y148.136 E31.42776
G1 X157.932 Y147.398 E31.45117
G1 X129.094 Y176.235 E32.74343
G1 X129.094 Y175.497 E32.76683
G1 X157.932 Y146.659 E34.05909
G1 X157.932 Y145.921 E34.08249
G1 X129.094 Y174.758 E35.37475
G1 X129.094 Y174.020 E35.39815
G1 X157.932 Y145.182 E36.69042
G1 X157.932 Y144.444 E36.71382
G1 X129.094 Y173.281 E38.00608
G1 X129.094 Y172.543 E38.02948
G1 X157.932 Y143.705 E39.32174
G1 X157.932 Y142.966 E39.34514
G1 X129.094 Y171.804 E40.63741
G1 X129.094 Y171.066 E40.66081
G1 X157.932 Y142.228 E41.95307
G1 X157.932 Y141.489 E41.97647
G1 X129.094 Y170.327 E43.26873
G1 X129.094 Y169.589 E43.29213
G1 X157.932 Y140.751 E44.58439
G1 X157.932 Y140.012 E44.60780
G1 X129.094 Y168.850 E45.90006
G1 X129.094 Y168.112 E45.92346
G1 X157.932 Y139.274 E47.21572
G1 X157.932 Y138.535 E47.23912
G1 X129.094 Y167.373 E48.53138
G1 X129.094 Y166.635 E48.55478
G1 X157.932 Y137.797 E49.84705
G1 X157.932 Y137.058 E49.87045
G1 X129.094 Y165.896 E51.16271
G1 X129.094 Y165.157 E51.18611
G1 X157.932 Y136.320 E52.47837
G1 X157.932 Y135.581 E52.50177
G1 X129.094 Y164.419 E53.79403
G1 X129.094 Y163.680 E53.81744
G1 X157.932 Y134.843 E55.10970
G1 X157.932 Y134.104 E55.13310
G1 X129.094 Y162.942 E56.42536
G1 X129.094 Y162.203 E56.44876
G1 X157.932 Y133.366 E57.74102
G1 X157.932 Y132.627 E57.76442
G1 X129.094 Y161.465 E59.05669
G1 X129.094 Y160.726 E59.08009
G1 X157.932 Y131.888 E60.37235
G1 X157.932 Y131.150 E60.39575
G1 X129.094 Y159.988 E61.68801
G1 X129.094 Y159.249 E61.71141
G1 X157.932 Y130.411 E63.00367
G1 X157.932 Y129.673 E63.02707
G1 X129.094 Y158.511 E64.31934
G1 X129.094 Y157.772 E64.34274
G1 X157.932 Y128.934 E65.63500
G1 X157.932 Y128.196 E65.65840
G1 X129.094 Y157.034 E66.95066
G1 X129.094 Y156.295 E66.97406
G1 X157.932 Y127.457 E68.26632
G1 X157.932 Y126.719 E68.28972
G1 X129.094 Y155.557 E69.58199
G1 X129.094 Y154.818 E69.60539
G1 X157.932 Y125.980 E70.89765
G1 X157.932 Y125.242 E70.92105
G1 X129.094 Y154.079 E72.21331
G1 X129.094 Y153.341 E72.23671
G1 X157.932 Y124.503 E73.52897
G1 X157.932 Y123.765 E73.55237
G1 X129.094 Y152.602 E74.84463
G1 X129.094 Y151.864 E74.86804
G1 X157.932 Y123.026 E76.16030
G1 X157.932 Y122.288 E76.18370
G1 X129.094 Y151.125 E77.47596
G1 X129.094 Y150.387 E77.49936
G1 X157.914 Y121.567 E78.79084
G1 X157.198 Y121.544 E78.81354
G1 X129.094 Y149.648 E80.07293
G1 X129.094 Y148.910 E80.09633
G1 X156.460 Y121.544 E81.32262
G1 X155.721 Y121.544 E81.34602
G1 X129.094 Y148.171 E82.53922
G1 X129.094 Y147.433 E82.56263
G1 X154.983 Y121.544 E83.72273
G1 X154.244 Y121.544 E83.74613
G1 X129.094 Y146.694 E84.87314
G1 X129.094 Y145.956 E84.89654
G1 X153.506 Y121.544 E85.99046
G1 X152.767 Y121.544 E86.01386
G1 X129.094 Y145.217 E87.07468
G1 X129.094 Y144.479 E87.09809
G1 X152.029 Y121.544 E88.12581
G1 X151.290 Y121.544 E88.14921
G1 X129.094 Y143.740 E89.14385
G1 X129.094 Y143.001 E89.16725
G1 X150.552 Y121.544 E90.12878
G1 X149.813 Y121.544 E90.15219
G1 X129.094 Y142.263 E91.08063
G1 X129.094 Y141.524 E91.10403
G1 X149.074 Y121.544 E91.99938
G1 X148.336 Y121.544 E92.02278
G1 X129.094 Y140.786 E92.88503
G1 X129.094 Y140.047 E92.90844
G1 X147.597 Y121.544 E93.73759
G1 X146.859 Y121.544 E93.76100
G1 X129.094 Y139.309 E94.55706
G1 X129.094 Y138.570 E94.58046
G1 X146.120 Y121.544 E95.34343
G1 X145.382 Y121.544 E95.36683
G1 X129.094 Y137.832 E96.09671
G1 X129.094 Y137.093 E96.12011
G1 X144.643 Y121.544 E96.81689
