; generated by Slic3r 1.1.4 on 2014-06-20 at 15:37:23

; perimeters extrusion width = 0.50mm
; infill extrusion width = 0.52mm
; solid infill extrusion width = 0.52mm
; top infill extrusion width = 0.32mm

G21 ; set units to millimeters
M107
G28 ; home all axes
G90 ; use absolute coordinates
G92 E0
M82 ; use absolute distances for extrusion
M204 S2000
G1 F1800.000 E-2.00000
G92 E0
G1 Z0.400 F9600.000
G1 X122.941 Y116.462 F9600.000
G1 E2.00000 F1800.000
G1 X124.706 Y114.899 E2.07189 F3600.000
G1 X126.890 Y114.011 E2.14378
G1 X128.397 Y113.847 E2.18999
G1 X158.634 Y113.847 E3.11190
G1 X161.999 Y114.709 E3.21781
G1 X162.131 Y114.781 E3.22238
G1 X163.978 Y116.247 E3.29427
G1 X165.234 Y118.242 E3.36616
G1 X165.766 Y120.919 E3.44937
G1 X165.766 Y179.081 E5.22266
G1 X165.369 Y181.405 E5.29456
G1 X164.222 Y183.466 E5.36645
G1 X162.131 Y185.219 E5.44965
G1 X162.000 Y185.291 E5.45422
G1 X158.634 Y186.153 E5.56014
G1 X128.397 Y186.153 E6.48204
G1 X126.073 Y185.756 E6.55393
G1 X124.012 Y184.609 E6.62583
G1 X122.449 Y182.844 E6.69772
G1 X121.561 Y180.660 E6.76961
G1 X121.397 Y179.153 E6.81582
G1 X121.397 Y120.847 E8.59351
G1 X121.794 Y118.523 E8.66540
G1 X122.904 Y116.528 E8.73501
G1 X123.436 Y116.647 F9600.000
G1 X125.185 Y115.197 E8.80426 F3600.000
G1 X128.397 Y114.347 E8.90558
G1 X158.634 Y114.347 E9.82748
G1 X161.759 Y115.147 E9.92583
G1 X161.890 Y115.220 E9.93040
G1 X163.661 Y116.643 E9.99966
G1 X164.833 Y118.588 E10.06891
G1 X165.266 Y120.919 E10.14119
G1 X165.266 Y179.081 E11.91449
G1 X164.869 Y181.317 E11.98374
G1 X163.727 Y183.281 E12.05300
G1 X161.891 Y184.780 E12.12528
G1 X161.759 Y184.852 E12.12985
G1 X158.634 Y185.653 E12.22820
G1 X128.397 Y185.653 E13.15010
G1 X126.161 Y185.256 E13.21936
G1 X124.197 Y184.114 E13.28862
G1 X122.747 Y182.366 E13.35788
G1 X121.897 Y179.153 E13.45919
G1 X121.897 Y120.847 E15.23688
G1 X122.294 Y118.611 E15.30614
G1 X123.399 Y116.712 E15.37311
G1 F1800.000 E13.37311
G92 E0
G1 X158.016 Y178.403 F9600.000
G1 E2.00000 F1800.000
G1 X129.147 Y178.403 E2.88018 F5400.000
G1 X129.147 Y121.597 E4.61213
G1 X158.016 Y121.597 E5.49231
G1 X158.016 Y178.328 E7.22198
G1 X158.516 Y178.903 F9600.000
G1 X128.647 Y178.903 E8.13265 F5400.000
G1 X128.647 Y121.097 E9.89509
G1 X158.516 Y121.097 E10.80576
G1 X158.516 Y178.828 E12.56592
G1 X158.083 Y178.653 F9600.000
G1 F1800.000 E10.56592
G92 E0
G1 X129.534 Y178.056 F9600.000
G1 E2.00000 F1800.000
G1 X129.494 Y178.016 E2.00179 F5400.000
G1 X129.494 Y177.277 E2.02520
G1 X130.273 Y178.056 E2.06009
G1 X131.011 Y178.056 E2.08350
G1 X129.494 Y176.539 E2.15149
G1 X129.494 Y175.800 E2.17489
G1 X131.750 Y178.056 E2.27599
G1 X132.489 Y178.056 E2.29939
G1 X129.494 Y175.061 E2.43359
G1 X129.494 Y174.323 E2.45699
G1 X133.227 Y178.056 E2.62428
G1 X133.966 Y178.056 E2.64769
G1 X129.494 Y173.584 E2.84808
G1 X129.494 Y172.845 E2.87149
G1 X134.705 Y178.056 E3.10498
G1 X135.443 Y178.056 E3.12839
G1 X129.494 Y172.107 E3.39498
G1 X129.494 Y171.368 E3.41839
G1 X136.182 Y178.056 E3.71808
G1 X136.921 Y178.056 E3.74149
G1 X129.494 Y170.629 E4.07428
G1 X129.494 Y169.891 E4.09768
G1 X137.659 Y178.056 E4.46358
G1 X138.398 Y178.056 E4.48698
G1 X129.494 Y169.152 E4.88598
G1 X129.494 Y168.413 E4.90938
G1 X139.137 Y178.056 E5.34148
G1 X139.875 Y178.056 E5.36488
G1 X129.494 Y167.675 E5.83008
G1 X129.494 Y166.936 E5.85348
G1 X140.614 Y178.056 E6.35178
G1 X141.353 Y178.056 E6.37518
G1 X129.494 Y166.197 E6.90658
G1 X129.494 Y165.459 E6.92998
G1 X142.091 Y178.056 E7.49448
G1 X142.830 Y178.056 E7.51789
G1 X129.494 Y164.720 E8.11548
G1 X129.494 Y163.982 E8.13889
G1 X143.568 Y178.056 E8.76958
G1 X144.307 Y178.056 E8.79299
G1 X129.494 Y163.243 E9.45678
G1 X129.494 Y162.504 E9.48019
G1 X145.046 Y178.056 E10.17708
G1 X145.784 Y178.056 E10.20049
G1 X129.494 Y161.766 E10.93049
G1 X129.494 Y161.027 E10.95389
G1 X146.523 Y178.056 E11.71699
G1 X147.262 Y178.056 E11.74039
G1 X129.494 Y160.288 E12.53659
G1 X129.494 Y159.550 E12.55999
G1 X148.000 Y178.056 E13.38929
G1 X148.739 Y178.056 E13.41270
G1 X129.494 Y158.811 E14.27509
G1 X129.494 Y158.072 E14.29850
G1 X149.478 Y178.056 E15.19399
G1 X150.216 Y178.056 E15.21740
G1 X129.494 Y157.334 E16.14600
G1 X129.494 Y156.595 E16.16940
G1 X150.955 Y178.056 E17.13110
G1 X151.694 Y178.056 E17.15450
G1 X129.494 Y155.856 E18.14930
G1 X129.494 Y155.118 E18.17271
G1 X152.432 Y178.056 E19.20061
G1 X153.171 Y178.056 E19.22401
G1 X129.494 Y154.379 E20.28501
G1 X129.494 Y153.640 E20.30841
G1 X153.910 Y178.056 E21.40251
G1 X154.648 Y178.056 E21.42592
G1 X129.494 Y152.902 E22.55311
G1 X129.494 Y152.163 E22.57652
G1 X155.387 Y178.056 E23.73682
G1 X156.126 Y178.056 E23.76022
G1 X129.494 Y151.424 E24.95362
G1 X129.494 Y150.686 E24.97703
G1 X156.864 Y178.056 E26.20353
G1 X157.603 Y178.056 E26.22693
G1 X129.494 Y149.947 E27.48653
G1 X129.494 Y149.208 E27.50994
G1 X157.669 Y177.383 E28.77249
G1 X157.669 Y176.645 E28.79589
G1 X129.494 Y148.470 E30.05845
G1 X129.494 Y147.731 E30.08185
G1 X157.669 Y175.906 E31.34440
G1 X157.669 Y175.167 E31.36781
G1 X129.494 Y146.992 E32.63036
G1 X129.494 Y146.254 E32.65377
G1 X157.669 Y174.429 E33.91632
G1 X157.669 Y173.690 E33.93972
G1 X129.494 Y145.515 E35.20228
G1 X129.494 Y144.776 E35.22568
G1 X157.669 Y172.951 E36.48823
G1 X157.669 Y172.213 E36.51164
G1 X129.494 Y144.038 E37.77419
G1 X129.494 Y143.299 E37.79760
G1 X157.669 Y171.474 E39.06015
G1 X157.669 Y170.735 E39.08355
G1 X129.494 Y142.561 E40.34611
G1 X129.494 Y141.822 E40.36951
G1 X157.669 Y169.997 E41.63206
G1 X157.669 Y169.258 E41.65547
G1 X129.494 Y141.083 E42.91802
G1 X129.494 Y140.345 E42.94143
G1 X157.669 Y168.519 E44.20398
G1 X157.669 Y167.781 E44.22738
G1 X129.494 Y139.606 E45.48994
G1 X129.494 Y138.867 E45.51334
G1 X157.669 Y167.042 E46.77589
G1 X157.669 Y166.303 E46.79930
G1 X129.494 Y138.129 E48.06185
G1 X129.494 Y137.390 E48.08526
G1 X157.669 Y165.565 E49.34781
G1 X157.669 Y164.826 E49.37121
G1 X129.494 Y136.651 E50.63376
G1 X129.494 Y135.913 E50.65717
G1 X157.669 Y164.087 E51.91972
G1 X157.669 Y163.349 E51.94313
G1 X129.494 Y135.174 E53.20568
G1 X129.494 Y134.435 E53.22908
G1 X157.669 Y162.610 E54.49164
G1 X157.669 Y161.871 E54.51504
G1 X129.494 Y133.697 E55.77759
G1 X129.494 Y132.958 E55.80100
G1 X157.669 Y161.133 E57.06355
G1 X157.669 Y160.394 E57.08696
G1 X129.494 Y132.219 E58.34951
G1 X129.494 Y131.481 E58.37291
G1 X157.669 Y159.656 E59.63546
G1 X157.669 Y158.917 E59.65887
G1 X129.494 Y130.742 E60.92142
G1 X129.494 Y130.003 E60.94483
G1 X157.669 Y158.178 E62.20738
G1 X157.669 Y157.440 E62.23078
G1 X129.494 Y129.265 E63.49334
G1 X129.494 Y128.526 E63.51674
G1 X157.669 Y156.701 E64.77929
G1 X157.669 Y155.962 E64.80270
G1 X129.494 Y127.787 E66.06525
G1 X129.494 Y127.049 E66.08865
G1 X157.669 Y155.224 E67.35121
G1 X157.669 Y154.485 E67.37461
G1 X129.494 Y126.310 E68.63716
G1 X129.494 Y125.571 E68.66057
G1 X157.669 Y153.746 E69.92312
G1 X157.669 Y153.008 E69.94653
G1 X129.494 Y124.833 E71.20908
G1 X129.494 Y124.094 E71.23248
G1 X157.669 Y152.269 E72.49503
G1 X157.669 Y151.530 E72.51844
G1 X129.494 Y123.355 E73.78099
G1 X129.494 Y122.617 E73.80440
G1 X157.669 Y150.792 E75.06695
G1 X157.669 Y150.053 E75.09035
G1 X129.560 Y121.944 E76.34995
G1 X130.299 Y121.944 E76.37336
G1 X157.669 Y149.314 E77.59986
G1 X157.669 Y148.576 E77.62326
G1 X131.037 Y121.944 E78.81666
G1 X131.776 Y121.944 E78.84006
G1 X157.669 Y147.837 E80.00036
G1 X157.669 Y147.098 E80.02377
G1 X132.515 Y121.944 E81.15097
G1 X133.253 Y121.944 E81.17437
G1 X157.669 Y146.360 E82.26847
G1 X157.669 Y145.621 E82.29187
G1 X133.992 Y121.944 E83.35287
G1 X134.731 Y121.944 E83.37628
G1 X157.669 Y144.882 E84.40417
G1 X157.669 Y144.144 E84.42758
G1 X135.469 Y121.944 E85.42238
G1 X136.208 Y121.944 E85.44578
G1 X157.669 Y143.405 E86.40748
G1 X157.669 Y142.666 E86.43089
G1 X136.947 Y121.944 E87.35948
G1 X137.685 Y121.944 E87.38289
G1 X157.669 Y141.928 E88.27838
G1 X157.669 Y141.189 E88.30179
G1 X138.424 Y121.944 E89.16419
G1 X139.162 Y121.944 E89.18759
G1 X157.669 Y140.450 E90.01689
G1 X157.669 Y139.712 E90.04029
G1 X139.901 Y121.944 E90.83649
G1 X140.640 Y121.944 E90.85990
G1 X157.669 Y138.973 E91.62299
G1 X157.669 Y138.234 E91.64640
G1 X141.378 Y121.944 E92.37639
G1 X142.117 Y121.944 E92.39980
G1 X157.669 Y137.496 E93.09669
G1 X157.669 Y136.757 E93.12010
G1 X142.856 Y121.944 E93.78390
G1 X143.594 Y121.944 E93.80730
G1 X157.669 Y136.018 E94.43800
G1 X157.669 Y135.280 E94.46140
G1 X144.333 Y121.944 E95.05900
G1 X145.072 Y121.944 E95.08240
G1 X157.669 Y134.541 E95.64690
G1 X157.669 Y133.803 E95.67030
G1 X145.810 Y121.944 E96.20170
G1 X146.549 Y121.944 E96.22510
G1 X157.669 Y133.064 E96.72340
G1 X157.669 Y132.325 E96.74680
G1 X147.288 Y121.944 E97.21200
G1 X148.026 Y121.944 E97.23540
G1 X157.669 Y131.587 E97.66750
G1 X157.669 Y130.848 E97.69090
G1 X148.765 Y121.944 E98.08990
G1 X149.504 Y121.944 E98.11330
G1 X157.669 Y130.109 E98.47920
G1 X157.669 Y129.371 E98.50260
G1 X150.242 Y121.944 E98.83540
G1 X150.981 Y121.944 E98.85880
G1 X157.669 Y128.632 E99.15850
G1 X157.669 Y127.893 E99.18190
G1 X151.720 Y121.944 E99.44850
G1 X152.458 Y121.944 E99.47190
G1 X157.669 Y127.155 E99.70539
G1 X157.669 Y126.416 E99.72880
G1 X153.197 Y121.944 E99.92919
G1 X153.936 Y121.944 E99.95260
G1 X157.669 Y125.677 E100.11989
G1 X157.669 Y124.939 E100.14330
G1 X154.674 Y121.944 E100.27749
G1 X155.413 Y121.944 E100.30090
G1 X157.669 Y124.200 E100.40199
G1 X157.669 Y123.461 E100.42539
G1 X156.152 Y121.944 E100.49339
G1 X156.890 Y121.944 E100.51679
G1 X157.669 Y122.723 E100.55169
G1 X157.669 Y121.984 E100.57509
G1 X157.629 Y121.944 E100.57688
M204 S2000
G1 F1800.000 E98.57688
G92 E0
G1 Z0.800 F9600.000
G1 X158.279 Y178.803 F9600.000
G1 E2.00000 F1800.000
M204 S2000
G1 X128.747 Y178.803 E2.90039 F5400.000
G1 X128.747 Y121.197 E4.65674
G1 X158.279 Y121.197 E5.55713
G1 X158.279 Y178.728 E7.31119
M204 S2000
G1 X158.779 Y179.189 F9600.000
M204 S2000
G1 X158.570 Y179.303 E7.31844 F5400.000
G1 X128.247 Y179.303 E8.24297
G1 X128.247 Y120.697 E10.02980
G1 X158.570 Y120.697 E10.95433
G1 X158.779 Y120.811 E10.96158
G1 X158.779 Y179.114 E12.73916
M204 S2000
G1 X158.545 Y179.144 F9600.000
G1 X157.932 Y177.485 F9600.000
M204 S2000
G1 X156.961 Y178.456 E12.78267 F5400.000
G1 X156.109 Y178.456 E12.80967
G1 X157.932 Y176.617 E12.89172
G1 X157.932 Y175.648 E12.92244
G1 X155.124 Y178.456 E13.04828
G1 X154.279 Y178.456 E13.07503
G1 X157.932 Y174.772 E13.23941
G1 X157.932 Y173.810 E13.26988
G1 X153.286 Y178.456 E13.47805
G1 X152.450 Y178.456 E13.50455
G1 X157.932 Y172.927 E13.75126
G1 X157.932 Y171.973 E13.78148
G1 X151.449 Y178.456 E14.07198
G1 X150.621 Y178.456 E14.09823
G1 X157.932 Y171.082 E14.42727
G1 X157.932 Y170.136 E14.45724
G1 X149.612 Y178.456 E14.83007
G1 X148.791 Y178.456 E14.85607
G1 X157.932 Y169.237 E15.26744
G1 X157.932 Y168.299 E15.29716
G1 X147.775 Y178.456 E15.75231
G1 X146.962 Y178.456 E15.77807
G1 X157.932 Y167.392 E16.27176
G1 X157.932 Y166.462 E16.30124
G1 X145.938 Y178.456 E16.83872
G1 X145.132 Y178.456 E16.86423
G1 X157.932 Y165.547 E17.44025
G1 X157.932 Y164.625 E17.46947
G1 X144.100 Y178.456 E18.08928
G1 X143.303 Y178.456 E18.11454
G1 X157.932 Y163.702 E18.77289
G1 X157.932 Y162.787 E18.80187
G1 X142.263 Y178.456 E19.50400
G1 X141.474 Y178.456 E19.52902
G1 X157.932 Y161.857 E20.26970
G1 X157.932 Y160.950 E20.29842
G1 X140.426 Y178.456 E21.08288
G1 X139.644 Y178.456 E21.10765
G1 X157.932 Y160.012 E21.93066
G1 X157.932 Y159.113 E21.95914
G1 X138.589 Y178.456 E22.82592
G1 X137.815 Y178.456 E22.85044
G1 X157.932 Y158.167 E23.75578
G1 X157.932 Y157.276 E23.78401
G1 X136.752 Y178.456 E24.73312
G1 X135.986 Y178.456 E24.75739
G1 X157.932 Y156.322 E25.74506
G1 X157.932 Y155.439 E25.77304
G1 X134.915 Y178.456 E26.80447
G1 X134.156 Y178.456 E26.82850
G1 X157.932 Y154.477 E27.89850
G1 X157.932 Y153.601 E27.92623
G1 X133.077 Y178.456 E29.03999
G1 X132.327 Y178.456 E29.06377
G1 X157.932 Y152.632 E30.21609
G1 X157.932 Y151.764 E30.24357
G1 X131.240 Y178.456 E31.43966
G1 X130.497 Y178.456 E31.46320
G1 X157.932 Y150.787 E32.69785
G1 X157.932 Y149.927 E32.72508
G1 X129.403 Y178.456 E34.00350
G1 X129.094 Y178.026 E34.02027
G1 X157.932 Y148.941 E35.31807
G1 X157.932 Y148.090 E35.34506
G1 X129.094 Y176.928 E36.63732
G1 X129.094 Y176.181 E36.66097
G1 X157.932 Y147.096 E37.95878
G1 X157.932 Y146.253 E37.98551
G1 X129.094 Y175.091 E39.27777
G1 X129.094 Y174.336 E39.30167
G1 X157.932 Y145.251 E40.59948
G1 X157.932 Y144.416 E40.62597
G1 X129.094 Y173.253 E41.91823
G1 X129.094 Y172.491 E41.94238
G1 X157.932 Y143.406 E43.24018
G1 X157.932 Y142.578 E43.26642
G1 X129.094 Y171.416 E44.55868
G1 X129.094 Y170.646 E44.58308
G1 X157.932 Y141.561 E45.88089
G1 X157.932 Y140.741 E45.90687
G1 X129.094 Y169.579 E47.19913
G1 X129.094 Y168.801 E47.22378
G1 X157.932 Y139.716 E48.52159
G1 X157.932 Y138.904 E48.54733
G1 X129.094 Y167.742 E49.83959
G1 X129.094 Y166.956 E49.86449
G1 X157.932 Y137.871 E51.16229
G1 X157.932 Y137.067 E51.18778
G1 X129.094 Y165.905 E52.48004
G1 X129.094 Y165.111 E52.50519
G1 X157.932 Y136.026 E53.80300
G1 X157.932 Y135.230 E53.82823
G1 X129.094 Y164.067 E55.12050
G1 X129.094 Y163.266 E55.14589
G1 X157.932 Y134.181 E56.44370
G1 X157.932 Y133.392 E56.46869
G1 X129.094 Y162.230 E57.76095
G1 X129.094 Y161.421 E57.78660
G1 X157.932 Y132.336 E59.08440
G1 X157.932 Y131.555 E59.10914
G1 X129.094 Y160.393 E60.40140
G1 X129.094 Y159.576 E60.42730
G1 X157.932 Y130.491 E61.72511
G1 X157.932 Y129.718 E61.74959
G1 X129.094 Y158.556 E63.04186
G1 X129.094 Y157.731 E63.06800
G1 X157.932 Y128.646 E64.36581
G1 X157.932 Y127.881 E64.39005
G1 X129.094 Y156.719 E65.68231
G1 X129.094 Y155.886 E65.70870
G1 X157.932 Y126.801 E67.00651
G1 X157.932 Y126.044 E67.03050
G1 X129.094 Y154.882 E68.32276
G1 X129.094 Y154.041 E68.34941
G1 X157.932 Y124.956 E69.64721
G1 X157.932 Y124.207 E69.67095
G1 X129.094 Y153.044 E70.96321
G1 X129.094 Y152.196 E70.99011
G1 X157.932 Y123.111 E72.28791
G1 X157.932 Y122.369 E72.31141
G1 X129.094 Y151.207 E73.60367
G1 X129.094 Y150.351 E73.63081
G1 X157.656 Y121.544 E74.91620
G1 X156.920 Y121.544 E74.93951
G1 X129.094 Y149.370 E76.18643
G1 X129.094 Y148.505 E76.21382
G1 X155.826 Y121.544 E77.41688
G1 X155.083 Y121.544 E77.44045
G1 X129.094 Y147.533 E78.60504
G1 X129.094 Y146.660 E78.63268
G1 X153.997 Y121.544 E79.75341
G1 X153.246 Y121.544 E79.77722
G1 X129.094 Y145.696 E80.85949
G1 X129.094 Y144.815 E80.88738
G1 X152.168 Y121.544 E81.92578
G1 X151.408 Y121.544 E81.94984
G1 X129.094 Y143.858 E82.94977
G1 X129.094 Y142.970 E82.97791
G1 X150.338 Y121.544 E83.93399
G1 X149.571 Y121.544 E83.95829
G1 X129.094 Y142.021 E84.87590
G1 X129.094 Y141.125 E84.90429
G1 X148.509 Y121.544 E85.77804
G1 X147.734 Y121.544 E85.80259
G1 X129.094 Y140.184 E86.63787
G1 X129.094 Y139.280 E86.66651
G1 X146.680 Y121.544 E87.45793
G1 X145.897 Y121.544 E87.48273
G1 X129.094 Y138.347 E88.23568
G1 X129.094 Y137.435 E88.26457
G1 X144.850 Y121.544 E88.97366
G1 X144.060 Y121.544 E88.99870
G1 X129.094 Y136.510 E89.66934
G1 X129.094 Y135.590 E89.69847
G1 X143.021 Y121.544 E90.32523
G1 X142.223 Y121.544 E90.35052
G1 X129.094 Y134.672 E90.93883
G1 X129.094 Y133.745 E90.96822
G1 X141.191 Y121.544 E91.51264
G1 X140.385 Y121.544 E91.53818
G1 X129.094 Y132.835 E92.04416
G1 X129.094 Y131.900 E92.07380
G1 X139.362 Y121.544 E92.53590
G1 X138.548 Y121.544 E92.56169
G1 X129.094 Y130.998 E92.98534
G1 X129.094 Y130.055 E93.01522
G1 X137.533 Y121.544 E93.39499
G1 X136.711 Y121.544 E93.42103
G1 X129.094 Y129.161 E93.76235
G1 X129.094 Y128.210 E93.79249
G1 X135.703 Y121.544 E94.08993
G1 X134.874 Y121.544 E94.11621
G1 X129.094 Y127.324 E94.37521
G1 X129.094 Y126.365 E94.40559
G1 X133.874 Y121.544 E94.62070
G1 X133.037 Y121.544 E94.64724
G1 X129.094 Y125.487 E94.82391
G1 X129.094 Y124.520 E94.85454
G1 X132.045 Y121.544 E94.98732
G1 X131.199 Y121.544 E95.01410
G1 X129.094 Y123.649 E95.10844
G1 X129.094 Y122.675 E95.13933
G1 X130.215 Y121.544 E95.18978
G1 X129.362 Y121.544 E95.21681
G1 X129.094 Y121.812 E95.22882
M204 S2000
G1 F1800.000 E93.22882
G92 E0
G1 Z1.200 F9600.000
G1 X128.351 Y179.199 F9600.000
G1 E2.00000 F1800.000
M204 S2000
G1 X128.351 Y120.801 E3.78050 F5400.000
G1 X158.280 Y120.801 E4.69300
