; generated by Slic3r 1.1.1-dev on 2014-05-01 at 17:38:38

; perimeters extrusion width = 0.50mm
; infill extrusion width = 0.60mm
; solid infill extrusion width = 0.60mm
; top infill extrusion width = 0.45mm

G21 ; set units to millimeters
M107
G28 ; home all axes
G90 ; use absolute coordinates
G92 E0
M82 ; use absolute distances for extrusion
M204 S2000
G1 F1800.000 E-2.00000
G92 E0
G1 Z0.350 F9600.000
G1 X53.472 Y85.524 F9600.000
G1 E2.00000 F1800.000
G1 X55.597 Y84.471 E2.06823 F4500
G1 X57.633 Y84.172 E2.12743
G1 X142.367 Y84.172 E4.56551
G1 X144.705 Y84.569 E4.63374
G1 X146.780 Y85.716 E4.70197
G1 X148.360 Y87.484 E4.77020
G1 X149.190 Y89.367 E4.82940
G1 X149.222 Y89.482 E4.83283
G1 X149.477 Y91.366 E4.88753
G1 X149.477 Y122.399 E5.78045
G1 X149.080 Y124.737 E5.84868
G1 X147.933 Y126.812 E5.91691
G1 X146.165 Y128.392 E5.98514
G1 X143.975 Y129.300 E6.05337
G1 X142.399 Y129.477 E6.09899
G1 X57.601 Y129.477 E8.53890
G1 X55.263 Y129.080 E8.60713
G1 X53.188 Y127.933 E8.67536
G1 X51.608 Y126.165 E8.74359
G1 X50.700 Y123.975 E8.81182
G1 X50.523 Y122.399 E8.85744
G1 X50.523 Y91.366 E9.75037
G1 X50.778 Y89.482 E9.80506
G1 X50.810 Y89.367 E9.80850
G1 X51.814 Y87.219 E9.87672
G1 X53.420 Y85.577 E9.94280
G1 X53.935 Y85.857 F9600.000
G1 X56.010 Y84.916 E10.00835 F4500
G1 X57.633 Y84.711 E10.05542
G1 X142.367 Y84.711 E12.49350
G1 X144.611 Y85.108 E12.55906
G1 X146.582 Y86.251 E12.62462
G1 X148.042 Y88.001 E12.69018
G1 X148.671 Y89.510 E12.73724
G1 X148.702 Y89.625 E12.74067
G1 X148.938 Y91.366 E12.79120
G1 X148.938 Y122.399 E13.68413
G1 X148.541 Y124.643 E13.74969
G1 X147.399 Y126.614 E13.81525
G1 X145.649 Y128.073 E13.88081
G1 X142.399 Y128.938 E13.97758
G1 X57.601 Y128.938 E16.41748
G1 X55.357 Y128.541 E16.48304
G1 X53.386 Y127.399 E16.54860
G1 X51.927 Y125.649 E16.61416
G1 X51.062 Y122.399 E16.71093
G1 X51.062 Y91.366 E17.60386
G1 X51.298 Y89.626 E17.65438
G1 X51.329 Y89.511 E17.65782
G1 X52.309 Y87.453 E17.72338
G1 X53.881 Y85.910 E17.78678
G1 F1800.000 E15.78678
G92 E0
G1 X109.213 Y92.065 F9600.000
G1 E2.00000 F1800.000
G1 X141.585 Y92.065 E2.93143 F4500
G1 X141.585 Y121.585 E3.78081
G1 X109.213 Y121.585 E4.71224
G1 X109.213 Y92.140 E5.55946
G1 X108.674 Y91.526 F9600.000
G1 X142.124 Y91.526 E6.52193 F4050
G1 X142.124 Y122.124 E7.40234
G1 X108.674 Y122.124 E8.36480
G1 X108.674 Y91.601 E9.24306
G1 X109.107 Y91.776 F9600.000
G1 F1800.000 E7.24306
G92 E0
G1 X109.624 Y121.214 F9600.000
G1 E2.00000 F1800.000
G1 X109.584 Y121.174 E2.00110 F4950
G1 X109.584 Y120.410 E2.01588
G1 X110.388 Y121.214 E2.03788
G1 X111.151 Y121.214 E2.05267
G1 X109.584 Y119.646 E2.09558
G1 X109.584 Y118.883 E2.11036
G1 X111.915 Y121.214 E2.17418
G1 X112.679 Y121.214 E2.18896
G1 X109.584 Y118.119 E2.27369
G1 X109.584 Y117.356 E2.28847
G1 X113.442 Y121.214 E2.39411
G1 X114.206 Y121.214 E2.40889
G1 X109.584 Y116.592 E2.53544
G1 X109.584 Y115.828 E2.55022
G1 X114.970 Y121.214 E2.69767
G1 X115.733 Y121.214 E2.71245
G1 X109.584 Y115.065 E2.88081
G1 X109.584 Y114.301 E2.89560
G1 X116.497 Y121.214 E3.08486
G1 X117.261 Y121.214 E3.09964
G1 X109.584 Y113.537 E3.30982
G1 X109.584 Y112.774 E3.32460
G1 X118.024 Y121.214 E3.55568
G1 X118.788 Y121.214 E3.57047
G1 X109.584 Y112.010 E3.82246
G1 X109.584 Y111.246 E3.83724
G1 X119.551 Y121.214 E4.11014
G1 X120.315 Y121.214 E4.12492
G1 X109.584 Y110.483 E4.41873
G1 X109.584 Y109.719 E4.43351
G1 X121.079 Y121.214 E4.74822
G1 X121.842 Y121.214 E4.76301
G1 X109.584 Y108.955 E5.09863
G1 X109.584 Y108.192 E5.11341
G1 X122.606 Y121.214 E5.46994
G1 X123.370 Y121.214 E5.48472
G1 X109.584 Y107.428 E5.86216
G1 X109.584 Y106.665 E5.87694
G1 X124.133 Y121.214 E6.27529
G1 X124.897 Y121.214 E6.29007
G1 X109.584 Y105.901 E6.70932
G1 X109.584 Y105.137 E6.72411
G1 X125.661 Y121.214 E7.16427
G1 X126.424 Y121.214 E7.17905
G1 X109.584 Y104.374 E7.64012
G1 X109.584 Y103.610 E7.65490
G1 X127.188 Y121.214 E8.13688
G1 X127.951 Y121.214 E8.15166
G1 X109.584 Y102.846 E8.65455
G1 X109.584 Y102.083 E8.66933
G1 X128.715 Y121.214 E9.19312
G1 X129.479 Y121.214 E9.20790
G1 X109.584 Y101.319 E9.75260
G1 X109.584 Y100.555 E9.76739
G1 X130.242 Y121.214 E10.33299
G1 X131.006 Y121.214 E10.34778
G1 X109.584 Y99.792 E10.93429
G1 X109.584 Y99.028 E10.94908
G1 X131.770 Y121.214 E11.55650
G1 X132.533 Y121.214 E11.57128
G1 X109.584 Y98.265 E12.19961
G1 X109.584 Y97.501 E12.21440
G1 X133.297 Y121.214 E12.86363
G1 X134.061 Y121.214 E12.87842
G1 X109.584 Y96.737 E13.54856
G1 X109.584 Y95.974 E13.56335
G1 X134.824 Y121.214 E14.25440
G1 X135.588 Y121.214 E14.26919
G1 X109.584 Y95.210 E14.98115
G1 X109.584 Y94.446 E14.99593
G1 X136.351 Y121.214 E15.72880
G1 X137.115 Y121.214 E15.74358
G1 X109.584 Y93.683 E16.49736
G1 X109.584 Y92.919 E16.51215
G1 X137.879 Y121.214 E17.28683
G1 X138.642 Y121.214 E17.30161
G1 X109.865 Y92.436 E18.08953
G1 X110.628 Y92.436 E18.10431
G1 X139.406 Y121.214 E18.89223
G1 X140.170 Y121.214 E18.90701
G1 X111.392 Y92.436 E19.69493
G1 X112.155 Y92.436 E19.70971
G1 X140.933 Y121.214 E20.49763
G1 X141.214 Y120.730 E20.50844
G1 X112.919 Y92.436 E21.28313
G1 X113.683 Y92.436 E21.29791
G1 X141.214 Y119.967 E22.05169
G1 X141.214 Y119.203 E22.06647
G1 X114.446 Y92.436 E22.79934
G1 X115.210 Y92.436 E22.81413
G1 X141.214 Y118.440 E23.52609
G1 X141.214 Y117.676 E23.54087
G1 X115.974 Y92.436 E24.23192
G1 X116.737 Y92.436 E24.24671
G1 X141.214 Y116.912 E24.91685
G1 X141.214 Y116.149 E24.93164
G1 X117.501 Y92.436 E25.58088
G1 X118.265 Y92.436 E25.59566
G1 X141.214 Y115.385 E26.22399
G1 X141.214 Y114.621 E26.23877
G1 X119.028 Y92.436 E26.84620
G1 X119.792 Y92.436 E26.86098
G1 X141.214 Y113.858 E27.44749
G1 X141.214 Y113.094 E27.46228
G1 X120.555 Y92.436 E28.02788
G1 X121.319 Y92.436 E28.04267
G1 X141.214 Y112.330 E28.58737
G1 X141.214 Y111.567 E28.60215
G1 X122.083 Y92.436 E29.12594
G1 X122.846 Y92.436 E29.14073
G1 X141.214 Y110.803 E29.64361
G1 X141.214 Y110.040 E29.65839
G1 X123.610 Y92.436 E30.14037
G1 X124.374 Y92.436 E30.15515
G1 X141.214 Y109.276 E30.61622
G1 X141.214 Y108.512 E30.63100
G1 X125.137 Y92.436 E31.07116
G1 X125.901 Y92.436 E31.08595
G1 X141.214 Y107.749 E31.50520
G1 X141.214 Y106.985 E31.51998
G1 X126.665 Y92.436 E31.91833
G1 X127.428 Y92.436 E31.93311
G1 X141.214 Y106.221 E32.31055
G1 X141.214 Y105.458 E32.32533
G1 X128.192 Y92.436 E32.68186
G1 X128.955 Y92.436 E32.69664
G1 X141.214 Y104.694 E33.03226
G1 X141.214 Y103.930 E33.04705
G1 X129.719 Y92.436 E33.36176
G1 X130.483 Y92.436 E33.37654
G1 X141.214 Y103.167 E33.67035
G1 X141.214 Y102.403 E33.68513
G1 X131.246 Y92.436 E33.95803
G1 X132.010 Y92.436 E33.97281
G1 X141.214 Y101.640 E34.22480
G1 X141.214 Y100.876 E34.23959
G1 X132.774 Y92.436 E34.47067
G1 X133.537 Y92.436 E34.48545
G1 X141.214 Y100.112 E34.69562
G1 X141.214 Y99.349 E34.71041
G1 X134.301 Y92.436 E34.89967
G1 X135.065 Y92.436 E34.91446
G1 X141.214 Y98.585 E35.08282
G1 X141.214 Y97.821 E35.09760
G1 X135.828 Y92.436 E35.24505
G1 X136.592 Y92.436 E35.25983
G1 X141.214 Y97.058 E35.38638
G1 X141.214 Y96.294 E35.40116
G1 X137.356 Y92.436 E35.50679
G1 X138.119 Y92.436 E35.52158
G1 X141.214 Y95.530 E35.60630
G1 X141.214 Y94.767 E35.62109
G1 X138.883 Y92.436 E35.68491
G1 X139.646 Y92.436 E35.69969
G1 X141.214 Y94.003 E35.74260
G1 X141.214 Y93.240 E35.75739
G1 X140.410 Y92.436 E35.77939
G1 X141.174 Y92.436 E35.79417
G1 X141.214 Y92.476 E35.79527
G1 F1800.000 E33.79527
G92 E0
G1 X90.787 Y92.065 F9600.000
G1 E2.00000 F1800.000
G1 X90.787 Y121.585 E2.84938 F4500
G1 X58.415 Y121.585 E3.78081
G1 X58.415 Y92.065 E4.63019
G1 X90.712 Y92.065 E5.55946
G1 X91.326 Y91.526 F9600.000
G1 X91.326 Y122.124 E6.43987 F4050
G1 X57.876 Y122.124 E7.40234
G1 X57.876 Y91.526 E8.28275
G1 X91.251 Y91.526 E9.24306
G1 X91.076 Y91.959 F9600.000
G1 X90.416 Y92.476 F9600.000
G1 X90.376 Y92.436 E9.24415 F4950
G1 X89.612 Y92.436 E9.25893
G1 X90.416 Y93.240 E9.28094
G1 X90.416 Y94.003 E9.29572
G1 X88.849 Y92.436 E9.33863
G1 X88.085 Y92.436 E9.35342
G1 X90.416 Y94.767 E9.41723
G1 X90.416 Y95.530 E9.43202
G1 X87.321 Y92.436 E9.51675
G1 X86.558 Y92.436 E9.53153
G1 X90.416 Y96.294 E9.63716
G1 X90.416 Y97.058 E9.65195
G1 X85.794 Y92.436 E9.77849
G1 X85.030 Y92.436 E9.79327
G1 X90.416 Y97.821 E9.94072
G1 X90.416 Y98.585 E9.95551
G1 X84.267 Y92.436 E10.12387
G1 X83.503 Y92.436 E10.13865
G1 X90.416 Y99.349 E10.32792
G1 X90.416 Y100.112 E10.34270
G1 X82.739 Y92.436 E10.55287
G1 X81.976 Y92.436 E10.56766
G1 X90.416 Y100.876 E10.79874
G1 X90.416 Y101.640 E10.81352
G1 X81.212 Y92.436 E11.06551
G1 X80.449 Y92.436 E11.08030
G1 X90.416 Y102.403 E11.35319
G1 X90.416 Y103.167 E11.36798
G1 X79.685 Y92.436 E11.66178
G1 X78.921 Y92.436 E11.67656
G1 X90.416 Y103.930 E11.99128
G1 X90.416 Y104.694 E12.00606
G1 X78.158 Y92.436 E12.34168
G1 X77.394 Y92.436 E12.35647
G1 X90.416 Y105.458 E12.71299
G1 X90.416 Y106.221 E12.72778
G1 X76.630 Y92.436 E13.10521
G1 X75.867 Y92.436 E13.12000
G1 X90.416 Y106.985 E13.51834
G1 X90.416 Y107.749 E13.53313
G1 X75.103 Y92.436 E13.95238
G1 X74.339 Y92.436 E13.96716
G1 X90.416 Y108.512 E14.40732
G1 X90.416 Y109.276 E14.42210
G1 X73.576 Y92.436 E14.88317
G1 X72.812 Y92.436 E14.89796
G1 X90.416 Y110.040 E15.37993
G1 X90.416 Y110.803 E15.39472
G1 X72.049 Y92.436 E15.89760
G1 X71.285 Y92.436 E15.91238
G1 X90.416 Y111.567 E16.43617
G1 X90.416 Y112.330 E16.45096
G1 X70.521 Y92.436 E16.99566
G1 X69.758 Y92.436 E17.01044
G1 X90.416 Y113.094 E17.57605
G1 X90.416 Y113.858 E17.59083
G1 X68.994 Y92.436 E18.17734
G1 X68.230 Y92.436 E18.19213
G1 X90.416 Y114.621 E18.79955
G1 X90.416 Y115.385 E18.81433
G1 X67.467 Y92.436 E19.44266
G1 X66.703 Y92.436 E19.45745
G1 X90.416 Y116.149 E20.10669
G1 X90.416 Y116.912 E20.12147
G1 X65.939 Y92.436 E20.79162
G1 X65.176 Y92.436 E20.80640
G1 X90.416 Y117.676 E21.49745
G1 X90.416 Y118.440 E21.51224
G1 X64.412 Y92.436 E22.22420
G1 X63.649 Y92.436 E22.23898
G1 X90.416 Y119.203 E22.97185
G1 X90.416 Y119.967 E22.98663
G1 X62.885 Y92.436 E23.74041
G1 X62.121 Y92.436 E23.75520
G1 X90.416 Y120.730 E24.52988
G1 X90.135 Y121.214 E24.54070
G1 X61.358 Y92.436 E25.32861
G1 X60.594 Y92.436 E25.34340
G1 X89.372 Y121.214 E26.13131
G1 X88.608 Y121.214 E26.14609
G1 X59.830 Y92.436 E26.93401
G1 X59.067 Y92.436 E26.94879
G1 X87.845 Y121.214 E27.73671
G1 X87.081 Y121.214 E27.75149
G1 X58.786 Y92.919 E28.52618
G1 X58.786 Y93.683 E28.54096
G1 X86.317 Y121.214 E29.29474
G1 X85.554 Y121.214 E29.30952
G1 X58.786 Y94.446 E30.04239
G1 X58.786 Y95.210 E30.05718
G1 X84.790 Y121.214 E30.76914
G1 X84.026 Y121.214 E30.78392
G1 X58.786 Y95.974 E31.47497
G1 X58.786 Y96.737 E31.48976
G1 X83.263 Y121.214 E32.15990
G1 X82.499 Y121.214 E32.17469
G1 X58.786 Y97.501 E32.82393
G1 X58.786 Y98.265 E32.83871
G1 X81.735 Y121.214 E33.46704
G1 X80.972 Y121.214 E33.48182
G1 X58.786 Y99.028 E34.08925
G1 X58.786 Y99.792 E34.10403
G1 X80.208 Y121.214 E34.69055
G1 X79.445 Y121.214 E34.70533
G1 X58.786 Y100.555 E35.27094
G1 X58.786 Y101.319 E35.28572
G1 X78.681 Y121.214 E35.83042
G1 X77.917 Y121.214 E35.84520
G1 X58.786 Y102.083 E36.36899
G1 X58.786 Y102.846 E36.38378
G1 X77.154 Y121.214 E36.88666
G1 X76.390 Y121.214 E36.90144
G1 X58.786 Y103.610 E37.38342
G1 X58.786 Y104.374 E37.39820
G1 X75.626 Y121.214 E37.85927
G1 X74.863 Y121.214 E37.87406
G1 X58.786 Y105.137 E38.31422
G1 X58.786 Y105.901 E38.32900
G1 X74.099 Y121.214 E38.74825
G1 X73.335 Y121.214 E38.76304
G1 X58.786 Y106.665 E39.16138
G1 X58.786 Y107.428 E39.17616
G1 X72.572 Y121.214 E39.55360
G1 X71.808 Y121.214 E39.56838
G1 X58.786 Y108.192 E39.92491
G1 X58.786 Y108.955 E39.93970
G1 X71.044 Y121.214 E40.27532
G1 X70.281 Y121.214 E40.29010
G1 X58.786 Y109.719 E40.60481
G1 X58.786 Y110.483 E40.61960
G1 X69.517 Y121.214 E40.91340
G1 X68.754 Y121.214 E40.92819
G1 X58.786 Y111.246 E41.20108
G1 X58.786 Y112.010 E41.21587
G1 X67.990 Y121.214 E41.46786
G1 X67.226 Y121.214 E41.48264
G1 X58.786 Y112.774 E41.71372
G1 X58.786 Y113.537 E41.72851
G1 X66.463 Y121.214 E41.93868
G1 X65.699 Y121.214 E41.95346
G1 X58.786 Y114.301 E42.14273
G1 X58.786 Y115.065 E42.15751
G1 X64.935 Y121.214 E42.32587
G1 X64.172 Y121.214 E42.34065
G1 X58.786 Y115.828 E42.48810
G1 X58.786 Y116.592 E42.50289
G1 X63.408 Y121.214 E42.62943
G1 X62.644 Y121.214 E42.64421
G1 X58.786 Y117.356 E42.74985
G1 X58.786 Y118.119 E42.76463
G1 X61.881 Y121.214 E42.84936
G1 X61.117 Y121.214 E42.86414
G1 X58.786 Y118.883 E42.92796
G1 X58.786 Y119.646 E42.94275
G1 X60.354 Y121.214 E42.98566
G1 X59.590 Y121.214 E43.00044
G1 X58.786 Y120.410 E43.02244
G1 X58.786 Y121.174 E43.03723
G1 X58.826 Y121.214 E43.03832
M204 S2000
G1 F1800.000 E41.03832
G92 E0
G1 Z0.700 F9600.000
G1 X109.149 Y121.649 F9600.000
G1 E2.00000 F1800.000
M204 S1200
G1 X109.149 Y91.771 E2.79709 F6000
G1 X141.649 Y91.771 E3.66413
G1 X141.649 Y121.649 E4.46122
G1 X109.224 Y121.649 E5.32625
M204 S2000
G1 X108.649 Y122.149 F9600.000
M204 S1200
G1 X108.649 Y91.271 E6.15003 F5400
G1 X142.149 Y91.271 E7.04374
G1 X142.149 Y122.149 E7.86751
G1 X108.724 Y122.149 E8.75922
M204 S2000
G1 X108.899 Y121.716 F9600.000
G1 F1800.000 E6.75922
G92 E0
G1 X109.509 Y92.171 F9600.000
G1 E2.00000 F1800.000
M204 S2000
G1 X109.549 Y92.131 E2.00119 F6600
G1 X110.371 Y92.131 E2.01855
G1 X109.509 Y92.993 E2.04428
G1 X109.509 Y93.815 E2.06164
G1 X111.194 Y92.131 E2.11191
G1 X112.016 Y92.131 E2.12927
G1 X109.509 Y94.638 E2.20409
G1 X109.509 Y95.460 E2.22144
G1 X112.839 Y92.131 E2.32080
G1 X113.661 Y92.131 E2.33816
G1 X109.509 Y96.283 E2.46206
G1 X109.509 Y97.105 E2.47941
G1 X114.483 Y92.131 E2.62786
G1 X115.306 Y92.131 E2.64521
G1 X109.509 Y97.928 E2.81820
G1 X109.509 Y98.750 E2.83555
G1 X116.128 Y92.131 E3.03308
G1 X116.951 Y92.131 E3.05044
G1 X109.509 Y99.572 E3.27251
G1 X109.509 Y100.395 E3.28986
G1 X117.773 Y92.131 E3.53648
G1 X118.595 Y92.131 E3.55383
G1 X109.509 Y101.217 E3.82499
G1 X109.509 Y102.040 E3.84234
G1 X119.418 Y92.131 E4.13804
G1 X120.240 Y92.131 E4.15539
G1 X109.509 Y102.862 E4.47563
G1 X109.509 Y103.684 E4.49298
G1 X121.063 Y92.131 E4.83776
G1 X121.885 Y92.131 E4.85512
G1 X109.509 Y104.507 E5.22444
G1 X109.509 Y105.329 E5.24180
G1 X122.708 Y92.131 E5.63566
G1 X123.530 Y92.131 E5.65301
G1 X109.509 Y106.152 E6.07142
G1 X109.509 Y106.974 E6.08878
G1 X124.352 Y92.131 E6.53172
G1 X125.175 Y92.131 E6.54908
G1 X109.509 Y107.796 E7.01657
G1 X109.509 Y108.619 E7.03392
G1 X125.997 Y92.131 E7.52596
G1 X126.820 Y92.131 E7.54331
G1 X109.509 Y109.441 E8.05989
G1 X109.509 Y110.264 E8.07724
G1 X127.642 Y92.131 E8.61836
G1 X128.464 Y92.131 E8.63571
G1 X109.509 Y111.086 E9.20137
G1 X109.509 Y111.908 E9.21872
G1 X129.287 Y92.131 E9.80892
G1 X130.109 Y92.131 E9.82628
G1 X109.509 Y112.731 E10.44102
G1 X109.509 Y113.553 E10.45837
G1 X130.932 Y92.131 E11.09766
G1 X131.754 Y92.131 E11.11501
G1 X109.509 Y114.376 E11.77884
G1 X109.509 Y115.198 E11.79619
G1 X132.576 Y92.131 E12.48456
G1 X133.399 Y92.131 E12.50192
G1 X109.509 Y116.020 E13.21483
G1 X109.509 Y116.843 E13.23218
G1 X134.221 Y92.131 E13.96963
G1 X135.044 Y92.131 E13.98699
G1 X109.509 Y117.665 E14.74898
G1 X109.509 Y118.488 E14.76634
G1 X135.866 Y92.131 E15.55287
G1 X136.688 Y92.131 E15.57023
G1 X109.509 Y119.310 E16.38130
G1 X109.509 Y120.132 E16.39866
G1 X137.511 Y92.131 E17.23428
G1 X138.333 Y92.131 E17.25163
G1 X109.509 Y120.955 E18.11180
G1 X109.997 Y121.289 E18.12428
G1 X139.156 Y92.131 E18.99441
G1 X139.978 Y92.131 E19.01176
G1 X110.820 Y121.289 E19.88189
G1 X111.642 Y121.289 E19.89925
G1 X140.800 Y92.131 E20.76938
G1 X141.289 Y92.465 E20.78186
G1 X112.465 Y121.289 E21.64203
G1 X113.287 Y121.289 E21.65938
G1 X141.289 Y93.287 E22.49500
G1 X141.289 Y94.109 E22.51235
G1 X114.109 Y121.289 E23.32343
G1 X114.932 Y121.289 E23.34079
G1 X141.289 Y94.932 E24.12732
G1 X141.289 Y95.754 E24.14468
G1 X115.754 Y121.289 E24.90667
G1 X116.577 Y121.289 E24.92402
G1 X141.289 Y96.577 E25.66148
G1 X141.289 Y97.399 E25.67883
G1 X117.399 Y121.289 E26.39174
G1 X118.222 Y121.289 E26.40910
G1 X141.289 Y98.222 E27.09746
G1 X141.289 Y99.044 E27.11482
G1 X119.044 Y121.289 E27.77864
G1 X119.866 Y121.289 E27.79600
G1 X141.289 Y99.866 E28.43528
G1 X141.289 Y100.689 E28.45264
G1 X120.689 Y121.289 E29.06738
G1 X121.511 Y121.289 E29.08473
G1 X141.289 Y101.511 E29.67493
G1 X141.289 Y102.334 E29.69229
