; generated by Slic3r 1.1.1-dev on 2014-05-05 at 17:03:21

; perimeters extrusion width = 0.50mm
; infill extrusion width = 0.60mm
; solid infill extrusion width = 0.60mm
; top infill extrusion width = 0.55mm

G21 ; set units to millimeters
M107
G28 ; home all axes
G90 ; use absolute coordinates
G92 E0
M82 ; use absolute distances for extrusion
M204 S2000
G1 F1800.000 E-2.00000
G92 E0
G1 Z0.350 F9600.000
G1 X58.573 Y60.177 F9600.000
G1 E2.00000 F1800.000
G1 X60.698 Y59.124 E2.06823 F4500
G1 X62.724 Y58.825 E2.12718
G1 X103.330 Y58.773 E3.29554
G1 X137.267 Y58.773 E4.27200
G1 X139.604 Y59.170 E4.34023
G1 X141.680 Y60.317 E4.40846
G1 X143.260 Y62.085 E4.47669
G1 X144.090 Y63.968 E4.53589
G1 X144.122 Y64.083 E4.53932
G1 X144.377 Y65.967 E4.59402
G1 X144.377 Y147.798 E6.94857
G1 X143.980 Y150.136 E7.01679
G1 X142.833 Y152.211 E7.08502
G1 X141.065 Y153.791 E7.15325
G1 X138.874 Y154.699 E7.22148
G1 X137.298 Y154.876 E7.26711
G1 X63.298 Y154.876 E9.39632
G1 X60.961 Y154.479 E9.46455
G1 X58.885 Y153.332 E9.53278
G1 X57.305 Y151.564 E9.60101
G1 X56.398 Y149.374 E9.66924
G1 X56.220 Y147.881 E9.71248
G1 X55.623 Y97.052 E11.17511
G1 X55.623 Y66.018 E12.06804
G1 X55.878 Y64.135 E12.12273
G1 X55.910 Y64.020 E12.12617
G1 X56.915 Y61.872 E12.19440
G1 X58.520 Y60.230 E12.26047
G1 X59.035 Y60.510 F9600.000
G1 X61.110 Y59.569 E12.32603 F4500
G1 X62.725 Y59.364 E12.37285
G1 X103.330 Y59.312 E13.54120
G1 X137.267 Y59.312 E14.51766
G1 X139.510 Y59.709 E14.58322
G1 X141.482 Y60.852 E14.64878
G1 X142.941 Y62.602 E14.71434
G1 X143.570 Y64.111 E14.76140
G1 X143.602 Y64.227 E14.76484
G1 X143.838 Y65.967 E14.81537
G1 X143.838 Y147.798 E17.16991
G1 X143.441 Y150.041 E17.23547
G1 X142.298 Y152.013 E17.30103
G1 X140.549 Y153.472 E17.36659
G1 X137.298 Y154.337 E17.46336
G1 X63.298 Y154.337 E19.59258
G1 X61.055 Y153.940 E19.65814
G1 X59.084 Y152.798 E19.72370
G1 X57.624 Y151.048 E19.78925
G1 X56.760 Y147.875 E19.88388
G1 X56.162 Y97.052 E21.34633
G1 X56.162 Y66.018 E22.23926
G1 X56.398 Y64.278 E22.28979
G1 X56.430 Y64.163 E22.29322
G1 X57.409 Y62.106 E22.35878
G1 X58.982 Y60.563 E22.42218
G1 F1800.000 E20.42218
G92 E0
G1 X104.113 Y117.464 F9600.000
G1 E2.00000 F1800.000
G1 X136.484 Y117.464 E2.93143 F4500
G1 X136.484 Y146.984 E3.78081
G1 X104.113 Y146.984 E4.71224
G1 X104.113 Y117.539 E5.55946
G1 X103.574 Y116.925 F9600.000
G1 X137.024 Y116.925 E6.52193 F4050
G1 X137.024 Y147.523 E7.40234
G1 X103.574 Y147.523 E8.36480
G1 X103.574 Y117.000 E9.24305
G1 X104.007 Y117.175 F9600.000
G1 F1800.000 E7.24305
G92 E0
G1 X104.524 Y146.613 F9600.000
G1 E2.00000 F1800.000
G1 X104.484 Y146.573 E2.00110 F4950
G1 X104.484 Y145.809 E2.01588
G1 X105.287 Y146.613 E2.03788
G1 X106.051 Y146.613 E2.05267
G1 X104.484 Y145.045 E2.09558
G1 X104.484 Y144.282 E2.11036
G1 X106.815 Y146.613 E2.17418
G1 X107.578 Y146.613 E2.18896
G1 X104.484 Y143.518 E2.27369
G1 X104.484 Y142.754 E2.28847
G1 X108.342 Y146.613 E2.39411
G1 X109.106 Y146.613 E2.40889
G1 X104.484 Y141.991 E2.53544
G1 X104.484 Y141.227 E2.55022
G1 X109.869 Y146.613 E2.69767
G1 X110.633 Y146.613 E2.71245
G1 X104.484 Y140.464 E2.88081
G1 X104.484 Y139.700 E2.89559
G1 X111.396 Y146.613 E3.08486
G1 X112.160 Y146.613 E3.09964
G1 X104.484 Y138.936 E3.30982
G1 X104.484 Y138.173 E3.32460
G1 X112.924 Y146.613 E3.55568
G1 X113.687 Y146.613 E3.57047
G1 X104.484 Y137.409 E3.82246
G1 X104.484 Y136.645 E3.83724
G1 X114.451 Y146.613 E4.11014
G1 X115.215 Y146.613 E4.12492
G1 X104.484 Y135.882 E4.41873
G1 X104.484 Y135.118 E4.43351
G1 X115.978 Y146.613 E4.74822
G1 X116.742 Y146.613 E4.76301
G1 X104.484 Y134.354 E5.09863
G1 X104.484 Y133.591 E5.11341
G1 X117.506 Y146.613 E5.46994
G1 X118.269 Y146.613 E5.48472
G1 X104.484 Y132.827 E5.86216
G1 X104.484 Y132.064 E5.87694
G1 X119.033 Y146.613 E6.27529
G1 X119.796 Y146.613 E6.29007
G1 X104.484 Y131.300 E6.70932
G1 X104.484 Y130.536 E6.72411
G1 X120.560 Y146.613 E7.16427
G1 X121.324 Y146.613 E7.17905
G1 X104.484 Y129.773 E7.64012
G1 X104.484 Y129.009 E7.65490
G1 X122.087 Y146.613 E8.13688
G1 X122.851 Y146.613 E8.15166
G1 X104.484 Y128.245 E8.65454
G1 X104.484 Y127.482 E8.66933
G1 X123.615 Y146.613 E9.19312
G1 X124.378 Y146.613 E9.20790
G1 X104.484 Y126.718 E9.75260
G1 X104.484 Y125.954 E9.76739
G1 X125.142 Y146.613 E10.33299
G1 X125.906 Y146.613 E10.34778
G1 X104.484 Y125.191 E10.93429
G1 X104.484 Y124.427 E10.94908
G1 X126.669 Y146.613 E11.55650
G1 X127.433 Y146.613 E11.57128
G1 X104.484 Y123.664 E12.19961
G1 X104.484 Y122.900 E12.21440
G1 X128.196 Y146.613 E12.86363
G1 X128.960 Y146.613 E12.87842
G1 X104.484 Y122.136 E13.54856
G1 X104.484 Y121.373 E13.56335
G1 X129.724 Y146.613 E14.25440
G1 X130.487 Y146.613 E14.26918
G1 X104.484 Y120.609 E14.98115
G1 X104.484 Y119.845 E14.99593
G1 X131.251 Y146.613 E15.72880
G1 X132.015 Y146.613 E15.74358
G1 X104.484 Y119.082 E16.49736
G1 X104.484 Y118.318 E16.51214
G1 X132.778 Y146.613 E17.28683
G1 X133.542 Y146.613 E17.30161
G1 X104.764 Y117.835 E18.08953
G1 X105.528 Y117.835 E18.10431
G1 X134.306 Y146.613 E18.89223
G1 X135.069 Y146.613 E18.90701
G1 X106.291 Y117.835 E19.69492
G1 X107.055 Y117.835 E19.70971
G1 X135.833 Y146.613 E20.49762
G1 X136.113 Y146.129 E20.50844
G1 X107.819 Y117.835 E21.28312
G1 X108.582 Y117.835 E21.29791
G1 X136.113 Y145.366 E22.05168
G1 X136.113 Y144.602 E22.06647
G1 X109.346 Y117.835 E22.79934
G1 X110.110 Y117.835 E22.81412
G1 X136.113 Y143.838 E23.52608
G1 X136.113 Y143.075 E23.54087
G1 X110.873 Y117.835 E24.23192
G1 X111.637 Y117.835 E24.24670
G1 X136.113 Y142.311 E24.91685
G1 X136.113 Y141.548 E24.93163
G1 X112.401 Y117.835 E25.58087
G1 X113.164 Y117.835 E25.59565
G1 X136.113 Y140.784 E26.22398
G1 X136.113 Y140.020 E26.23877
G1 X113.928 Y117.835 E26.84619
G1 X114.691 Y117.835 E26.86097
G1 X136.113 Y139.257 E27.44749
G1 X136.113 Y138.493 E27.46227
G1 X115.455 Y117.835 E28.02788
G1 X116.219 Y117.835 E28.04266
G1 X136.113 Y137.729 E28.58736
G1 X136.113 Y136.966 E28.60214
G1 X116.982 Y117.835 E29.12593
G1 X117.746 Y117.835 E29.14072
G1 X136.113 Y136.202 E29.64360
G1 X136.113 Y135.438 E29.65838
G1 X118.510 Y117.835 E30.14036
G1 X119.273 Y117.835 E30.15514
G1 X136.113 Y134.675 E30.61621
G1 X136.113 Y133.911 E30.63099
G1 X120.037 Y117.835 E31.07115
G1 X120.801 Y117.835 E31.08594
G1 X136.113 Y133.148 E31.50519
G1 X136.113 Y132.384 E31.51997
G1 X121.564 Y117.835 E31.91832
G1 X122.328 Y117.835 E31.93310
G1 X136.113 Y131.620 E32.31054
G1 X136.113 Y130.857 E32.32532
G1 X123.091 Y117.835 E32.68185
G1 X123.855 Y117.835 E32.69663
G1 X136.113 Y130.093 E33.03225
G1 X136.113 Y129.329 E33.04704
G1 X124.619 Y117.835 E33.36175
G1 X125.382 Y117.835 E33.37653
G1 X136.113 Y128.566 E33.67034
G1 X136.113 Y127.802 E33.68512
G1 X126.146 Y117.835 E33.95802
G1 X126.910 Y117.835 E33.97280
G1 X136.113 Y127.038 E34.22479
G1 X136.113 Y126.275 E34.23957
G1 X127.673 Y117.835 E34.47066
G1 X128.437 Y117.835 E34.48544
G1 X136.113 Y125.511 E34.69561
G1 X136.113 Y124.748 E34.71040
G1 X129.201 Y117.835 E34.89966
G1 X129.964 Y117.835 E34.91445
G1 X136.113 Y123.984 E35.08280
G1 X136.113 Y123.220 E35.09759
G1 X130.728 Y117.835 E35.24504
G1 X131.491 Y117.835 E35.25982
G1 X136.113 Y122.457 E35.38636
G1 X136.113 Y121.693 E35.40115
G1 X132.255 Y117.835 E35.50678
G1 X133.019 Y117.835 E35.52157
G1 X136.113 Y120.929 E35.60629
G1 X136.113 Y120.166 E35.62108
G1 X133.782 Y117.835 E35.68490
G1 X134.546 Y117.835 E35.69968
G1 X136.113 Y119.402 E35.74259
G1 X136.113 Y118.638 E35.75737
G1 X135.310 Y117.835 E35.77938
G1 X136.073 Y117.835 E35.79416
G1 X136.113 Y117.875 E35.79526
G1 F1800.000 E33.79526
G92 E0
G1 X96.484 Y117.464 F9600.000
G1 E2.00000 F1800.000
G1 X96.484 Y146.984 E2.84938 F4500
G1 X64.113 Y146.984 E3.78081
G1 X64.113 Y117.464 E4.63019
G1 X96.409 Y117.464 E5.55946
G1 X97.023 Y116.925 F9600.000
G1 X97.023 Y147.523 E6.43987 F4050
G1 X63.573 Y147.523 E7.40234
G1 X63.573 Y116.925 E8.28275
G1 X96.948 Y116.925 E9.24305
G1 X96.773 Y117.358 F9600.000
G1 X96.113 Y117.875 F9600.000
G1 X96.073 Y117.835 E9.24415 F4950
G1 X95.310 Y117.835 E9.25893
G1 X96.113 Y118.638 E9.28094
G1 X96.113 Y119.402 E9.29572
G1 X94.546 Y117.835 E9.33863
G1 X93.782 Y117.835 E9.35342
G1 X96.113 Y120.166 E9.41723
G1 X96.113 Y120.929 E9.43202
G1 X93.019 Y117.835 E9.51674
G1 X92.255 Y117.835 E9.53153
G1 X96.113 Y121.693 E9.63716
G1 X96.113 Y122.457 E9.65195
G1 X91.491 Y117.835 E9.77849
G1 X90.728 Y117.835 E9.79327
G1 X96.113 Y123.220 E9.94072
G1 X96.113 Y123.984 E9.95551
G1 X89.964 Y117.835 E10.12386
G1 X89.201 Y117.835 E10.13865
G1 X96.113 Y124.748 E10.32791
G1 X96.113 Y125.511 E10.34270
G1 X88.437 Y117.835 E10.55287
G1 X87.673 Y117.835 E10.56766
G1 X96.113 Y126.275 E10.79874
G1 X96.113 Y127.038 E10.81352
G1 X86.910 Y117.835 E11.06551
G1 X86.146 Y117.835 E11.08029
G1 X96.113 Y127.802 E11.35319
G1 X96.113 Y128.566 E11.36797
G1 X85.382 Y117.835 E11.66178
G1 X84.619 Y117.835 E11.67656
G1 X96.113 Y129.329 E11.99127
G1 X96.113 Y130.093 E12.00606
G1 X83.855 Y117.835 E12.34168
G1 X83.091 Y117.835 E12.35646
G1 X96.113 Y130.857 E12.71299
G1 X96.113 Y131.620 E12.72778
G1 X82.328 Y117.835 E13.10521
G1 X81.564 Y117.835 E13.11999
G1 X96.113 Y132.384 E13.51834
G1 X96.113 Y133.148 E13.53312
G1 X80.801 Y117.835 E13.95237
G1 X80.037 Y117.835 E13.96716
G1 X96.113 Y133.911 E14.40732
G1 X96.113 Y134.675 E14.42210
G1 X79.273 Y117.835 E14.88317
G1 X78.510 Y117.835 E14.89795
G1 X96.113 Y135.438 E15.37993
G1 X96.113 Y136.202 E15.39471
G1 X77.746 Y117.835 E15.89759
G1 X76.982 Y117.835 E15.91238
G1 X96.113 Y136.966 E16.43617
G1 X96.113 Y137.729 E16.45095
G1 X76.219 Y117.835 E16.99565
G1 X75.455 Y117.835 E17.01043
G1 X96.113 Y138.493 E17.57604
G1 X96.113 Y139.257 E17.59082
G1 X74.691 Y117.835 E18.17734
G1 X73.928 Y117.835 E18.19212
G1 X96.113 Y140.020 E18.79954
G1 X96.113 Y140.784 E18.81433
G1 X73.164 Y117.835 E19.44266
G1 X72.401 Y117.835 E19.45744
G1 X96.113 Y141.548 E20.10668
G1 X96.113 Y142.311 E20.12146
G1 X71.637 Y117.835 E20.79161
G1 X70.873 Y117.835 E20.80639
G1 X96.113 Y143.075 E21.49745
G1 X96.113 Y143.838 E21.51223
G1 X70.110 Y117.835 E22.22419
G1 X69.346 Y117.835 E22.23897
G1 X96.113 Y144.602 E22.97184
G1 X96.113 Y145.366 E22.98663
G1 X68.582 Y117.835 E23.74040
G1 X67.819 Y117.835 E23.75519
G1 X96.113 Y146.129 E24.52987
G1 X95.833 Y146.613 E24.54069
G1 X67.055 Y117.835 E25.32860
G1 X66.291 Y117.835 E25.34339
G1 X95.069 Y146.613 E26.13130
G1 X94.306 Y146.613 E26.14608
G1 X65.528 Y117.835 E26.93400
G1 X64.764 Y117.835 E26.94878
G1 X93.542 Y146.613 E27.73670
G1 X92.778 Y146.613 E27.75148
G1 X64.484 Y118.318 E28.52617
G1 X64.484 Y119.082 E28.54095
G1 X92.015 Y146.613 E29.29473
G1 X91.251 Y146.613 E29.30951
G1 X64.484 Y119.845 E30.04238
G1 X64.484 Y120.609 E30.05717
G1 X90.487 Y146.613 E30.76913
G1 X89.724 Y146.613 E30.78391
G1 X64.484 Y121.373 E31.47496
G1 X64.484 Y122.136 E31.48975
G1 X88.960 Y146.613 E32.15989
G1 X88.196 Y146.613 E32.17468
G1 X64.484 Y122.900 E32.82392
G1 X64.484 Y123.664 E32.83870
G1 X87.433 Y146.613 E33.46703
G1 X86.669 Y146.613 E33.48181
G1 X64.484 Y124.427 E34.08924
G1 X64.484 Y125.191 E34.10402
G1 X85.906 Y146.613 E34.69053
G1 X85.142 Y146.613 E34.70532
G1 X64.484 Y125.954 E35.27092
G1 X64.484 Y126.718 E35.28571
G1 X84.378 Y146.613 E35.83041
G1 X83.615 Y146.613 E35.84519
G1 X64.484 Y127.482 E36.36898
G1 X64.484 Y128.245 E36.38377
G1 X82.851 Y146.613 E36.88665
G1 X82.087 Y146.613 E36.90143
G1 X64.484 Y129.009 E37.38341
G1 X64.484 Y129.773 E37.39819
G1 X81.324 Y146.613 E37.85926
G1 X80.560 Y146.613 E37.87404
G1 X64.484 Y130.536 E38.31420
G1 X64.484 Y131.300 E38.32899
G1 X79.796 Y146.613 E38.74824
G1 X79.033 Y146.613 E38.76302
G1 X64.484 Y132.064 E39.16137
G1 X64.484 Y132.827 E39.17615
G1 X78.269 Y146.613 E39.55359
G1 X77.506 Y146.613 E39.56837
G1 X64.484 Y133.591 E39.92490
G1 X64.484 Y134.354 E39.93968
G1 X76.742 Y146.613 E40.27530
G1 X75.978 Y146.613 E40.29009
G1 X64.484 Y135.118 E40.60480
G1 X64.484 Y135.882 E40.61958
G1 X75.215 Y146.613 E40.91339
G1 X74.451 Y146.613 E40.92817
G1 X64.484 Y136.645 E41.20107
G1 X64.484 Y137.409 E41.21585
G1 X73.687 Y146.613 E41.46784
G1 X72.924 Y146.613 E41.48263
G1 X64.484 Y138.173 E41.71371
G1 X64.484 Y138.936 E41.72849
G1 X72.160 Y146.613 E41.93867
G1 X71.396 Y146.613 E41.95345
G1 X64.484 Y139.700 E42.14272
G1 X64.484 Y140.464 E42.15750
G1 X70.633 Y146.613 E42.32586
G1 X69.869 Y146.613 E42.34064
G1 X64.484 Y141.227 E42.48809
G1 X64.484 Y141.991 E42.50288
G1 X69.106 Y146.613 E42.62942
G1 X68.342 Y146.613 E42.64420
G1 X64.484 Y142.754 E42.74984
G1 X64.484 Y143.518 E42.76462
G1 X67.578 Y146.613 E42.84935
G1 X66.815 Y146.613 E42.86413
G1 X64.484 Y144.282 E42.92795
G1 X64.484 Y145.045 E42.94273
G1 X66.051 Y146.613 E42.98564
G1 X65.287 Y146.613 E43.00043
G1 X64.484 Y145.809 E43.02243
G1 X64.484 Y146.573 E43.03722
G1 X64.524 Y146.613 E43.03831
G1 F1800.000 E41.03831
G92 E0
G1 X63.516 Y96.237 F9600.000
G1 E2.00000 F1800.000
G1 X63.516 Y66.718 E2.84938 F4500
G1 X95.887 Y66.718 E3.78081
G1 X95.887 Y96.237 E4.63019
G1 X63.591 Y96.237 E5.55946
G1 X62.976 Y96.777 F9600.000
G1 X62.976 Y66.178 E6.43987 F4050
G1 X96.426 Y66.178 E7.40234
G1 X96.426 Y96.777 E8.28275
G1 X63.051 Y96.777 E9.24305
G1 X63.226 Y96.344 F9600.000
G1 X63.927 Y95.866 F9600.000
G1 X63.887 Y95.826 E9.24415 F4950
G1 X63.887 Y95.063 E9.25893
G1 X64.690 Y95.866 E9.28094
G1 X65.454 Y95.866 E9.29572
G1 X63.887 Y94.299 E9.33863
G1 X63.887 Y93.535 E9.35342
G1 X66.218 Y95.866 E9.41723
G1 X66.981 Y95.866 E9.43202
G1 X63.887 Y92.772 E9.51674
G1 X63.887 Y92.008 E9.53153
G1 X67.745 Y95.866 E9.63716
G1 X68.509 Y95.866 E9.65195
G1 X63.887 Y91.245 E9.77849
G1 X63.887 Y90.481 E9.79327
G1 X69.272 Y95.866 E9.94072
G1 X70.036 Y95.866 E9.95551
G1 X63.887 Y89.717 E10.12387
G1 X63.887 Y88.954 E10.13865
G1 X70.799 Y95.866 E10.32791
G1 X71.563 Y95.866 E10.34270
G1 X63.887 Y88.190 E10.55287
G1 X63.887 Y87.426 E10.56766
G1 X72.327 Y95.866 E10.79874
G1 X73.090 Y95.866 E10.81352
G1 X63.887 Y86.663 E11.06551
G1 X63.887 Y85.899 E11.08029
G1 X73.854 Y95.866 E11.35319
G1 X74.618 Y95.866 E11.36798
G1 X63.887 Y85.135 E11.66178
G1 X63.887 Y84.372 E11.67656
G1 X75.381 Y95.866 E11.99128
G1 X76.145 Y95.866 E12.00606
G1 X63.887 Y83.608 E12.34168
G1 X63.887 Y82.845 E12.35647
G1 X76.909 Y95.866 E12.71299
G1 X77.672 Y95.866 E12.72778
G1 X63.887 Y82.081 E13.10521
G1 X63.887 Y81.317 E13.12000
G1 X78.436 Y95.866 E13.51834
G1 X79.199 Y95.866 E13.53313
G1 X63.887 Y80.554 E13.95238
G1 X63.887 Y79.790 E13.96716
G1 X79.963 Y95.866 E14.40732
G1 X80.727 Y95.866 E14.42211
G1 X63.887 Y79.026 E14.88317
G1 X63.887 Y78.263 E14.89796
G1 X81.490 Y95.866 E15.37993
G1 X82.254 Y95.866 E15.39472
G1 X63.887 Y77.499 E15.89760
G1 X63.887 Y76.735 E15.91238
G1 X83.018 Y95.866 E16.43617
G1 X83.781 Y95.866 E16.45096
G1 X63.887 Y75.972 E16.99566
G1 X63.887 Y75.208 E17.01044
G1 X84.545 Y95.866 E17.57605
G1 X85.309 Y95.866 E17.59083
G1 X63.887 Y74.445 E18.17735
G1 X63.887 Y73.681 E18.19213
G1 X86.072 Y95.866 E18.79955
G1 X86.836 Y95.866 E18.81434
G1 X63.887 Y72.917 E19.44267
G1 X63.887 Y72.154 E19.45745
G1 X87.599 Y95.866 E20.10669
G1 X88.363 Y95.866 E20.12147
G1 X63.887 Y71.390 E20.79162
G1 X63.887 Y70.626 E20.80640
G1 X89.127 Y95.866 E21.49745
G1 X89.890 Y95.866 E21.51224
G1 X63.887 Y69.863 E22.22420
G1 X63.887 Y69.099 E22.23898
G1 X90.654 Y95.866 E22.97185
G1 X91.418 Y95.866 E22.98664
G1 X63.887 Y68.335 E23.74041
G1 X63.887 Y67.572 E23.75520
G1 X92.181 Y95.866 E24.52988
G1 X92.945 Y95.866 E24.54467
G1 X64.167 Y67.089 E25.33258
G1 X64.931 Y67.089 E25.34737
G1 X93.709 Y95.866 E26.13528
G1 X94.472 Y95.866 E26.15006
G1 X65.694 Y67.089 E26.93798
G1 X66.458 Y67.089 E26.95276
G1 X95.236 Y95.866 E27.74068
G1 X95.516 Y95.383 E27.75149
G1 X67.222 Y67.089 E28.52618
G1 X67.985 Y67.089 E28.54096
G1 X95.516 Y94.620 E29.29474
G1 X95.516 Y93.856 E29.30952
G1 X68.749 Y67.089 E30.04239
G1 X69.513 Y67.089 E30.05718
G1 X95.516 Y93.092 E30.76914
G1 X95.516 Y92.329 E30.78392
G1 X70.276 Y67.089 E31.47497
G1 X71.040 Y67.089 E31.48976
G1 X95.516 Y91.565 E32.15990
G1 X95.516 Y90.801 E32.17469
G1 X71.804 Y67.089 E32.82392
G1 X72.567 Y67.089 E32.83871
G1 X95.516 Y90.038 E33.46704
G1 X95.516 Y89.274 E33.48182
G1 X73.331 Y67.089 E34.08924
G1 X74.094 Y67.089 E34.10403
