; generated by Slic3r 0.9.11-dev on 2014-01-16 at 16:49:56

; layer_height = .4
; perimeters = 2
; top_solid_layers = 4
; bottom_solid_layers = 3
; fill_density = 0.8
; perimeter_speed = 100
; infill_speed = 100
; travel_speed = 130
; nozzle_diameter = 0.5
; filament_diameter = 2.89
; extrusion_multiplier = 1
; perimeters extrusion width = 0.50mm
; infill extrusion width = 0.70mm
; solid infill extrusion width = 0.53mm
; top infill extrusion width = 0.43mm
; first layer extrusion width = 0.80mm

G21 ; set units to millimeters
M107
G28 ; home all axes
G90 ; use absolute coordinates
G92 E0
M82 ; use absolute distances for extrusion
M204 S2000
G1 F2100.000 E-1.40000
G92 E0
G1 Z0.400 F7800.000
G1 X55.380 Y87.922 F7800.000
G1 E1.40000 F2100.000
G1 X56.630 Y87.292 E1.46279 F3600.000
G1 X57.970 Y86.902 E1.52539
G1 X59.360 Y86.772 E1.58801
G1 X120.630 Y86.772 E4.33639
G1 X122.020 Y86.902 E4.39901
G1 X123.360 Y87.292 E4.46161
G1 X124.610 Y87.922 E4.52440
G1 X125.230 Y88.312 E4.55726
G1 X126.420 Y89.232 E4.62473
G1 X127.390 Y90.382 E4.69221
G1 X128.120 Y91.692 E4.75948
G1 X128.570 Y93.132 E4.82716
G1 X128.720 Y94.632 E4.89478
G1 X128.720 Y117.672 E5.92828
G1 X128.570 Y119.172 E5.99590
G1 X128.120 Y120.602 E6.06315
G1 X127.400 Y121.922 E6.13059
G1 X126.420 Y123.062 E6.19803
G1 X125.230 Y123.992 E6.26577
G1 X123.890 Y124.662 E6.33298
G1 X123.360 Y124.862 E6.35839
G1 X122.060 Y125.222 E6.41889
G1 X120.720 Y125.342 E6.47924
G1 X59.280 Y125.342 E9.23524
G1 X57.960 Y125.222 E9.29470
G1 X56.690 Y124.882 E9.35367
G1 X56.150 Y124.682 E9.37950
G1 X54.790 Y124.012 E9.44751
G1 X53.590 Y123.092 E9.51533
G1 X52.610 Y121.942 E9.58311
G1 X51.870 Y120.622 E9.65099
G1 X51.420 Y119.172 E9.71909
G1 X51.270 Y117.672 E9.78671
G1 X51.270 Y94.632 E10.82021
G1 X51.420 Y93.132 E10.88783
G1 X51.870 Y91.692 E10.95551
G1 X52.600 Y90.382 E11.02278
G1 X53.570 Y89.232 E11.09026
G1 X54.760 Y88.312 E11.15773
G1 X55.287 Y87.980 E11.18564
G1 X55.770 Y88.542 F7800.000
G1 X57.490 Y87.772 E11.27017 F3600.000
G1 X59.360 Y87.502 E11.35492
G1 X120.630 Y87.502 E14.10330
G1 X122.500 Y87.772 E14.18805
G1 X124.220 Y88.542 E14.27258
G1 X124.840 Y88.932 E14.30544
G1 X125.910 Y89.762 E14.36618
G1 X126.790 Y90.802 E14.42729
G1 X127.440 Y91.982 E14.48772
G1 X127.850 Y93.282 E14.54887
G1 X127.990 Y94.632 E14.60975
G1 X127.990 Y117.672 E15.64325
G1 X127.850 Y119.022 E15.70413
G1 X127.450 Y120.312 E15.76471
G1 X126.790 Y121.502 E15.82575
G1 X125.910 Y122.532 E15.88652
G1 X124.840 Y123.372 E15.94754
G1 X123.630 Y123.972 E16.00812
G1 X123.100 Y124.172 E16.03353
G1 X121.930 Y124.502 E16.08806
G1 X120.720 Y124.612 E16.14256
G1 X59.280 Y124.612 E18.89856
G1 X58.090 Y124.502 E18.95217
G1 X56.940 Y124.192 E19.00560
G1 X56.400 Y123.992 E19.03143
G1 X55.180 Y123.392 E19.09241
G1 X54.100 Y122.552 E19.15378
G1 X53.210 Y121.522 E19.21485
G1 X52.550 Y120.332 E19.27589
G1 X52.140 Y119.032 E19.33703
G1 X52.000 Y117.672 E19.39836
G1 X52.000 Y94.632 E20.43186
G1 X52.140 Y93.282 E20.49274
G1 X52.550 Y91.982 E20.55388
G1 X53.200 Y90.802 E20.61431
G1 X54.080 Y89.762 E20.67543
G1 X55.150 Y88.932 E20.73617
G1 X55.677 Y88.600 E20.76408
G1 F2100.000 E19.36408
G92 E0
G1 X59.850 Y95.345 F7800.000
G1 E1.40000 F2100.000
G1 X120.150 Y95.346 E4.10485 F3600.000
G1 X120.150 Y116.775 E5.06609
G1 X59.850 Y116.775 E7.77094
G1 X59.850 Y95.456 E8.72724
G1 X59.471 Y94.610 F7800.000
G1 X120.528 Y94.610 E11.46605 F2340.000
G1 X120.885 Y94.839 E11.48511
G1 X120.885 Y117.423 E12.49815
G1 X120.653 Y117.510 E12.50927
G1 X59.347 Y117.510 E15.25929
G1 X59.114 Y117.423 E15.27041
G1 X59.114 Y94.839 E16.28347
G1 X59.378 Y94.670 E16.29754
G1 X59.953 Y95.166 F7800.000
G1 F2100.000 E14.89754
G92 E0
G1 X60.409 Y116.279 F7800.000
G1 E1.40000 F2100.000
G1 X60.346 Y116.189 E1.40499 F3600.000
G1 X61.317 Y116.279 E1.44916
G1 X60.346 Y114.893 E1.52584
G1 X60.346 Y113.597 E1.58457
G1 X62.224 Y116.279 E1.73294
G1 X63.131 Y116.279 E1.77406
G1 X60.346 Y112.301 E1.99411
G1 X60.346 Y111.005 E2.05284
G1 X64.039 Y116.279 E2.34458
G1 X64.946 Y116.279 E2.38570
G1 X60.346 Y109.710 E2.74913
G1 X60.346 Y108.414 E2.80786
G1 X65.853 Y116.279 E3.24298
G1 X66.761 Y116.279 E3.28410
G1 X60.346 Y107.118 E3.79091
G1 X60.346 Y105.822 E3.84963
G1 X67.668 Y116.279 E4.42813
G1 X68.575 Y116.279 E4.46925
G1 X60.346 Y104.527 E5.11944
G1 X60.346 Y103.231 E5.17816
G1 X69.482 Y116.279 E5.90003
G1 X70.390 Y116.279 E5.94115
G1 X60.346 Y101.935 E6.73472
G1 X60.346 Y100.639 E6.79344
G1 X71.297 Y116.279 E7.65869
G1 X72.204 Y116.279 E7.69981
G1 X60.346 Y99.344 E8.63675
G1 X60.346 Y98.048 E8.69547
G1 X73.112 Y116.279 E9.70410
G1 X74.019 Y116.279 E9.74522
G1 X60.346 Y96.752 E10.82554
G1 X60.616 Y95.842 E10.86858
G1 X74.926 Y116.279 E11.99927
G1 X75.833 Y116.279 E12.04039
G1 X61.523 Y95.842 E13.17108
G1 X62.431 Y95.842 E13.21220
G1 X76.741 Y116.279 E14.34289
G1 X77.648 Y116.279 E14.38400
G1 X63.338 Y95.842 E15.51470
G1 X64.245 Y95.842 E15.55581
G1 X78.555 Y116.279 E16.68651
G1 X79.463 Y116.279 E16.72762
G1 X65.152 Y95.842 E17.85831
G1 X66.060 Y95.842 E17.89943
G1 X80.370 Y116.279 E19.03012
G1 X81.277 Y116.279 E19.07124
G1 X66.967 Y95.842 E20.20193
G1 X67.874 Y95.842 E20.24305
G1 X82.185 Y116.279 E21.37374
G1 X83.092 Y116.279 E21.41486
G1 X68.782 Y95.842 E22.54555
G1 X69.689 Y95.842 E22.58667
G1 X83.999 Y116.279 E23.71736
G1 X84.906 Y116.279 E23.75848
G1 X70.596 Y95.842 E24.88917
G1 X71.504 Y95.842 E24.93029
G1 X85.814 Y116.279 E26.06098
G1 X86.721 Y116.279 E26.10209
G1 X72.411 Y95.842 E27.23278
G1 X73.318 Y95.842 E27.27390
G1 X87.628 Y116.279 E28.40459
G1 X88.536 Y116.279 E28.44571
G1 X74.225 Y95.842 E29.57640
G1 X75.133 Y95.842 E29.61752
G1 X89.443 Y116.279 E30.74821
G1 X90.350 Y116.279 E30.78933
G1 X76.040 Y95.842 E31.92002
G1 X76.947 Y95.842 E31.96114
G1 X91.258 Y116.279 E33.09182
G1 X92.165 Y116.279 E33.13294
G1 X77.855 Y95.842 E34.26363
G1 X78.762 Y95.842 E34.30475
G1 X93.072 Y116.279 E35.43544
G1 X93.979 Y116.279 E35.47656
G1 X79.669 Y95.842 E36.60725
G1 X80.577 Y95.842 E36.64836
G1 X94.887 Y116.279 E37.77905
G1 X95.794 Y116.279 E37.82017
G1 X81.484 Y95.842 E38.95086
G1 X82.391 Y95.842 E38.99198
G1 X96.701 Y116.279 E40.12267
G1 X97.609 Y116.279 E40.16379
G1 X83.298 Y95.842 E41.29447
G1 X84.206 Y95.842 E41.33559
G1 X98.516 Y116.279 E42.46628
G1 X99.423 Y116.279 E42.50740
G1 X85.113 Y95.842 E43.63809
G1 X86.020 Y95.842 E43.67921
G1 X100.331 Y116.279 E44.80989
G1 X101.238 Y116.279 E44.85101
G1 X86.928 Y95.842 E45.98170
G1 X87.835 Y95.842 E46.02282
G1 X102.145 Y116.279 E47.15351
G1 X103.052 Y116.279 E47.19462
G1 X88.742 Y95.842 E48.32531
G1 X89.650 Y95.842 E48.36643
G1 X103.960 Y116.279 E49.49712
G1 X104.867 Y116.279 E49.53824
G1 X90.557 Y95.842 E50.66892
G1 X91.464 Y95.842 E50.71004
G1 X105.774 Y116.279 E51.84073
G1 X106.682 Y116.279 E51.88185
G1 X92.371 Y95.842 E53.01253
G1 X93.279 Y95.842 E53.05365
G1 X107.589 Y116.279 E54.18434
G1 X108.496 Y116.279 E54.22546
G1 X94.186 Y95.842 E55.35614
G1 X95.093 Y95.842 E55.39726
G1 X109.404 Y116.279 E56.52795
G1 X110.311 Y116.279 E56.56907
G1 X96.001 Y95.842 E57.69975
G1 X96.908 Y95.842 E57.74087
G1 X111.218 Y116.279 E58.87156
G1 X112.125 Y116.279 E58.91268
G1 X97.815 Y95.842 E60.04336
G1 X98.723 Y95.842 E60.08448
G1 X113.033 Y116.279 E61.21517
G1 X113.940 Y116.279 E61.25629
G1 X99.630 Y95.842 E62.38697
G1 X100.537 Y95.842 E62.42809
G1 X114.847 Y116.279 E63.55878
G1 X115.755 Y116.279 E63.59989
G1 X101.444 Y95.842 E64.73058
G1 X102.352 Y95.842 E64.77170
G1 X116.662 Y116.279 E65.90238
G1 X117.569 Y116.279 E65.94350
G1 X103.259 Y95.842 E67.07419
G1 X104.166 Y95.842 E67.11531
G1 X118.477 Y116.279 E68.24599
G1 X119.384 Y116.279 E68.28711
G1 X105.074 Y95.842 E69.41779
G1 X105.981 Y95.842 E69.45891
G1 X119.654 Y115.368 E70.53923
G1 X119.654 Y114.073 E70.59795
G1 X106.888 Y95.842 E71.60658
G1 X107.796 Y95.842 E71.64770
G1 X119.654 Y112.777 E72.58463
G1 X119.654 Y111.481 E72.64336
G1 X108.703 Y95.842 E73.50861
G1 X109.610 Y95.842 E73.54973
G1 X119.654 Y110.185 E74.34329
G1 X119.654 Y108.890 E74.40201
G1 X110.517 Y95.842 E75.12388
G1 X111.425 Y95.842 E75.16500
G1 X119.654 Y107.594 E75.81519
G1 X119.654 Y106.298 E75.87391
G1 X112.332 Y95.842 E76.45241
G1 X113.239 Y95.842 E76.49353
G1 X119.654 Y105.002 E77.00033
G1 X119.654 Y103.706 E77.05906
G1 X114.147 Y95.842 E77.49418
G1 X115.054 Y95.842 E77.53529
G1 X119.654 Y102.411 E77.89873
G1 X119.654 Y101.115 E77.95745
G1 X115.961 Y95.842 E78.24919
G1 X116.869 Y95.842 E78.29031
G1 X119.654 Y99.819 E78.51036
G1 X119.654 Y98.523 E78.56909
G1 X117.776 Y95.842 E78.71745
G1 X118.683 Y95.842 E78.75857
G1 X119.654 Y97.228 E78.83525
G1 X119.654 Y95.932 E78.89397
G1 X119.591 Y95.842 E78.89896
M106 S245
M204 S2000
G1 F2100.000 E77.49896
G92 E0
G1 Z0.800 F7800.000
G1 X119.822 Y94.465 F7800.000
G1 E1.40000 F2100.000
M204 S2000
G1 X120.310 Y94.465 E1.41488 F6000
G1 X121.250 Y94.994 E1.44776
G1 X121.250 Y117.159 E2.12354
G1 X120.584 Y117.408 E2.14523
G1 X59.416 Y117.408 E4.01018
G1 X58.750 Y117.159 E4.03187
G1 X58.750 Y94.993 E4.70768
G1 X59.686 Y94.465 E4.74043
G1 X119.747 Y94.465 E6.57164
M204 S2000
G1 X119.822 Y93.965 F7800.000
M204 S2000
M106 S255
G1 X120.418 Y93.965 E6.58894 F3600
G1 X120.621 Y94.057 E6.59541
G1 X121.750 Y94.704 E6.63320
G1 X121.750 Y117.505 E7.29521
G1 X120.675 Y117.908 E7.32856
G1 X120.294 Y117.908 E7.33960
G1 X59.325 Y117.908 E9.10981
G1 X58.250 Y117.505 E9.14316
G1 X58.250 Y94.703 E9.80519
G1 X59.375 Y94.057 E9.84287
G1 X59.578 Y93.965 E9.84933
G1 X119.747 Y93.965 E11.59631
M106 S245
M204 S2000
G1 X120.072 Y94.398 F7800.000
G1 F2100.000 E10.19631
G92 E0
G1 X120.909 Y116.886 F7800.000
G1 E1.40000 F2100.000
M204 S2000
G1 X120.797 Y116.964 E1.40434 F6000
G1 X120.909 Y116.249 E1.42735
G1 X119.741 Y117.068 E1.47273
G1 X118.831 Y117.068 E1.50165
G1 X120.909 Y115.613 E1.58233
G1 X120.909 Y114.976 E1.60258
G1 X117.922 Y117.068 E1.71857
G1 X117.013 Y117.068 E1.74749
G1 X120.909 Y114.339 E1.89879
G1 X120.909 Y113.702 E1.91904
G1 X116.103 Y117.068 E2.10565
G1 X115.194 Y117.068 E2.13457
G1 X120.909 Y113.066 E2.35649
G1 X120.909 Y112.429 E2.37674
G1 X114.284 Y117.068 E2.63396
G1 X113.375 Y117.068 E2.66289
G1 X120.909 Y111.792 E2.95542
G1 X120.909 Y111.155 E2.97567
G1 X112.466 Y117.068 E3.30352
G1 X111.556 Y117.068 E3.33244
G1 X120.909 Y110.519 E3.69559
G1 X120.909 Y109.882 E3.71584
G1 X110.647 Y117.068 E4.11430
G1 X109.738 Y117.068 E4.14323
G1 X120.909 Y109.245 E4.57699
G1 X120.909 Y108.608 E4.59725
G1 X108.828 Y117.068 E5.06632
G1 X107.919 Y117.068 E5.09525
G1 X120.909 Y107.972 E5.59963
G1 X120.909 Y107.335 E5.61989
G1 X107.009 Y117.068 E6.15958
G1 X106.100 Y117.068 E6.18850
G1 X120.909 Y106.698 E6.76351
G1 X120.909 Y106.061 E6.78376
G1 X105.191 Y117.068 E7.39407
G1 X104.281 Y117.068 E7.42300
G1 X120.909 Y105.425 E8.06862
G1 X120.909 Y104.788 E8.08887
G1 X103.372 Y117.068 E8.76980
G1 X102.463 Y117.068 E8.79873
G1 X120.909 Y104.151 E9.51496
G1 X120.909 Y103.514 E9.53522
G1 X101.553 Y117.068 E10.28677
G1 X100.644 Y117.068 E10.31569
G1 X120.909 Y102.878 E11.10255
G1 X120.909 Y102.241 E11.12280
G1 X99.735 Y117.068 E11.94497
G1 X98.825 Y117.068 E11.97389
G1 X120.909 Y101.604 E12.83136
G1 X120.909 Y100.967 E12.85162
G1 X97.916 Y117.068 E13.74440
G1 X97.006 Y117.068 E13.77332
G1 X120.909 Y100.331 E14.70142
G1 X120.909 Y99.694 E14.72167
G1 X96.097 Y117.068 E15.68507
G1 X95.188 Y117.068 E15.71399
G1 X120.909 Y99.057 E16.71270
G1 X120.909 Y98.420 E16.73296
G1 X94.278 Y117.068 E17.76698
G1 X93.369 Y117.068 E17.79590
G1 X120.909 Y97.784 E18.86523
G1 X120.909 Y97.147 E18.88548
G1 X92.460 Y117.068 E19.99012
G1 X91.550 Y117.068 E20.01904
G1 X120.909 Y96.510 E21.15899
G1 X120.909 Y95.873 E21.17924
G1 X90.641 Y117.068 E22.35449
G1 X89.731 Y117.068 E22.38342
G1 X120.905 Y95.240 E23.59381
G1 X120.439 Y94.929 E23.61162
G1 X88.822 Y117.068 E24.83924
G1 X87.913 Y117.068 E24.86816
G1 X119.705 Y94.806 E26.10259
G1 X118.796 Y94.806 E26.13151
G1 X87.003 Y117.068 E27.36594
G1 X86.094 Y117.068 E27.39486
G1 X117.886 Y94.806 E28.62929
G1 X116.977 Y94.806 E28.65821
G1 X85.185 Y117.068 E29.89264
G1 X84.275 Y117.068 E29.92156
G1 X116.068 Y94.806 E31.15599
G1 X115.158 Y94.806 E31.18491
G1 X83.366 Y117.068 E32.41934
G1 X82.456 Y117.068 E32.44826
G1 X114.249 Y94.806 E33.68269
G1 X113.339 Y94.806 E33.71161
G1 X81.547 Y117.068 E34.94604
G1 X80.638 Y117.068 E34.97496
G1 X112.430 Y94.806 E36.20939
G1 X111.521 Y94.806 E36.23831
G1 X79.728 Y117.067 E37.47274
G1 X78.819 Y117.067 E37.50166
G1 X110.611 Y94.806 E38.73609
G1 X109.702 Y94.806 E38.76501
G1 X77.910 Y117.067 E39.99944
G1 X77.000 Y117.067 E40.02836
G1 X108.793 Y94.806 E41.26279
G1 X107.883 Y94.806 E41.29171
G1 X76.091 Y117.067 E42.52614
G1 X75.181 Y117.067 E42.55506
G1 X106.974 Y94.806 E43.78949
G1 X106.064 Y94.806 E43.81841
G1 X74.272 Y117.067 E45.05284
G1 X73.363 Y117.067 E45.08176
G1 X105.155 Y94.806 E46.31619
G1 X104.246 Y94.806 E46.34511
G1 X72.453 Y117.067 E47.57954
G1 X71.544 Y117.067 E47.60846
G1 X103.336 Y94.806 E48.84289
G1 X102.427 Y94.806 E48.87181
G1 X70.635 Y117.067 E50.10624
G1 X69.725 Y117.067 E50.13516
G1 X101.518 Y94.806 E51.36959
G1 X100.608 Y94.806 E51.39851
G1 X68.816 Y117.067 E52.63294
G1 X67.907 Y117.067 E52.66186
G1 X99.699 Y94.806 E53.89629
G1 X98.790 Y94.806 E53.92521
G1 X66.997 Y117.067 E55.15964
G1 X66.088 Y117.067 E55.18857
G1 X97.880 Y94.806 E56.42299
G1 X96.971 Y94.806 E56.45192
G1 X65.178 Y117.067 E57.68634
G1 X64.269 Y117.067 E57.71527
G1 X96.061 Y94.806 E58.94969
G1 X95.152 Y94.806 E58.97862
G1 X63.360 Y117.067 E60.21304
G1 X62.450 Y117.067 E60.24197
G1 X94.243 Y94.806 E61.47640
G1 X93.333 Y94.806 E61.50532
G1 X61.541 Y117.067 E62.73975
G1 X60.632 Y117.067 E62.76867
G1 X92.424 Y94.806 E64.00310
G1 X91.515 Y94.806 E64.03202
G1 X59.722 Y117.067 E65.26645
G1 X59.094 Y116.871 E65.28740
G1 X90.605 Y94.806 E66.51093
G1 X89.696 Y94.806 E66.53985
G1 X59.091 Y116.236 E67.72817
G1 X59.091 Y115.599 E67.74843
G1 X88.786 Y94.806 E68.90144
G1 X87.877 Y94.806 E68.93037
G1 X59.091 Y114.963 E70.04807
G1 X59.091 Y114.326 E70.06833
G1 X86.968 Y94.806 E71.15072
G1 X86.058 Y94.806 E71.17965
G1 X59.091 Y113.689 E72.22674
G1 X59.091 Y113.052 E72.24699
G1 X85.149 Y94.806 E73.25877
G1 X84.240 Y94.806 E73.28769
G1 X59.091 Y112.416 E74.26416
G1 X59.091 Y111.779 E74.28442
G1 X83.330 Y94.806 E75.22558
G1 X82.421 Y94.806 E75.25450
G1 X59.091 Y111.142 E76.16036
G1 X59.091 Y110.505 E76.18061
G1 X81.511 Y94.806 E77.05116
G1 X80.602 Y94.806 E77.08008
G1 X59.091 Y109.869 E77.91532
G1 X59.091 Y109.232 E77.93557
G1 X79.693 Y94.806 E78.73550
G1 X78.783 Y94.806 E78.76442
G1 X59.091 Y108.595 E79.52904
G1 X59.091 Y107.958 E79.54929
G1 X77.874 Y94.806 E80.27860
G1 X76.965 Y94.806 E80.30752
G1 X59.091 Y107.322 E81.00152
G1 X59.091 Y106.685 E81.02178
G1 X76.055 Y94.806 E81.68047
G1 X75.146 Y94.806 E81.70939
G1 X59.091 Y106.048 E82.33278
G1 X59.091 Y105.411 E82.35303
G1 X74.237 Y94.806 E82.94110
G1 X73.327 Y94.806 E82.97003
G1 X59.091 Y104.775 E83.52279
G1 X59.091 Y104.138 E83.54304
G1 X72.418 Y94.806 E84.06050
G1 X71.508 Y94.806 E84.08942
G1 X59.091 Y103.501 E84.57157
G1 X59.091 Y102.864 E84.59182
G1 X70.599 Y94.806 E85.03866
G1 X69.690 Y94.806 E85.06759
G1 X59.091 Y102.228 E85.47912
G1 X59.091 Y101.591 E85.49937
G1 X68.780 Y94.806 E85.87559
G1 X67.871 Y94.806 E85.90452
G1 X59.091 Y100.954 E86.24543
G1 X59.091 Y100.317 E86.26568
G1 X66.962 Y94.806 E86.57128
G1 X66.052 Y94.806 E86.60021
G1 X59.091 Y99.681 E86.87050
G1 X59.091 Y99.044 E86.89075
G1 X65.143 Y94.806 E87.12574
G1 X64.233 Y94.806 E87.15466
G1 X59.091 Y98.407 E87.35434
G1 X59.091 Y97.770 E87.37459
G1 X63.324 Y94.806 E87.53896
G1 X62.415 Y94.806 E87.56789
G1 X59.091 Y97.134 E87.69695
G1 X59.091 Y96.497 E87.71720
G1 X61.505 Y94.806 E87.81095
G1 X60.596 Y94.806 E87.83987
G1 X59.091 Y95.860 E87.89831
G1 X59.091 Y95.223 E87.91857
G1 X59.355 Y95.038 E87.92883
M204 S2000
M106 S242
G1 F2100.000 E86.52883
G92 E0
G1 Z1.200 F7800.000
G1 X58.750 Y94.994 F7800.000
G1 E1.40000 F2100.000
M204 S2000
G1 X58.889 Y94.648 E1.41137 F6000
G1 X59.268 Y94.430 E1.42471
G1 X59.842 Y94.170 E1.44392
G1 X120.151 Y94.170 E3.28266
G1 X120.725 Y94.430 E3.30190
G1 X121.109 Y94.650 E3.31536
G1 X121.250 Y94.996 E3.32676
