; generated by Slic3r 1.1.1-dev on 2014-04-28 at 17:16:53

; perimeters extrusion width = 0.50mm
; infill extrusion width = 0.52mm
; solid infill extrusion width = 0.52mm
; top infill extrusion width = 0.52mm

G21 ; set units to millimeters
M107
G28 ; home all axes
G90 ; use absolute coordinates
G92 E0
M82 ; use absolute distances for extrusion
M204 S2000
G1 F600.000 E-1.00000
G92 E0
G1 Z0.400 F9000.000
G1 X54.523 Y67.110 F9000.000
G1 E1.00000 F600.000
G1 X56.713 Y66.237 E1.07189 F4410
G1 X58.173 Y66.084 E1.11663
G1 X131.851 Y66.084 E3.36302
G1 X134.175 Y66.481 E3.43491
G1 X136.236 Y67.627 E3.50680
G1 X137.272 Y68.655 E3.55128
G1 X137.595 Y69.051 E3.56688
G1 X138.759 Y71.102 E3.63877
G1 X139.175 Y73.480 E3.71238
G1 X139.175 Y138.837 E5.70504
G1 X138.778 Y141.161 E5.77694
G1 X137.631 Y143.222 E5.84883
G1 X136.248 Y144.529 E5.90686
G1 X135.969 Y144.729 E5.91734
G1 X133.848 Y145.759 E5.98923
G1 X131.895 Y146.037 E6.04935
G1 X58.129 Y146.037 E8.29842
G1 X55.805 Y145.640 E8.37031
G1 X54.056 Y144.729 E8.43043
G1 X53.776 Y144.529 E8.44091
G1 X52.117 Y142.854 E8.51280
G1 X51.108 Y140.722 E8.58469
G1 X50.850 Y138.837 E8.64273
G1 X50.850 Y73.480 E10.63539
G1 X51.247 Y71.156 E10.70729
G1 X52.424 Y69.057 E10.78064
G1 X52.747 Y68.661 E10.79623
G1 X54.467 Y67.160 E10.86583
G1 X54.855 Y67.494 F9000.000
G1 X56.981 Y66.694 E10.93509 F4410
G1 X58.173 Y66.584 E10.97158
G1 X131.851 Y66.584 E13.21797
G1 X134.088 Y66.981 E13.28723
G1 X136.051 Y68.123 E13.35648
G1 X136.885 Y68.971 E13.39274
G1 X137.208 Y69.367 E13.40833
G1 X138.316 Y71.350 E13.47759
G1 X138.675 Y73.480 E13.54343
G1 X138.675 Y138.837 E15.53610
G1 X138.278 Y141.073 E15.60536
G1 X137.136 Y143.037 E15.67462
G1 X135.957 Y144.123 E15.72347
G1 X135.678 Y144.323 E15.73395
G1 X133.628 Y145.301 E15.80320
G1 X131.895 Y145.537 E15.85652
G1 X58.129 Y145.537 E18.10558
G1 X55.893 Y145.140 E18.17484
G1 X54.347 Y144.323 E18.22816
G1 X54.067 Y144.123 E18.23863
G1 X52.479 Y142.498 E18.30789
G1 X51.547 Y140.427 E18.37715
G1 X51.350 Y138.837 E18.42600
G1 X51.350 Y73.480 E20.41867
G1 X51.747 Y71.243 E20.48793
G1 X52.811 Y69.373 E20.55354
G1 X53.134 Y68.977 E20.56913
G1 X54.798 Y67.543 E20.63610
G1 F600.000 E19.63610
G92 E0
G1 X58.600 Y116.150 F9000.000
G1 E1.00000 F600.000
G1 X89.856 Y116.151 E1.95298 F4410
G1 X89.856 Y138.287 E2.62788
G1 X58.600 Y138.287 E3.58086
G1 X58.600 Y116.225 E4.25349
G1 X58.100 Y115.886 F9000.000
G1 X58.291 Y115.650 E4.26274 F3570
G1 X90.164 Y115.651 E5.23450
G1 X90.356 Y115.886 E5.24376
G1 X90.356 Y138.787 E5.94199
G1 X58.100 Y138.787 E6.92545
G1 X58.100 Y115.961 E7.62140
G1 X58.402 Y115.865 F9000.000
G1 X58.981 Y137.940 F9000.000
G1 X58.947 Y137.891 E7.62267 F4620
G1 X59.621 Y137.940 E7.63715
G1 X58.947 Y136.976 E7.66235
G1 X58.947 Y136.060 E7.68195
G1 X60.262 Y137.940 E7.73107
G1 X60.903 Y137.940 E7.74480
G1 X58.947 Y135.145 E7.81784
G1 X58.947 Y134.230 E7.83744
G1 X61.544 Y137.940 E7.93442
G1 X62.185 Y137.940 E7.94814
G1 X58.947 Y133.314 E8.06905
G1 X58.947 Y132.399 E8.08864
G1 X62.826 Y137.940 E8.23347
G1 X63.467 Y137.940 E8.24720
G1 X58.947 Y131.483 E8.41595
G1 X58.947 Y130.568 E8.43555
G1 X64.108 Y137.940 E8.62823
G1 X64.749 Y137.940 E8.64196
G1 X58.947 Y129.653 E8.85856
G1 X58.947 Y128.737 E8.87816
G1 X65.390 Y137.940 E9.11870
G1 X66.031 Y137.940 E9.13242
G1 X58.947 Y127.822 E9.39688
G1 X58.947 Y126.906 E9.41648
G1 X66.672 Y137.940 E9.70487
G1 X67.313 Y137.940 E9.71859
G1 X58.947 Y125.991 E10.03091
G1 X58.947 Y125.076 E10.05051
G1 X67.954 Y137.940 E10.38675
G1 X68.595 Y137.940 E10.40047
G1 X58.947 Y124.160 E10.76064
G1 X58.947 Y123.245 E10.78024
G1 X69.236 Y137.940 E11.16433
G1 X69.877 Y137.940 E11.17805
G1 X58.947 Y122.330 E11.58607
G1 X58.947 Y121.414 E11.60567
G1 X70.518 Y137.940 E12.03762
G1 X71.159 Y137.940 E12.05134
G1 X58.947 Y120.499 E12.50722
G1 X58.947 Y119.583 E12.52682
G1 X71.800 Y137.940 E13.00662
G1 X72.441 Y137.940 E13.02034
G1 X58.947 Y118.668 E13.52407
G1 X58.947 Y117.753 E13.54367
G1 X73.082 Y137.940 E14.07132
G1 X73.723 Y137.940 E14.08504
G1 X58.947 Y116.837 E14.63662
G1 X59.350 Y116.497 E14.64791
G1 X74.364 Y137.940 E15.20837
G1 X75.005 Y137.940 E15.22209
G1 X59.990 Y116.497 E15.78255
G1 X60.631 Y116.497 E15.79628
G1 X75.646 Y137.940 E16.35674
G1 X76.287 Y137.940 E16.37046
G1 X61.272 Y116.497 E16.93093
G1 X61.913 Y116.497 E16.94465
G1 X76.928 Y137.940 E17.50511
G1 X77.569 Y137.940 E17.51883
G1 X62.554 Y116.497 E18.07930
G1 X63.195 Y116.497 E18.09302
G1 X78.209 Y137.940 E18.65348
G1 X78.850 Y137.940 E18.66720
G1 X63.836 Y116.497 E19.22766
G1 X64.477 Y116.497 E19.24139
G1 X79.491 Y137.940 E19.80185
G1 X80.132 Y137.940 E19.81557
G1 X65.118 Y116.497 E20.37603
G1 X65.759 Y116.497 E20.38976
G1 X80.773 Y137.940 E20.95022
G1 X81.414 Y137.940 E20.96394
G1 X66.400 Y116.497 E21.52440
G1 X67.041 Y116.497 E21.53813
G1 X82.055 Y137.940 E22.09859
G1 X82.696 Y137.940 E22.11231
G1 X67.682 Y116.497 E22.67277
G1 X68.323 Y116.497 E22.68649
G1 X83.337 Y137.940 E23.24696
G1 X83.978 Y137.940 E23.26068
G1 X68.964 Y116.497 E23.82114
G1 X69.605 Y116.497 E23.83486
G1 X84.619 Y137.940 E24.39532
G1 X85.260 Y137.940 E24.40905
G1 X70.246 Y116.497 E24.96951
G1 X70.887 Y116.497 E24.98323
G1 X85.901 Y137.940 E25.54369
G1 X86.542 Y137.940 E25.55741
G1 X71.528 Y116.497 E26.11787
G1 X72.169 Y116.497 E26.13160
G1 X87.183 Y137.940 E26.69206
G1 X87.824 Y137.940 E26.70578
G1 X72.810 Y116.497 E27.26624
G1 X73.451 Y116.497 E27.27997
G1 X88.465 Y137.940 E27.84043
G1 X89.106 Y137.940 E27.85415
G1 X74.092 Y116.497 E28.41461
G1 X74.733 Y116.497 E28.42833
G1 X89.509 Y137.600 E28.97991
G1 X89.509 Y136.685 E28.99951
G1 X75.374 Y116.497 E29.52717
G1 X76.015 Y116.497 E29.54089
G1 X89.509 Y135.769 E30.04462
G1 X89.509 Y134.854 E30.06422
G1 X76.656 Y116.497 E30.54402
G1 X77.297 Y116.497 E30.55774
G1 X89.509 Y133.938 E31.01362
G1 X89.509 Y133.023 E31.03322
G1 X77.938 Y116.497 E31.46517
G1 X78.579 Y116.497 E31.47889
G1 X89.509 Y132.108 E31.88691
G1 X89.509 Y131.192 E31.90651
G1 X79.220 Y116.497 E32.29060
G1 X79.860 Y116.497 E32.30433
G1 X89.509 Y130.277 E32.66450
G1 X89.509 Y129.362 E32.68410
G1 X80.501 Y116.497 E33.02034
G1 X81.142 Y116.497 E33.03406
G1 X89.509 Y128.446 E33.34638
G1 X89.509 Y127.531 E33.36598
G1 X81.783 Y116.497 E33.65436
G1 X82.424 Y116.497 E33.66809
G1 X89.509 Y126.615 E33.93255
G1 X89.509 Y125.700 E33.95215
G1 X83.065 Y116.497 E34.19268
G1 X83.706 Y116.497 E34.20641
G1 X89.509 Y124.785 E34.42302
G1 X89.509 Y123.869 E34.44262
G1 X84.347 Y116.497 E34.63530
G1 X84.988 Y116.497 E34.64902
G1 X89.509 Y122.954 E34.81778
G1 X89.509 Y122.038 E34.83738
G1 X85.629 Y116.497 E34.98221
G1 X86.270 Y116.497 E34.99593
G1 X89.509 Y121.123 E35.11683
G1 X89.509 Y120.208 E35.13643
G1 X86.911 Y116.497 E35.23341
G1 X87.552 Y116.497 E35.24713
G1 X89.509 Y119.292 E35.32018
G1 X89.509 Y118.377 E35.33978
G1 X88.193 Y116.497 E35.38890
G1 X88.834 Y116.497 E35.40263
G1 X89.509 Y117.461 E35.42782
G1 X89.509 Y116.546 E35.44742
G1 X89.475 Y116.497 E35.44869
G1 F600.000 E34.44869
G92 E0
G1 X100.169 Y116.150 F9000.000
G1 E1.00000 F600.000
G1 X131.425 Y116.151 E1.95298 F4410
G1 X131.425 Y138.287 E2.62788
G1 X100.169 Y138.287 E3.58086
G1 X100.169 Y116.225 E4.25349
G1 X99.669 Y115.886 F9000.000
G1 X99.860 Y115.650 E4.26274 F3570
G1 X131.733 Y115.651 E5.23450
G1 X131.925 Y115.886 E5.24376
G1 X131.925 Y138.787 E5.94199
G1 X99.669 Y138.787 E6.92545
G1 X99.669 Y115.961 E7.62140
G1 X99.971 Y115.865 F9000.000
G1 X100.549 Y137.940 F9000.000
G1 X100.515 Y137.891 E7.62267 F4620
G1 X101.190 Y137.940 E7.63715
G1 X100.515 Y136.976 E7.66235
G1 X100.515 Y136.060 E7.68195
G1 X101.831 Y137.940 E7.73107
G1 X102.472 Y137.940 E7.74480
G1 X100.515 Y135.145 E7.81784
G1 X100.515 Y134.230 E7.83744
G1 X103.113 Y137.940 E7.93442
G1 X103.754 Y137.940 E7.94814
G1 X100.515 Y133.314 E8.06905
G1 X100.515 Y132.399 E8.08864
G1 X104.395 Y137.940 E8.23347
G1 X105.036 Y137.940 E8.24720
G1 X100.515 Y131.483 E8.41595
G1 X100.515 Y130.568 E8.43555
G1 X105.677 Y137.940 E8.62823
G1 X106.318 Y137.940 E8.64196
G1 X100.515 Y129.653 E8.85856
G1 X100.515 Y128.737 E8.87816
G1 X106.959 Y137.940 E9.11870
G1 X107.600 Y137.940 E9.13242
G1 X100.515 Y127.822 E9.39688
G1 X100.515 Y126.906 E9.41648
G1 X108.241 Y137.940 E9.70487
G1 X108.882 Y137.940 E9.71859
G1 X100.515 Y125.991 E10.03091
G1 X100.515 Y125.076 E10.05051
G1 X109.523 Y137.940 E10.38675
G1 X110.164 Y137.940 E10.40047
G1 X100.515 Y124.160 E10.76064
G1 X100.515 Y123.245 E10.78024
G1 X110.805 Y137.940 E11.16433
G1 X111.446 Y137.940 E11.17805
G1 X100.515 Y122.330 E11.58607
G1 X100.515 Y121.414 E11.60567
G1 X112.087 Y137.940 E12.03762
G1 X112.728 Y137.940 E12.05134
G1 X100.515 Y120.499 E12.50722
G1 X100.515 Y119.583 E12.52682
G1 X113.369 Y137.940 E13.00662
G1 X114.010 Y137.940 E13.02034
G1 X100.515 Y118.668 E13.52407
G1 X100.515 Y117.753 E13.54367
G1 X114.651 Y137.940 E14.07132
G1 X115.292 Y137.940 E14.08504
G1 X100.515 Y116.837 E14.63662
G1 X100.918 Y116.497 E14.64791
G1 X115.933 Y137.940 E15.20837
G1 X116.574 Y137.940 E15.22209
G1 X101.559 Y116.497 E15.78255
G1 X102.200 Y116.497 E15.79628
G1 X117.215 Y137.940 E16.35674
G1 X117.856 Y137.940 E16.37046
G1 X102.841 Y116.497 E16.93093
G1 X103.482 Y116.497 E16.94465
G1 X118.496 Y137.940 E17.50511
G1 X119.137 Y137.940 E17.51883
G1 X104.123 Y116.497 E18.07930
G1 X104.764 Y116.497 E18.09302
G1 X119.778 Y137.940 E18.65348
G1 X120.419 Y137.940 E18.66720
G1 X105.405 Y116.497 E19.22766
G1 X106.046 Y116.497 E19.24139
G1 X121.060 Y137.940 E19.80185
G1 X121.701 Y137.940 E19.81557
G1 X106.687 Y116.497 E20.37603
G1 X107.328 Y116.497 E20.38976
G1 X122.342 Y137.940 E20.95022
G1 X122.983 Y137.940 E20.96394
G1 X107.969 Y116.497 E21.52440
G1 X108.610 Y116.497 E21.53813
G1 X123.624 Y137.940 E22.09859
G1 X124.265 Y137.940 E22.11231
G1 X109.251 Y116.497 E22.67277
G1 X109.892 Y116.497 E22.68649
G1 X124.906 Y137.940 E23.24696
G1 X125.547 Y137.940 E23.26068
G1 X110.533 Y116.497 E23.82114
G1 X111.174 Y116.497 E23.83486
G1 X126.188 Y137.940 E24.39532
G1 X126.829 Y137.940 E24.40905
G1 X111.815 Y116.497 E24.96951
G1 X112.456 Y116.497 E24.98323
G1 X127.470 Y137.940 E25.54369
G1 X128.111 Y137.940 E25.55741
G1 X113.097 Y116.497 E26.11787
G1 X113.738 Y116.497 E26.13160
G1 X128.752 Y137.940 E26.69206
G1 X129.393 Y137.940 E26.70578
G1 X114.379 Y116.497 E27.26624
G1 X115.020 Y116.497 E27.27997
G1 X130.034 Y137.940 E27.84043
G1 X130.675 Y137.940 E27.85415
G1 X115.661 Y116.497 E28.41461
G1 X116.302 Y116.497 E28.42833
G1 X131.078 Y137.600 E28.97991
G1 X131.078 Y136.685 E28.99951
G1 X116.943 Y116.497 E29.52717
G1 X117.584 Y116.497 E29.54089
G1 X131.078 Y135.769 E30.04462
G1 X131.078 Y134.854 E30.06422
G1 X118.225 Y116.497 E30.54402
G1 X118.866 Y116.497 E30.55774
G1 X131.078 Y133.938 E31.01362
G1 X131.078 Y133.023 E31.03322
G1 X119.507 Y116.497 E31.46517
G1 X120.148 Y116.497 E31.47889
G1 X131.078 Y132.108 E31.88691
G1 X131.078 Y131.192 E31.90651
G1 X120.788 Y116.497 E32.29060
G1 X121.429 Y116.497 E32.30433
G1 X131.078 Y130.277 E32.66450
G1 X131.078 Y129.362 E32.68410
G1 X122.070 Y116.497 E33.02034
G1 X122.711 Y116.497 E33.03406
G1 X131.078 Y128.446 E33.34638
G1 X131.078 Y127.531 E33.36598
G1 X123.352 Y116.497 E33.65436
G1 X123.993 Y116.497 E33.66809
G1 X131.078 Y126.615 E33.93255
G1 X131.078 Y125.700 E33.95215
G1 X124.634 Y116.497 E34.19268
G1 X125.275 Y116.497 E34.20641
G1 X131.078 Y124.785 E34.42302
G1 X131.078 Y123.869 E34.44262
G1 X125.916 Y116.497 E34.63530
G1 X126.557 Y116.497 E34.64902
G1 X131.078 Y122.954 E34.81778
G1 X131.078 Y122.038 E34.83738
G1 X127.198 Y116.497 E34.98221
G1 X127.839 Y116.497 E34.99593
G1 X131.078 Y121.123 E35.11683
G1 X131.078 Y120.208 E35.13643
G1 X128.480 Y116.497 E35.23341
G1 X129.121 Y116.497 E35.24713
G1 X131.078 Y119.292 E35.32018
G1 X131.078 Y118.377 E35.33978
G1 X129.762 Y116.497 E35.38890
G1 X130.403 Y116.497 E35.40263
G1 X131.078 Y117.461 E35.42782
G1 X131.078 Y116.546 E35.44742
G1 X131.044 Y116.497 E35.44869
G1 F600.000 E34.44869
G92 E0
G1 X131.425 Y95.970 F9000.000
G1 E1.00000 F600.000
G1 X100.169 Y95.970 E1.95298 F4410
G1 X100.169 Y73.834 E2.62789
G1 X131.425 Y73.834 E3.58087
G1 X131.425 Y95.895 E4.25349
G1 X131.925 Y96.470 F9000.000
G1 X99.669 Y96.470 E5.23695 F3570
G1 X99.669 Y73.569 E5.93518
G1 X99.860 Y73.334 E5.94444
G1 X131.733 Y73.334 E6.91619
G1 X131.925 Y73.569 E6.92546
G1 X131.925 Y96.395 E7.62140
G1 X131.492 Y96.220 F9000.000
G1 X131.044 Y74.181 F9000.000
G1 X131.078 Y74.229 E7.62267 F4620
G1 X131.078 Y75.145 E7.64226
G1 X130.403 Y74.181 E7.66746
G1 X129.762 Y74.181 E7.68118
G1 X131.078 Y76.060 E7.73031
G1 X131.078 Y76.975 E7.74991
G1 X129.121 Y74.181 E7.82296
G1 X128.480 Y74.181 E7.83668
G1 X131.078 Y77.891 E7.93366
G1 X131.078 Y78.806 E7.95325
G1 X127.839 Y74.181 E8.07416
G1 X127.198 Y74.181 E8.08788
G1 X131.078 Y79.722 E8.23271
G1 X131.078 Y80.637 E8.25231
G1 X126.557 Y74.181 E8.42106
G1 X125.916 Y74.181 E8.43479
G1 X131.078 Y81.552 E8.62747
G1 X131.078 Y82.468 E8.64707
G1 X125.275 Y74.181 E8.86368
G1 X124.634 Y74.181 E8.87740
G1 X131.078 Y83.383 E9.11794
G1 X131.078 Y84.299 E9.13754
G1 X123.993 Y74.181 E9.40200
G1 X123.352 Y74.181 E9.41572
G1 X131.078 Y85.214 E9.70411
G1 X131.078 Y86.129 E9.72371
G1 X122.711 Y74.181 E10.03603
G1 X122.070 Y74.181 E10.04975
G1 X131.078 Y87.045 E10.38599
G1 X131.078 Y87.960 E10.40559
G1 X121.429 Y74.181 E10.76576
G1 X120.788 Y74.181 E10.77948
G1 X131.078 Y88.876 E11.16358
G1 X131.078 Y89.791 E11.18318
G1 X120.148 Y74.181 E11.59120
G1 X119.507 Y74.181 E11.60492
G1 X131.078 Y90.706 E12.03687
G1 X131.078 Y91.622 E12.05647
G1 X118.866 Y74.181 E12.51234
G1 X118.225 Y74.181 E12.52607
G1 X131.078 Y92.537 E13.00587
G1 X131.078 Y93.453 E13.02547
G1 X117.584 Y74.181 E13.52920
G1 X116.943 Y74.181 E13.54292
G1 X131.078 Y94.368 E14.07057
G1 X131.078 Y95.283 E14.09017
G1 X116.302 Y74.181 E14.64175
G1 X115.661 Y74.181 E14.65548
G1 X130.675 Y95.623 E15.21594
G1 X130.034 Y95.623 E15.22966
G1 X115.020 Y74.181 E15.79012
G1 X114.379 Y74.181 E15.80384
G1 X129.393 Y95.623 E16.36430
G1 X128.752 Y95.623 E16.37803
G1 X113.738 Y74.181 E16.93849
G1 X113.097 Y74.181 E16.95221
G1 X128.111 Y95.623 E17.51267
G1 X127.470 Y95.623 E17.52640
G1 X112.456 Y74.181 E18.08686
G1 X111.815 Y74.181 E18.10058
G1 X126.829 Y95.623 E18.66104
G1 X126.188 Y95.623 E18.67476
G1 X111.174 Y74.181 E19.23522
G1 X110.533 Y74.181 E19.24895
G1 X125.547 Y95.623 E19.80941
G1 X124.906 Y95.623 E19.82313
G1 X109.892 Y74.181 E20.38359
G1 X109.251 Y74.181 E20.39731
G1 X124.265 Y95.623 E20.95778
G1 X123.624 Y95.623 E20.97150
G1 X108.610 Y74.181 E21.53196
G1 X107.969 Y74.181 E21.54568
G1 X122.983 Y95.623 E22.10614
G1 X122.342 Y95.623 E22.11987
G1 X107.328 Y74.181 E22.68033
G1 X106.687 Y74.181 E22.69405
G1 X121.701 Y95.623 E23.25451
G1 X121.060 Y95.623 E23.26824
G1 X106.046 Y74.181 E23.82870
G1 X105.405 Y74.181 E23.84242
G1 X120.419 Y95.623 E24.40288
G1 X119.778 Y95.623 E24.41661
G1 X104.764 Y74.181 E24.97707
G1 X104.123 Y74.181 E24.99079
G1 X119.137 Y95.623 E25.55125
G1 X118.496 Y95.623 E25.56498
G1 X103.482 Y74.181 E26.12544
G1 X102.841 Y74.181 E26.13916
G1 X117.856 Y95.623 E26.69962
G1 X117.215 Y95.623 E26.71335
G1 X102.200 Y74.181 E27.27381
G1 X101.559 Y74.181 E27.28753
G1 X116.574 Y95.623 E27.84799
G1 X115.933 Y95.623 E27.86172
G1 X100.918 Y74.181 E28.42218
G1 X100.515 Y74.520 E28.43347
G1 X115.292 Y95.623 E28.98504
G1 X114.651 Y95.623 E28.99877
G1 X100.515 Y75.436 E29.52642
G1 X100.515 Y76.351 E29.54602
G1 X114.010 Y95.623 E30.04975
G1 X113.369 Y95.623 E30.06347
G1 X100.515 Y77.267 E30.54327
G1 X100.515 Y78.182 E30.56287
G1 X112.728 Y95.623 E31.01874
G1 X112.087 Y95.623 E31.03247
G1 X100.515 Y79.097 E31.46441
G1 X100.515 Y80.013 E31.48401
G1 X111.446 Y95.623 E31.89203
G1 X110.805 Y95.623 E31.90576
G1 X100.515 Y80.928 E32.28985
G1 X100.515 Y81.844 E32.30945
G1 X110.164 Y95.623 E32.66962
G1 X109.523 Y95.623 E32.68334
G1 X100.515 Y82.759 E33.01958
G1 X100.515 Y83.674 E33.03918
G1 X108.882 Y95.623 E33.35149
G1 X108.241 Y95.623 E33.36522
G1 X100.515 Y84.590 E33.65360
G1 X100.515 Y85.505 E33.67320
G1 X107.600 Y95.623 E33.93766
G1 X106.959 Y95.623 E33.95139
G1 X100.515 Y86.421 E34.19192
G1 X100.515 Y87.336 E34.21152
G1 X106.318 Y95.623 E34.42813
