; generated by Slic3r 1.1.4 on 2014-06-20 at 17:23:06

; perimeters extrusion width = 0.50mm
; infill extrusion width = 0.52mm
; solid infill extrusion width = 0.52mm
; top infill extrusion width = 0.32mm

G21 ; set units to millimeters
M107
G28 ; home all axes
G90 ; use absolute coordinates
G92 E0
M82 ; use absolute distances for extrusion
M204 S2000
G1 F1800.000 E-2.00000
G92 E0
G1 Z0.400 F9600.000
G1 X97.675 Y83.647 F9600.000
G1 E2.00000 F1800.000
G1 X99.441 Y82.084 E2.07189 F3600.000
G1 X101.625 Y81.196 E2.14378
G1 X103.132 Y81.032 E2.18999
G1 X184.033 Y81.032 E4.65661
G1 X186.357 Y81.429 E4.72850
G1 X188.418 Y82.575 E4.80039
G1 X190.020 Y84.404 E4.87450
G1 X190.151 Y84.621 E4.88224
G1 X191.016 Y86.814 E4.95413
G1 X191.165 Y88.249 E4.99810
G1 X191.165 Y211.751 E8.76358
G1 X190.768 Y214.076 E8.83548
G1 X190.151 Y215.379 E8.87944
G1 X190.020 Y215.596 E8.88718
G1 X188.475 Y217.378 E8.95907
G1 X186.427 Y218.546 E9.03096
G1 X184.033 Y218.968 E9.10507
G1 X103.132 Y218.968 E11.57169
G1 X100.807 Y218.571 E11.64358
G1 X98.747 Y217.425 E11.71547
G1 X97.184 Y215.659 E11.78737
G1 X96.296 Y213.475 E11.85926
G1 X96.132 Y211.968 E11.90547
G1 X96.132 Y88.032 E15.68418
G1 X96.529 Y85.707 E15.75607
G1 X97.639 Y83.712 E15.82568
G1 X98.171 Y83.832 F9600.000
G1 X99.919 Y82.381 E15.89494 F3600.000
G1 X103.132 Y81.532 E15.99625
G1 X184.033 Y81.532 E18.46287
G1 X186.270 Y81.929 E18.53212
G1 X188.233 Y83.071 E18.60138
G1 X189.592 Y84.663 E18.66520
G1 X189.724 Y84.880 E18.67293
G1 X190.543 Y86.998 E18.74219
G1 X190.665 Y88.249 E18.78049
G1 X190.665 Y211.751 E22.54597
G1 X190.268 Y213.988 E22.61523
G1 X189.724 Y215.120 E22.65353
G1 X189.592 Y215.337 E22.66127
G1 X188.093 Y217.044 E22.73053
G1 X186.099 Y218.131 E22.79978
G1 X184.033 Y218.468 E22.86360
G1 X103.132 Y218.468 E25.33021
G1 X100.895 Y218.071 E25.39947
G1 X98.932 Y216.929 E25.46873
G1 X97.481 Y215.181 E25.53799
G1 X96.632 Y211.968 E25.63930
G1 X96.632 Y88.032 E29.41802
G1 X97.029 Y85.795 E29.48728
G1 X98.133 Y83.896 E29.55425
G1 F1800.000 E27.55425
G92 E0
G1 X132.617 Y211.218 F9600.000
G1 E2.00000 F1800.000
G1 X103.882 Y211.218 E2.87611 F5400.000
G1 X103.882 Y154.680 E4.59992
G1 X132.617 Y154.680 E5.47603
G1 X132.617 Y211.143 E7.19756
G1 X133.117 Y211.718 F9600.000
G1 X103.382 Y211.718 E8.10416 F5400.000
G1 X103.382 Y154.180 E9.85846
G1 X133.117 Y154.180 E10.76506
G1 X133.117 Y211.643 E12.51708
G1 X132.684 Y211.468 F9600.000
G1 F1800.000 E10.51708
G92 E0
G1 X104.269 Y210.871 F9600.000
G1 E2.00000 F1800.000
G1 X104.229 Y210.831 E2.00179 F5400.000
G1 X104.229 Y210.096 E2.02509
G1 X105.004 Y210.871 E2.05982
G1 X105.739 Y210.871 E2.08312
G1 X104.229 Y209.361 E2.15079
G1 X104.229 Y208.626 E2.17409
G1 X106.474 Y210.871 E2.27471
G1 X107.209 Y210.871 E2.29800
G1 X104.229 Y207.891 E2.43157
G1 X104.229 Y207.156 E2.45486
G1 X107.944 Y210.871 E2.62137
G1 X108.679 Y210.871 E2.64466
G1 X104.229 Y206.421 E2.84411
G1 X104.229 Y205.685 E2.86740
G1 X109.415 Y210.871 E3.09979
G1 X110.150 Y210.871 E3.12309
G1 X104.229 Y204.950 E3.38842
G1 X104.229 Y204.215 E3.41172
G1 X110.885 Y210.871 E3.70999
G1 X111.620 Y210.871 E3.73329
G1 X104.229 Y203.480 E4.06451
G1 X104.229 Y202.745 E4.08780
G1 X112.355 Y210.871 E4.45196
G1 X113.090 Y210.871 E4.47526
G1 X104.229 Y202.010 E4.87236
G1 X104.229 Y201.275 E4.89566
G1 X113.825 Y210.871 E5.32571
G1 X114.561 Y210.871 E5.34900
G1 X104.229 Y200.539 E5.81199
G1 X104.229 Y199.804 E5.83528
G1 X115.296 Y210.871 E6.33122
G1 X116.031 Y210.871 E6.35451
G1 X104.229 Y199.069 E6.88339
G1 X104.229 Y198.334 E6.90668
G1 X116.766 Y210.871 E7.46850
G1 X117.501 Y210.871 E7.49180
G1 X104.229 Y197.599 E8.08656
G1 X104.229 Y196.864 E8.10985
G1 X118.236 Y210.871 E8.73756
G1 X118.971 Y210.871 E8.76085
G1 X104.229 Y196.129 E9.42150
G1 X104.229 Y195.393 E9.44479
G1 X119.707 Y210.871 E10.13838
G1 X120.442 Y210.871 E10.16167
G1 X104.229 Y194.658 E10.88821
G1 X104.229 Y193.923 E10.91150
G1 X121.177 Y210.871 E11.67098
G1 X121.912 Y210.871 E11.69427
G1 X104.229 Y193.188 E12.48669
G1 X104.229 Y192.453 E12.50998
G1 X122.647 Y210.871 E13.33534
G1 X123.382 Y210.871 E13.35864
G1 X104.229 Y191.718 E14.21694
G1 X104.229 Y190.983 E14.24024
G1 X124.117 Y210.871 E15.13148
G1 X124.853 Y210.871 E15.15478
G1 X104.229 Y190.247 E16.07896
G1 X104.229 Y189.512 E16.10226
G1 X125.588 Y210.871 E17.05939
G1 X126.323 Y210.871 E17.08268
G1 X104.229 Y188.777 E18.07276
G1 X104.229 Y188.042 E18.09605
G1 X127.058 Y210.871 E19.11907
G1 X127.793 Y210.871 E19.14236
G1 X104.229 Y187.307 E20.19832
G1 X104.229 Y186.572 E20.22162
G1 X128.528 Y210.871 E21.31052
G1 X129.263 Y210.871 E21.33382
G1 X104.229 Y185.837 E22.45566
G1 X104.229 Y185.101 E22.47895
G1 X129.999 Y210.871 E23.63374
G1 X130.734 Y210.871 E23.65704
G1 X104.229 Y184.366 E24.84477
G1 X104.229 Y183.631 E24.86806
G1 X131.469 Y210.871 E26.08874
G1 X132.204 Y210.871 E26.11203
G1 X104.229 Y182.896 E27.36565
G1 X104.229 Y182.161 E27.38894
G1 X132.270 Y210.202 E28.64551
G1 X132.270 Y209.467 E28.66880
G1 X104.229 Y181.426 E29.92538
G1 X104.229 Y180.691 E29.94867
G1 X132.270 Y208.732 E31.20524
G1 X132.270 Y207.997 E31.22853
G1 X104.229 Y179.955 E32.48510
G1 X104.229 Y179.220 E32.50840
G1 X132.270 Y207.262 E33.76497
G1 X132.270 Y206.526 E33.78826
G1 X104.229 Y178.485 E35.04483
G1 X104.229 Y177.750 E35.06813
G1 X132.270 Y205.791 E36.32470
G1 X132.270 Y205.056 E36.34799
G1 X104.229 Y177.015 E37.60456
G1 X104.229 Y176.280 E37.62786
G1 X132.270 Y204.321 E38.88443
G1 X132.270 Y203.586 E38.90772
G1 X104.229 Y175.545 E40.16429
G1 X104.229 Y174.809 E40.18759
G1 X132.270 Y202.851 E41.44416
G1 X132.270 Y202.116 E41.46745
G1 X104.229 Y174.074 E42.72402
G1 X104.229 Y173.339 E42.74731
G1 X132.270 Y201.380 E44.00388
G1 X132.270 Y200.645 E44.02718
G1 X104.229 Y172.604 E45.28375
G1 X104.229 Y171.869 E45.30704
G1 X132.270 Y199.910 E46.56361
G1 X132.270 Y199.175 E46.58691
G1 X104.229 Y171.134 E47.84348
G1 X104.229 Y170.399 E47.86677
G1 X132.270 Y198.440 E49.12334
G1 X132.270 Y197.705 E49.14664
G1 X104.229 Y169.663 E50.40321
G1 X104.229 Y168.928 E50.42650
G1 X132.270 Y196.970 E51.68307
G1 X132.270 Y196.234 E51.70636
G1 X104.229 Y168.193 E52.96293
G1 X104.229 Y167.458 E52.98623
G1 X132.270 Y195.499 E54.24280
G1 X132.270 Y194.764 E54.26609
G1 X104.229 Y166.723 E55.52266
G1 X104.229 Y165.988 E55.54596
G1 X132.270 Y194.029 E56.80253
G1 X132.270 Y193.294 E56.82582
G1 X104.229 Y165.253 E58.08239
G1 X104.229 Y164.517 E58.10568
G1 X132.270 Y192.559 E59.36225
G1 X132.270 Y191.824 E59.38555
G1 X104.229 Y163.782 E60.64212
G1 X104.229 Y163.047 E60.66541
G1 X132.270 Y191.088 E61.92198
G1 X132.270 Y190.353 E61.94528
G1 X104.229 Y162.312 E63.20185
G1 X104.229 Y161.577 E63.22514
G1 X132.270 Y189.618 E64.48171
G1 X132.270 Y188.883 E64.50501
G1 X104.229 Y160.842 E65.76158
G1 X104.229 Y160.107 E65.78487
G1 X132.270 Y188.148 E67.04144
G1 X132.270 Y187.413 E67.06473
G1 X104.229 Y159.371 E68.32130
G1 X104.229 Y158.636 E68.34460
G1 X132.270 Y186.678 E69.60117
G1 X132.270 Y185.942 E69.62446
G1 X104.229 Y157.901 E70.88103
G1 X104.229 Y157.166 E70.90433
G1 X132.270 Y185.207 E72.16090
G1 X132.270 Y184.472 E72.18419
G1 X104.229 Y156.431 E73.44076
G1 X104.229 Y155.696 E73.46405
G1 X132.270 Y183.737 E74.72062
G1 X132.270 Y183.002 E74.74392
G1 X104.294 Y155.026 E75.99753
G1 X105.030 Y155.026 E76.02083
G1 X132.270 Y182.267 E77.24150
G1 X132.270 Y181.532 E77.26480
G1 X105.765 Y155.026 E78.45253
G1 X106.500 Y155.026 E78.47582
G1 X132.270 Y180.796 E79.63061
G1 X132.270 Y180.061 E79.65391
G1 X107.235 Y155.026 E80.77575
G1 X107.970 Y155.026 E80.79905
G1 X132.270 Y179.326 E81.88795
G1 X132.270 Y178.591 E81.91124
G1 X108.705 Y155.026 E82.96720
G1 X109.440 Y155.026 E82.99050
G1 X132.270 Y177.856 E84.01351
G1 X132.270 Y177.121 E84.03681
G1 X110.176 Y155.026 E85.02688
G1 X110.911 Y155.026 E85.05018
G1 X132.270 Y176.386 E86.00731
G1 X132.270 Y175.650 E86.03060
G1 X111.646 Y155.026 E86.95479
G1 X112.381 Y155.026 E86.97809
G1 X132.270 Y174.915 E87.86933
G1 X132.270 Y174.180 E87.89263
G1 X113.116 Y155.026 E88.75093
G1 X113.851 Y155.026 E88.77423
G1 X132.270 Y173.445 E89.59959
G1 X132.270 Y172.710 E89.62288
G1 X114.586 Y155.026 E90.41530
G1 X115.322 Y155.026 E90.43859
G1 X132.270 Y171.975 E91.19807
G1 X132.270 Y171.240 E91.22136
G1 X116.057 Y155.026 E91.94790
G1 X116.792 Y155.026 E91.97119
G1 X132.270 Y170.504 E92.66478
G1 X132.270 Y169.769 E92.68808
G1 X117.527 Y155.026 E93.34872
G1 X118.262 Y155.026 E93.37202
G1 X132.270 Y169.034 E93.99972
G1 X132.270 Y168.299 E94.02302
G1 X118.997 Y155.026 E94.61778
G1 X119.732 Y155.026 E94.64107
G1 X132.270 Y167.564 E95.20289
G1 X132.270 Y166.829 E95.22618
G1 X120.468 Y155.026 E95.75506
G1 X121.203 Y155.026 E95.77836
G1 X132.270 Y166.094 E96.27429
G1 X132.270 Y165.358 E96.29758
G1 X121.938 Y155.026 E96.76057
G1 X122.673 Y155.026 E96.78387
G1 X132.270 Y164.623 E97.21392
G1 X132.270 Y163.888 E97.23721
G1 X123.408 Y155.026 E97.63432
G1 X124.143 Y155.026 E97.65761
G1 X132.270 Y163.153 E98.02177
G1 X132.270 Y162.418 E98.04507
G1 X124.879 Y155.026 E98.37629
G1 X125.614 Y155.026 E98.39958
G1 X132.270 Y161.683 E98.69786
G1 X132.270 Y160.948 E98.72115
G1 X126.349 Y155.026 E98.98649
G1 X127.084 Y155.026 E99.00978
G1 X132.270 Y160.212 E99.24217
G1 X132.270 Y159.477 E99.26547
G1 X127.819 Y155.026 E99.46492
G1 X128.554 Y155.026 E99.48821
G1 X132.270 Y158.742 E99.65472
G1 X132.270 Y158.007 E99.67801
G1 X129.289 Y155.026 E99.81157
G1 X130.025 Y155.026 E99.83487
G1 X132.270 Y157.272 E99.93549
G1 X132.270 Y156.537 E99.95878
G1 X130.760 Y155.026 E100.02646
G1 X131.495 Y155.026 E100.04975
G1 X132.270 Y155.802 E100.08449
G1 X132.270 Y155.066 E100.10778
G1 X132.230 Y155.026 E100.10958
G1 F1800.000 E98.10958
G92 E0
G1 X183.415 Y211.218 F9600.000
G1 E2.00000 F1800.000
G1 X154.680 Y211.218 E2.87611 F5400.000
G1 X154.680 Y154.680 E4.59992
G1 X183.415 Y154.680 E5.47603
G1 X183.415 Y211.143 E7.19756
G1 X183.915 Y211.718 F9600.000
G1 X154.180 Y211.718 E8.10416 F5400.000
G1 X154.180 Y154.180 E9.85846
G1 X183.915 Y154.180 E10.76506
G1 X183.915 Y211.643 E12.51708
G1 X183.482 Y211.468 F9600.000
G1 F1800.000 E10.51708
G92 E0
G1 X155.066 Y210.871 F9600.000
G1 E2.00000 F1800.000
G1 X155.026 Y210.831 E2.00179 F5400.000
G1 X155.026 Y210.096 E2.02509
G1 X155.802 Y210.871 E2.05982
G1 X156.537 Y210.871 E2.08312
G1 X155.026 Y209.361 E2.15079
G1 X155.026 Y208.626 E2.17409
G1 X157.272 Y210.871 E2.27471
G1 X158.007 Y210.871 E2.29800
G1 X155.026 Y207.891 E2.43157
G1 X155.026 Y207.156 E2.45486
G1 X158.742 Y210.871 E2.62137
G1 X159.477 Y210.871 E2.64466
G1 X155.026 Y206.421 E2.84411
G1 X155.026 Y205.685 E2.86740
G1 X160.212 Y210.871 E3.09979
G1 X160.948 Y210.871 E3.12309
G1 X155.026 Y204.950 E3.38842
G1 X155.026 Y204.215 E3.41172
G1 X161.683 Y210.871 E3.70999
G1 X162.418 Y210.871 E3.73329
G1 X155.026 Y203.480 E4.06451
G1 X155.026 Y202.745 E4.08780
G1 X163.153 Y210.871 E4.45196
G1 X163.888 Y210.871 E4.47526
G1 X155.026 Y202.010 E4.87236
G1 X155.026 Y201.275 E4.89566
G1 X164.623 Y210.871 E5.32571
G1 X165.358 Y210.871 E5.34900
G1 X155.026 Y200.539 E5.81199
G1 X155.026 Y199.804 E5.83528
G1 X166.094 Y210.871 E6.33122
G1 X166.829 Y210.871 E6.35451
G1 X155.026 Y199.069 E6.88339
G1 X155.026 Y198.334 E6.90668
G1 X167.564 Y210.871 E7.46850
G1 X168.299 Y210.871 E7.49180
G1 X155.026 Y197.599 E8.08656
G1 X155.026 Y196.864 E8.10985
G1 X169.034 Y210.871 E8.73756
G1 X169.769 Y210.871 E8.76085
G1 X155.026 Y196.129 E9.42150
G1 X155.026 Y195.393 E9.44479
G1 X170.504 Y210.871 E10.13838
G1 X171.240 Y210.871 E10.16167
G1 X155.026 Y194.658 E10.88821
G1 X155.026 Y193.923 E10.91150
G1 X171.975 Y210.871 E11.67098
G1 X172.710 Y210.871 E11.69427
G1 X155.026 Y193.188 E12.48669
G1 X155.026 Y192.453 E12.50998
G1 X173.445 Y210.871 E13.33534
G1 X174.180 Y210.871 E13.35864
G1 X155.026 Y191.718 E14.21694
G1 X155.026 Y190.983 E14.24024
G1 X174.915 Y210.871 E15.13148
G1 X175.650 Y210.871 E15.15478
G1 X155.026 Y190.247 E16.07896
G1 X155.026 Y189.512 E16.10226
G1 X176.386 Y210.871 E17.05939
G1 X177.121 Y210.871 E17.08268
G1 X155.026 Y188.777 E18.07276
G1 X155.026 Y188.042 E18.09605
G1 X177.856 Y210.871 E19.11907
G1 X178.591 Y210.871 E19.14236
G1 X155.026 Y187.307 E20.19832
G1 X155.026 Y186.572 E20.22162
G1 X179.326 Y210.871 E21.31052
G1 X180.061 Y210.871 E21.33382
G1 X155.026 Y185.837 E22.45566
G1 X155.026 Y185.101 E22.47895
G1 X180.796 Y210.871 E23.63374
G1 X181.532 Y210.871 E23.65704
G1 X155.026 Y184.366 E24.84477
G1 X155.026 Y183.631 E24.86806
G1 X182.267 Y210.871 E26.08874
G1 X183.002 Y210.871 E26.11203
G1 X155.026 Y182.896 E27.36565
G1 X155.026 Y182.161 E27.38894
G1 X183.068 Y210.202 E28.64551
G1 X183.068 Y209.467 E28.66880
G1 X155.026 Y181.426 E29.92538
G1 X155.026 Y180.691 E29.94867
G1 X183.068 Y208.732 E31.20524
G1 X183.068 Y207.997 E31.22853
G1 X155.026 Y179.955 E32.48510
G1 X155.026 Y179.220 E32.50840
G1 X183.068 Y207.262 E33.76497
G1 X183.068 Y206.526 E33.78826
G1 X155.026 Y178.485 E35.04483
G1 X155.026 Y177.750 E35.06813
G1 X183.068 Y205.791 E36.32470
G1 X183.068 Y205.056 E36.34799
G1 X155.026 Y177.015 E37.60456
G1 X155.026 Y176.280 E37.62786
G1 X183.068 Y204.321 E38.88443
G1 X183.068 Y203.586 E38.90772
G1 X155.026 Y175.545 E40.16429
G1 X155.026 Y174.809 E40.18759
G1 X183.068 Y202.851 E41.44416
G1 X183.068 Y202.116 E41.46745
G1 X155.026 Y174.074 E42.72402
G1 X155.026 Y173.339 E42.74731
G1 X183.068 Y201.380 E44.00388
G1 X183.068 Y200.645 E44.02718
G1 X155.026 Y172.604 E45.28375
G1 X155.026 Y171.869 E45.30704
G1 X183.068 Y199.910 E46.56361
G1 X183.068 Y199.175 E46.58691
G1 X155.026 Y171.134 E47.84348
G1 X155.026 Y170.399 E47.86677
G1 X183.068 Y198.440 E49.12334
G1 X183.068 Y197.705 E49.14664
G1 X155.026 Y169.663 E50.40321
G1 X155.026 Y168.928 E50.42650
G1 X183.068 Y196.970 E51.68307
G1 X183.068 Y196.234 E51.70636
G1 X155.026 Y168.193 E52.96293
G1 X155.026 Y167.458 E52.98623
G1 X183.068 Y195.499 E54.24280
G1 X183.068 Y194.764 E54.26609
G1 X155.026 Y166.723 E55.52266
G1 X155.026 Y165.988 E55.54596
G1 X183.068 Y194.029 E56.80253
G1 X183.068 Y193.294 E56.82582
G1 X155.026 Y165.253 E58.08239
G1 X155.026 Y164.517 E58.10568
G1 X183.068 Y192.559 E59.36225
G1 X183.068 Y191.824 E59.38555
G1 X155.026 Y163.782 E60.64212
G1 X155.026 Y163.047 E60.66541
G1 X183.068 Y191.088 E61.92198
G1 X183.068 Y190.353 E61.94528
G1 X155.026 Y162.312 E63.20185
G1 X155.026 Y161.577 E63.22514
G1 X183.068 Y189.618 E64.48171
G1 X183.068 Y188.883 E64.50501
G1 X155.026 Y160.842 E65.76158
G1 X155.026 Y160.107 E65.78487
G1 X183.068 Y188.148 E67.04144
G1 X183.068 Y187.413 E67.06473
G1 X155.026 Y159.371 E68.32130
G1 X155.026 Y158.636 E68.34460
G1 X183.068 Y186.678 E69.60117
G1 X183.068 Y185.942 E69.62446
G1 X155.026 Y157.901 E70.88103
G1 X155.026 Y157.166 E70.90433
G1 X183.068 Y185.207 E72.16090
G1 X183.068 Y184.472 E72.18419
G1 X155.026 Y156.431 E73.44076
G1 X155.026 Y155.696 E73.46405
G1 X183.068 Y183.737 E74.72062
G1 X183.068 Y183.002 E74.74392
G1 X155.092 Y155.026 E75.99753
G1 X155.827 Y155.026 E76.02083
G1 X183.068 Y182.267 E77.24150
G1 X183.068 Y181.532 E77.26480
G1 X156.563 Y155.026 E78.45253
G1 X157.298 Y155.026 E78.47582
G1 X183.068 Y180.796 E79.63061
G1 X183.068 Y180.061 E79.65391
G1 X158.033 Y155.026 E80.77575
G1 X158.768 Y155.026 E80.79905
G1 X183.068 Y179.326 E81.88795
G1 X183.068 Y178.591 E81.91124
G1 X159.503 Y155.026 E82.96720
G1 X160.238 Y155.026 E82.99050
G1 X183.068 Y177.856 E84.01351
G1 X183.068 Y177.121 E84.03681
G1 X160.973 Y155.026 E85.02688
G1 X161.709 Y155.026 E85.05018
G1 X183.068 Y176.386 E86.00731
G1 X183.068 Y175.650 E86.03060
G1 X162.444 Y155.026 E86.95479
G1 X163.179 Y155.026 E86.97809
G1 X183.068 Y174.915 E87.86933
G1 X183.068 Y174.180 E87.89263
G1 X163.914 Y155.026 E88.75093
G1 X164.649 Y155.026 E88.77423
G1 X183.068 Y173.445 E89.59959
G1 X183.068 Y172.710 E89.62288
G1 X165.384 Y155.026 E90.41530
G1 X166.119 Y155.026 E90.43859
G1 X183.068 Y171.975 E91.19807
G1 X183.068 Y171.240 E91.22136
G1 X166.855 Y155.026 E91.94790
G1 X167.590 Y155.026 E91.97119
G1 X183.068 Y170.504 E92.66478
G1 X183.068 Y169.769 E92.68808
G1 X168.325 Y155.026 E93.34872
G1 X169.060 Y155.026 E93.37202
G1 X183.068 Y169.034 E93.99972
G1 X183.068 Y168.299 E94.02302
G1 X169.795 Y155.026 E94.61778
