; generated by Slic3r 1.1.4 on 2014-06-17 at 16:25:39

; perimeters extrusion width = 0.50mm
; infill extrusion width = 0.52mm
; solid infill extrusion width = 0.52mm
; top infill extrusion width = 0.52mm

G21 ; set units to millimeters
M107
G28 ; home all axes
G90 ; use absolute coordinates
G92 E0
M82 ; use absolute distances for extrusion
M204 S2000
G1 F1800.000 E-2.00000
G92 E0
G1 Z0.400 F9600.000
G1 X122.941 Y116.462 F9600.000
G1 E2.00000 F1800.000
G1 X124.706 Y114.899 E2.07189 F2700.000
G1 X126.890 Y114.011 E2.14378
G1 X128.397 Y113.847 E2.18999
G1 X158.634 Y113.847 E3.11190
G1 X161.999 Y114.709 E3.21781
G1 X162.131 Y114.781 E3.22238
G1 X163.978 Y116.247 E3.29427
G1 X165.234 Y118.242 E3.36616
G1 X165.766 Y120.919 E3.44937
G1 X165.766 Y179.081 E5.22266
G1 X165.369 Y181.405 E5.29456
G1 X164.222 Y183.466 E5.36645
G1 X162.131 Y185.219 E5.44965
G1 X162.000 Y185.291 E5.45422
G1 X158.634 Y186.153 E5.56014
G1 X128.397 Y186.153 E6.48204
G1 X126.073 Y185.756 E6.55393
G1 X124.012 Y184.609 E6.62583
G1 X122.449 Y182.844 E6.69772
G1 X121.561 Y180.660 E6.76961
G1 X121.397 Y179.153 E6.81582
G1 X121.397 Y120.847 E8.59351
G1 X121.794 Y118.523 E8.66540
G1 X122.904 Y116.528 E8.73501
G1 X123.436 Y116.647 F9600.000
G1 X125.185 Y115.197 E8.80426 F2700.000
G1 X128.397 Y114.347 E8.90558
G1 X158.634 Y114.347 E9.82748
G1 X161.759 Y115.147 E9.92583
G1 X161.890 Y115.220 E9.93040
G1 X163.661 Y116.643 E9.99966
G1 X164.833 Y118.588 E10.06891
G1 X165.266 Y120.919 E10.14119
G1 X165.266 Y179.081 E11.91449
G1 X164.869 Y181.317 E11.98374
G1 X163.727 Y183.281 E12.05300
G1 X161.891 Y184.780 E12.12528
G1 X161.759 Y184.852 E12.12985
G1 X158.634 Y185.653 E12.22820
G1 X128.397 Y185.653 E13.15010
G1 X126.161 Y185.256 E13.21936
G1 X124.197 Y184.114 E13.28862
G1 X122.747 Y182.366 E13.35788
G1 X121.897 Y179.153 E13.45919
G1 X121.897 Y120.847 E15.23688
G1 X122.294 Y118.611 E15.30614
G1 X123.399 Y116.712 E15.37311
G1 F1800.000 E13.37311
G92 E0
G1 X158.016 Y178.403 F9600.000
G1 E2.00000 F1800.000
G1 X129.147 Y178.403 E2.88018 F4500.000
G1 X129.147 Y121.597 E4.61213
G1 X158.016 Y121.597 E5.49231
G1 X158.016 Y178.328 E7.22198
G1 X158.516 Y178.903 F9600.000
G1 X128.647 Y178.903 E8.13265 F4050.000
G1 X128.647 Y121.097 E9.89509
G1 X158.516 Y121.097 E10.80576
G1 X158.516 Y178.828 E12.56592
G1 X158.083 Y178.653 F9600.000
G1 F1800.000 E10.56592
G92 E0
G1 X129.534 Y178.056 F9600.000
G1 E2.00000 F1800.000
G1 X129.494 Y178.016 E2.00179 F4500.000
G1 X129.494 Y177.277 E2.02520
G1 X130.273 Y178.056 E2.06009
G1 X131.011 Y178.056 E2.08350
G1 X129.494 Y176.539 E2.15149
G1 X129.494 Y175.800 E2.17489
G1 X131.750 Y178.056 E2.27599
G1 X132.489 Y178.056 E2.29939
G1 X129.494 Y175.061 E2.43359
G1 X129.494 Y174.323 E2.45699
G1 X133.227 Y178.056 E2.62428
G1 X133.966 Y178.056 E2.64769
G1 X129.494 Y173.584 E2.84808
G1 X129.494 Y172.845 E2.87149
G1 X134.705 Y178.056 E3.10498
G1 X135.443 Y178.056 E3.12839
G1 X129.494 Y172.107 E3.39498
G1 X129.494 Y171.368 E3.41839
G1 X136.182 Y178.056 E3.71808
G1 X136.921 Y178.056 E3.74149
G1 X129.494 Y170.629 E4.07428
G1 X129.494 Y169.891 E4.09768
G1 X137.659 Y178.056 E4.46358
G1 X138.398 Y178.056 E4.48698
G1 X129.494 Y169.152 E4.88598
G1 X129.494 Y168.413 E4.90938
G1 X139.137 Y178.056 E5.34148
G1 X139.875 Y178.056 E5.36488
G1 X129.494 Y167.675 E5.83008
G1 X129.494 Y166.936 E5.85348
G1 X140.614 Y178.056 E6.35178
G1 X141.353 Y178.056 E6.37518
G1 X129.494 Y166.197 E6.90658
G1 X129.494 Y165.459 E6.92998
G1 X142.091 Y178.056 E7.49448
G1 X142.830 Y178.056 E7.51789
G1 X129.494 Y164.720 E8.11548
G1 X129.494 Y163.982 E8.13889
G1 X143.568 Y178.056 E8.76958
G1 X144.307 Y178.056 E8.79299
G1 X129.494 Y163.243 E9.45678
G1 X129.494 Y162.504 E9.48019
G1 X145.046 Y178.056 E10.17708
G1 X145.784 Y178.056 E10.20049
G1 X129.494 Y161.766 E10.93049
G1 X129.494 Y161.027 E10.95389
G1 X146.523 Y178.056 E11.71699
G1 X147.262 Y178.056 E11.74039
G1 X129.494 Y160.288 E12.53659
G1 X129.494 Y159.550 E12.55999
G1 X148.000 Y178.056 E13.38929
G1 X148.739 Y178.056 E13.41270
G1 X129.494 Y158.811 E14.27509
G1 X129.494 Y158.072 E14.29850
G1 X149.478 Y178.056 E15.19399
G1 X150.216 Y178.056 E15.21740
G1 X129.494 Y157.334 E16.14600
G1 X129.494 Y156.595 E16.16940
G1 X150.955 Y178.056 E17.13110
G1 X151.694 Y178.056 E17.15450
G1 X129.494 Y155.856 E18.14930
G1 X129.494 Y155.118 E18.17271
G1 X152.432 Y178.056 E19.20061
G1 X153.171 Y178.056 E19.22401
G1 X129.494 Y154.379 E20.28501
G1 X129.494 Y153.640 E20.30841
G1 X153.910 Y178.056 E21.40251
G1 X154.648 Y178.056 E21.42592
G1 X129.494 Y152.902 E22.55311
G1 X129.494 Y152.163 E22.57652
G1 X155.387 Y178.056 E23.73682
G1 X156.126 Y178.056 E23.76022
G1 X129.494 Y151.424 E24.95362
G1 X129.494 Y150.686 E24.97703
G1 X156.864 Y178.056 E26.20353
G1 X157.603 Y178.056 E26.22693
G1 X129.494 Y149.947 E27.48653
G1 X129.494 Y149.208 E27.50994
G1 X157.669 Y177.383 E28.77249
G1 X157.669 Y176.645 E28.79589
G1 X129.494 Y148.470 E30.05845
G1 X129.494 Y147.731 E30.08185
G1 X157.669 Y175.906 E31.34440
G1 X157.669 Y175.167 E31.36781
G1 X129.494 Y146.992 E32.63036
G1 X129.494 Y146.254 E32.65377
G1 X157.669 Y174.429 E33.91632
G1 X157.669 Y173.690 E33.93972
G1 X129.494 Y145.515 E35.20228
G1 X129.494 Y144.776 E35.22568
G1 X157.669 Y172.951 E36.48823
G1 X157.669 Y172.213 E36.51164
G1 X129.494 Y144.038 E37.77419
G1 X129.494 Y143.299 E37.79760
G1 X157.669 Y171.474 E39.06015
G1 X157.669 Y170.735 E39.08355
G1 X129.494 Y142.561 E40.34611
G1 X129.494 Y141.822 E40.36951
G1 X157.669 Y169.997 E41.63206
G1 X157.669 Y169.258 E41.65547
G1 X129.494 Y141.083 E42.91802
G1 X129.494 Y140.345 E42.94143
G1 X157.669 Y168.519 E44.20398
G1 X157.669 Y167.781 E44.22738
G1 X129.494 Y139.606 E45.48994
G1 X129.494 Y138.867 E45.51334
G1 X157.669 Y167.042 E46.77589
G1 X157.669 Y166.303 E46.79930
G1 X129.494 Y138.129 E48.06185
G1 X129.494 Y137.390 E48.08526
G1 X157.669 Y165.565 E49.34781
G1 X157.669 Y164.826 E49.37121
G1 X129.494 Y136.651 E50.63377
G1 X129.494 Y135.913 E50.65717
G1 X157.669 Y164.087 E51.91972
G1 X157.669 Y163.349 E51.94313
G1 X129.494 Y135.174 E53.20568
G1 X129.494 Y134.435 E53.22909
G1 X157.669 Y162.610 E54.49164
G1 X157.669 Y161.871 E54.51504
G1 X129.494 Y133.697 E55.77759
G1 X129.494 Y132.958 E55.80100
G1 X157.669 Y161.133 E57.06355
G1 X157.669 Y160.394 E57.08696
G1 X129.494 Y132.219 E58.34951
G1 X129.494 Y131.481 E58.37291
G1 X157.669 Y159.656 E59.63547
G1 X157.669 Y158.917 E59.65887
G1 X129.494 Y130.742 E60.92142
G1 X129.494 Y130.003 E60.94483
G1 X157.669 Y158.178 E62.20738
G1 X157.669 Y157.440 E62.23079
G1 X129.494 Y129.265 E63.49334
G1 X129.494 Y128.526 E63.51674
G1 X157.669 Y156.701 E64.77929
G1 X157.669 Y155.962 E64.80270
G1 X129.494 Y127.787 E66.06525
G1 X129.494 Y127.049 E66.08866
G1 X157.669 Y155.224 E67.35121
G1 X157.669 Y154.485 E67.37461
G1 X129.494 Y126.310 E68.63716
G1 X129.494 Y125.571 E68.66057
G1 X157.669 Y153.746 E69.92312
G1 X157.669 Y153.008 E69.94653
G1 X129.494 Y124.833 E71.20908
G1 X129.494 Y124.094 E71.23248
G1 X157.669 Y152.269 E72.49504
G1 X157.669 Y151.530 E72.51844
G1 X129.494 Y123.355 E73.78099
G1 X129.494 Y122.617 E73.80440
G1 X157.669 Y150.792 E75.06695
G1 X157.669 Y150.053 E75.09035
G1 X129.560 Y121.944 E76.34995
G1 X130.299 Y121.944 E76.37336
G1 X157.669 Y149.314 E77.59986
G1 X157.669 Y148.576 E77.62326
G1 X131.037 Y121.944 E78.81666
G1 X131.776 Y121.944 E78.84007
G1 X157.669 Y147.837 E80.00036
G1 X157.669 Y147.098 E80.02377
G1 X132.515 Y121.944 E81.15097
G1 X133.253 Y121.944 E81.17437
G1 X157.669 Y146.360 E82.26847
G1 X157.669 Y145.621 E82.29188
G1 X133.992 Y121.944 E83.35287
G1 X134.731 Y121.944 E83.37628
G1 X157.669 Y144.882 E84.40418
G1 X157.669 Y144.144 E84.42758
G1 X135.469 Y121.944 E85.42238
G1 X136.208 Y121.944 E85.44578
G1 X157.669 Y143.405 E86.40748
G1 X157.669 Y142.666 E86.43089
G1 X136.947 Y121.944 E87.35948
G1 X137.685 Y121.944 E87.38289
G1 X157.669 Y141.928 E88.27839
G1 X157.669 Y141.189 E88.30179
G1 X138.424 Y121.944 E89.16419
G1 X139.162 Y121.944 E89.18759
G1 X157.669 Y140.450 E90.01689
G1 X157.669 Y139.712 E90.04030
G1 X139.901 Y121.944 E90.83649
G1 X140.640 Y121.944 E90.85990
G1 X157.669 Y138.973 E91.62299
G1 X157.669 Y138.234 E91.64640
G1 X141.378 Y121.944 E92.37640
G1 X142.117 Y121.944 E92.39980
G1 X157.669 Y137.496 E93.09670
G1 X157.669 Y136.757 E93.12010
G1 X142.856 Y121.944 E93.78390
G1 X143.594 Y121.944 E93.80730
G1 X157.669 Y136.018 E94.43800
G1 X157.669 Y135.280 E94.46140
G1 X144.333 Y121.944 E95.05900
G1 X145.072 Y121.944 E95.08240
G1 X157.669 Y134.541 E95.64690
G1 X157.669 Y133.803 E95.67031
G1 X145.810 Y121.944 E96.20170
G1 X146.549 Y121.944 E96.22511
G1 X157.669 Y133.064 E96.72340
G1 X157.669 Y132.325 E96.74681
G1 X147.288 Y121.944 E97.21200
G1 X148.026 Y121.944 E97.23541
G1 X157.669 Y131.587 E97.66750
G1 X157.669 Y130.848 E97.69091
G1 X148.765 Y121.944 E98.08990
G1 X149.504 Y121.944 E98.11331
G1 X157.669 Y130.109 E98.47920
G1 X157.669 Y129.371 E98.50261
G1 X150.242 Y121.944 E98.83540
G1 X150.981 Y121.944 E98.85881
G1 X157.669 Y128.632 E99.15850
G1 X157.669 Y127.893 E99.18190
G1 X151.720 Y121.944 E99.44850
G1 X152.458 Y121.944 E99.47190
G1 X157.669 Y127.155 E99.70540
G1 X157.669 Y126.416 E99.72880
G1 X153.197 Y121.944 E99.92920
G1 X153.936 Y121.944 E99.95260
G1 X157.669 Y125.677 E100.11989
G1 X157.669 Y124.939 E100.14330
G1 X154.674 Y121.944 E100.27749
G1 X155.413 Y121.944 E100.30090
G1 X157.669 Y124.200 E100.40199
G1 X157.669 Y123.461 E100.42540
G1 X156.152 Y121.944 E100.49339
G1 X156.890 Y121.944 E100.51679
G1 X157.669 Y122.723 E100.55169
G1 X157.669 Y121.984 E100.57509
G1 X157.629 Y121.944 E100.57689
M204 S2000
G1 F1800.000 E98.57689
G92 E0
G1 Z0.800 F9600.000
G1 X158.279 Y178.803 F9600.000
G1 E2.00000 F1800.000
M204 S1200
G1 X128.747 Y178.803 E2.90039 F6000.000
G1 X128.747 Y121.197 E4.65674
G1 X158.279 Y121.197 E5.55713
G1 X158.279 Y178.728 E7.31119
M204 S2000
G1 X158.779 Y179.189 F9600.000
M204 S1200
G1 X158.570 Y179.303 E7.31844 F5400.000
G1 X128.247 Y179.303 E8.24297
G1 X128.247 Y120.697 E10.02980
G1 X158.570 Y120.697 E10.95433
G1 X158.779 Y120.811 E10.96158
G1 X158.779 Y179.114 E12.73916
M204 S2000
G1 X158.545 Y179.144 F9600.000
G1 X157.932 Y178.416 F9600.000
M204 S2000
G1 X157.892 Y178.456 E12.74095 F6000.000
G1 X157.153 Y178.456 E12.76435
G1 X157.932 Y177.677 E12.79924
G1 X157.932 Y176.939 E12.82264
G1 X156.415 Y178.456 E12.89062
G1 X155.676 Y178.456 E12.91402
G1 X157.932 Y176.200 E13.01510
G1 X157.932 Y175.462 E13.03850
G1 X154.938 Y178.456 E13.17267
G1 X154.199 Y178.456 E13.19607
G1 X157.932 Y174.723 E13.36334
G1 X157.932 Y173.985 E13.38674
G1 X153.461 Y178.456 E13.58710
G1 X152.722 Y178.456 E13.61050
G1 X157.932 Y173.246 E13.84396
G1 X157.932 Y172.508 E13.86736
G1 X151.984 Y178.456 E14.13391
G1 X151.245 Y178.456 E14.15731
G1 X157.932 Y171.769 E14.45695
G1 X157.932 Y171.031 E14.48035
G1 X150.507 Y178.456 E14.81309
G1 X149.768 Y178.456 E14.83649
G1 X157.932 Y170.292 E15.20233
G1 X157.932 Y169.554 E15.22573
G1 X149.029 Y178.456 E15.62465
G1 X148.291 Y178.456 E15.64806
G1 X157.932 Y168.815 E16.08008
G1 X157.932 Y168.077 E16.10348
G1 X147.552 Y178.456 E16.56860
G1 X146.814 Y178.456 E16.59200
G1 X157.932 Y167.338 E17.09021
G1 X157.932 Y166.599 E17.11361
G1 X146.075 Y178.456 E17.64492
G1 X145.337 Y178.456 E17.66832
G1 X157.932 Y165.861 E18.23272
G1 X157.932 Y165.122 E18.25612
G1 X144.598 Y178.456 E18.85362
G1 X143.860 Y178.456 E18.87702
G1 X157.932 Y164.384 E19.50761
G1 X157.932 Y163.645 E19.53101
G1 X143.121 Y178.456 E20.19469
G1 X142.383 Y178.456 E20.21810
G1 X157.932 Y162.907 E20.91487
G1 X157.932 Y162.168 E20.93828
G1 X141.644 Y178.456 E21.66815
G1 X140.906 Y178.456 E21.69155
G1 X157.932 Y161.430 E22.45452
G1 X157.932 Y160.691 E22.47792
G1 X140.167 Y178.456 E23.27398
G1 X139.429 Y178.456 E23.29739
G1 X157.932 Y159.953 E24.12654
G1 X157.932 Y159.214 E24.14994
G1 X138.690 Y178.456 E25.01220
G1 X137.951 Y178.456 E25.03560
G1 X157.932 Y158.476 E25.93095
G1 X157.932 Y157.737 E25.95435
G1 X137.213 Y178.456 E26.88279
G1 X136.474 Y178.456 E26.90619
G1 X157.932 Y156.999 E27.86773
G1 X157.932 Y156.260 E27.89113
G1 X135.736 Y178.456 E28.88576
G1 X134.997 Y178.456 E28.90916
G1 X157.932 Y155.521 E29.93688
G1 X157.932 Y154.783 E29.96029
G1 X134.259 Y178.456 E31.02111
G1 X133.520 Y178.456 E31.04451
G1 X157.932 Y154.044 E32.13842
G1 X157.932 Y153.306 E32.16182
G1 X132.782 Y178.456 E33.28883
G1 X132.043 Y178.456 E33.31223
G1 X157.932 Y152.567 E34.47234
G1 X157.932 Y151.829 E34.49574
G1 X131.305 Y178.456 E35.68894
G1 X130.566 Y178.456 E35.71234
G1 X157.932 Y151.090 E36.93863
G1 X157.932 Y150.352 E36.96203
G1 X129.828 Y178.456 E38.22142
G1 X129.112 Y178.434 E38.24412
G1 X157.932 Y149.613 E39.53560
G1 X157.932 Y148.875 E39.55900
G1 X129.094 Y177.713 E40.85126
G1 X129.094 Y176.974 E40.87466
G1 X157.932 Y148.136 E42.16692
G1 X157.932 Y147.398 E42.19033
G1 X129.094 Y176.235 E43.48259
G1 X129.094 Y175.497 E43.50599
G1 X157.932 Y146.659 E44.79825
G1 X157.932 Y145.921 E44.82165
G1 X129.094 Y174.758 E46.11391
G1 X129.094 Y174.020 E46.13732
G1 X157.932 Y145.182 E47.42958
G1 X157.932 Y144.444 E47.45298
G1 X129.094 Y173.281 E48.74524
G1 X129.094 Y172.543 E48.76864
G1 X157.932 Y143.705 E50.06090
G1 X157.932 Y142.966 E50.08431
G1 X129.094 Y171.804 E51.37657
G1 X129.094 Y171.066 E51.39997
G1 X157.932 Y142.228 E52.69223
G1 X157.932 Y141.489 E52.71563
G1 X129.094 Y170.327 E54.00789
G1 X129.094 Y169.589 E54.03129
G1 X157.932 Y140.751 E55.32356
G1 X157.932 Y140.012 E55.34696
G1 X129.094 Y168.850 E56.63922
G1 X129.094 Y168.112 E56.66262
G1 X157.932 Y139.274 E57.95488
G1 X157.932 Y138.535 E57.97828
G1 X129.094 Y167.373 E59.27055
G1 X129.094 Y166.635 E59.29395
G1 X157.932 Y137.797 E60.58621
G1 X157.932 Y137.058 E60.60961
G1 X129.094 Y165.896 E61.90187
G1 X129.094 Y165.157 E61.92527
G1 X157.932 Y136.320 E63.21754
G1 X157.932 Y135.581 E63.24094
G1 X129.094 Y164.419 E64.53320
G1 X129.094 Y163.680 E64.55660
G1 X157.932 Y134.843 E65.84886
G1 X157.932 Y134.104 E65.87226
G1 X129.094 Y162.942 E67.16452
G1 X129.094 Y162.203 E67.18793
G1 X157.932 Y133.366 E68.48019
G1 X157.932 Y132.627 E68.50359
G1 X129.094 Y161.465 E69.79585
G1 X129.094 Y160.726 E69.81925
G1 X157.932 Y131.888 E71.11151
G1 X157.932 Y131.150 E71.13491
G1 X129.094 Y159.988 E72.42718
G1 X129.094 Y159.249 E72.45058
G1 X157.932 Y130.411 E73.74284
G1 X157.932 Y129.673 E73.76624
G1 X129.094 Y158.511 E75.05850
G1 X129.094 Y157.772 E75.08190
G1 X157.932 Y128.934 E76.37416
G1 X157.932 Y128.196 E76.39757
G1 X129.094 Y157.034 E77.68983
G1 X129.094 Y156.295 E77.71323
G1 X157.932 Y127.457 E79.00549
G1 X157.932 Y126.719 E79.02889
G1 X129.094 Y155.557 E80.32115
G1 X129.094 Y154.818 E80.34455
G1 X157.932 Y125.980 E81.63682
G1 X157.932 Y125.242 E81.66022
G1 X129.094 Y154.079 E82.95248
G1 X129.094 Y153.341 E82.97588
G1 X157.932 Y124.503 E84.26814
G1 X157.932 Y123.765 E84.29154
G1 X129.094 Y152.602 E85.58380
G1 X129.094 Y151.864 E85.60720
G1 X157.932 Y123.026 E86.89947
G1 X157.932 Y122.288 E86.92287
G1 X129.094 Y151.125 E88.21513
G1 X129.094 Y150.387 E88.23853
G1 X157.914 Y121.567 E89.53001
G1 X157.198 Y121.544 E89.55271
G1 X129.094 Y149.648 E90.81210
G1 X129.094 Y148.910 E90.83550
G1 X156.460 Y121.544 E92.06179
G1 X155.721 Y121.544 E92.08519
G1 X129.094 Y148.171 E93.27839
G1 X129.094 Y147.433 E93.30179
G1 X154.983 Y121.544 E94.46190
G1 X154.244 Y121.544 E94.48530
G1 X129.094 Y146.694 E95.61231
G1 X129.094 Y145.956 E95.63571
G1 X153.506 Y121.544 E96.72963
G1 X152.767 Y121.544 E96.75303
G1 X129.094 Y145.217 E97.81385
G1 X129.094 Y144.479 E97.83725
G1 X152.029 Y121.544 E98.86498
G1 X151.290 Y121.544 E98.88838
G1 X129.094 Y143.740 E99.88301
G1 X129.094 Y143.001 E99.90642
G1 X150.552 Y121.544 E100.86795
G1 X149.813 Y121.544 E100.89136
G1 X129.094 Y142.263 E101.81980
G1 X129.094 Y141.524 E101.84320
G1 X149.074 Y121.544 E102.73855
G1 X148.336 Y121.544 E102.76195
G1 X129.094 Y140.786 E103.62420
G1 X129.094 Y140.047 E103.64760
G1 X147.597 Y121.544 E104.47676
G1 X146.859 Y121.544 E104.50016
G1 X129.094 Y139.309 E105.29623
G1 X129.094 Y138.570 E105.31963
G1 X146.120 Y121.544 E106.08260
G1 X145.382 Y121.544 E106.10600
G1 X129.094 Y137.832 E106.83588
G1 X129.094 Y137.093 E106.85928
