; generated by Slic3r 1.0.1-dev on 2014-03-08 at 15:51:26

; perimeters extrusion width = 0.55mm
; infill extrusion width = 0.65mm
; solid infill extrusion width = 0.58mm
; top infill extrusion width = 0.50mm

G21 ; set units to millimeters
M107
G28 ; home all axes
G90 ; use absolute coordinates
G92 E0
M82 ; use absolute distances for extrusion
G1 F2400.000 E-1.80000
G92 E0
G1 Z0.350 F7200.000
G1 X75.269 Y88.294 F7200.000
G1 E1.80000 F2400.000
G1 X77.463 Y87.417 E1.86503 F4200
G1 X78.939 Y87.260 E1.90587
G1 X111.060 Y87.260 E2.78971
G1 X113.390 Y87.657 E2.85474
G1 X115.456 Y88.804 E2.91976
G1 X116.505 Y89.843 E2.96038
G1 X116.788 Y90.189 E2.97269
G1 X117.955 Y92.245 E3.03772
G1 X118.375 Y94.638 E3.10459
G1 X118.375 Y117.678 E3.73856
G1 X117.977 Y120.008 E3.80359
G1 X116.831 Y122.075 E3.86862
G1 X115.435 Y123.397 E3.92152
G1 X115.190 Y123.572 E3.92979
G1 X113.065 Y124.604 E3.99482
G1 X111.099 Y124.885 E4.04947
G1 X78.901 Y124.885 E4.93541
G1 X76.572 Y124.488 E5.00044
G1 X74.809 Y123.571 E5.05509
G1 X74.565 Y123.396 E5.06336
G1 X72.901 Y121.718 E5.12839
G1 X71.888 Y119.583 E5.19342
G1 X71.625 Y117.678 E5.24632
G1 X71.625 Y94.638 E5.88029
G1 X72.022 Y92.309 E5.94532
G1 X73.207 Y90.196 E6.01196
G1 X73.489 Y89.849 E6.02427
G1 X75.212 Y88.344 E6.08723
G1 X75.611 Y88.690 F7200.000
G1 X77.739 Y87.887 E6.14982 F4200
G1 X78.939 Y87.776 E6.18298
G1 X111.060 Y87.776 E7.06681
G1 X113.299 Y88.173 E7.12939
G1 X115.266 Y89.315 E7.19197
G1 X116.106 Y90.169 E7.22492
G1 X116.389 Y90.516 E7.23723
G1 X117.498 Y92.501 E7.29981
G1 X117.859 Y94.638 E7.35946
G1 X117.859 Y117.678 E7.99343
G1 X117.462 Y119.918 E8.05601
G1 X116.320 Y121.884 E8.11859
G1 X115.135 Y122.977 E8.16293
G1 X114.890 Y123.152 E8.17121
G1 X112.838 Y124.133 E8.23379
G1 X111.099 Y124.369 E8.28209
G1 X78.901 Y124.369 E9.16804
G1 X76.662 Y123.972 E9.23062
G1 X75.110 Y123.152 E9.27892
G1 X74.865 Y122.977 E9.28720
G1 X73.275 Y121.351 E9.34978
G1 X72.340 Y119.278 E9.41236
G1 X72.141 Y117.678 E9.45671
G1 X72.141 Y94.638 E10.09068
G1 X72.538 Y92.399 E10.15326
G1 X73.606 Y90.522 E10.21269
G1 X73.889 Y90.175 E10.22500
G1 X75.555 Y88.739 E10.28552
G1 F2400.000 E8.48552
G92 E0
G1 X79.432 Y95.067 F7200.000
G1 E1.80000 F2400.000
G1 X110.567 Y95.067 E2.65671 F4200
G1 X110.567 Y117.078 E3.26235
G1 X79.432 Y117.078 E4.11906
G1 X79.432 Y95.142 E4.72263
G1 X78.917 Y94.731 F7200.000
G1 X79.063 Y94.552 E4.72899 F3570
G1 X110.937 Y94.552 E5.60604
G1 X111.083 Y94.731 E5.61241
G1 X111.083 Y117.593 E6.24149
G1 X78.917 Y117.593 E7.12658
G1 X78.917 Y94.806 E7.75360
G1 X79.147 Y94.715 F7200.000
G1 X79.820 Y116.724 F7200.000
G1 X79.786 Y116.675 E7.75471 F4620
G1 X80.458 Y116.724 E7.76725
G1 X79.786 Y115.764 E7.78905
G1 X79.786 Y114.854 E7.80601
G1 X81.096 Y116.724 E7.84852
G1 X81.733 Y116.724 E7.86040
G1 X79.786 Y113.943 E7.92361
G1 X79.786 Y113.032 E7.94057
G1 X82.371 Y116.724 E8.02449
G1 X83.009 Y116.724 E8.03636
G1 X79.786 Y112.122 E8.14098
G1 X79.786 Y111.211 E8.15794
G1 X83.646 Y116.724 E8.28326
G1 X84.284 Y116.724 E8.29514
G1 X79.786 Y110.300 E8.44116
G1 X79.786 Y109.390 E8.45812
G1 X84.922 Y116.724 E8.62485
G1 X85.559 Y116.724 E8.63672
G1 X79.786 Y108.479 E8.82416
G1 X79.786 Y107.568 E8.84112
G1 X86.197 Y116.724 E9.04925
G1 X86.835 Y116.724 E9.06112
G1 X79.786 Y106.657 E9.28996
G1 X79.786 Y105.747 E9.30692
G1 X87.473 Y116.724 E9.55646
G1 X88.110 Y116.724 E9.56834
G1 X79.786 Y104.836 E9.83858
G1 X79.786 Y103.925 E9.85554
G1 X88.748 Y116.724 E10.14649
G1 X89.386 Y116.724 E10.15836
G1 X79.786 Y103.015 E10.47001
G1 X79.786 Y102.104 E10.48697
G1 X90.023 Y116.724 E10.81933
G1 X90.661 Y116.724 E10.83120
G1 X79.786 Y101.193 E11.18426
G1 X79.786 Y100.283 E11.20122
G1 X91.299 Y116.724 E11.57498
G1 X91.936 Y116.724 E11.58685
G1 X79.786 Y99.372 E11.98131
G1 X79.786 Y98.461 E11.99827
G1 X92.574 Y116.724 E12.41344
G1 X93.212 Y116.724 E12.42531
G1 X79.786 Y97.550 E12.86118
G1 X79.786 Y96.640 E12.87814
G1 X93.849 Y116.724 E13.33471
G1 X94.487 Y116.724 E13.34659
G1 X79.786 Y95.729 E13.82386
G1 X80.208 Y95.421 E13.83359
G1 X95.125 Y116.724 E14.31787
G1 X95.762 Y116.724 E14.32974
G1 X80.846 Y95.421 E14.81401
G1 X81.484 Y95.421 E14.82589
G1 X96.400 Y116.724 E15.31016
G1 X97.038 Y116.724 E15.32204
G1 X82.122 Y95.421 E15.80631
G1 X82.759 Y95.421 E15.81818
G1 X97.675 Y116.724 E16.30246
G1 X98.313 Y116.724 E16.31433
G1 X83.397 Y95.421 E16.79860
G1 X84.035 Y95.421 E16.81048
G1 X98.951 Y116.724 E17.29475
G1 X99.588 Y116.724 E17.30663
G1 X84.672 Y95.421 E17.79090
G1 X85.310 Y95.421 E17.80277
G1 X100.226 Y116.724 E18.28704
G1 X100.864 Y116.724 E18.29892
G1 X85.948 Y95.421 E18.78319
G1 X86.585 Y95.421 E18.79507
G1 X101.501 Y116.724 E19.27934
G1 X102.139 Y116.724 E19.29121
G1 X87.223 Y95.421 E19.77549
G1 X87.861 Y95.421 E19.78736
G1 X102.777 Y116.724 E20.27163
G1 X103.415 Y116.724 E20.28351
G1 X88.498 Y95.421 E20.76778
G1 X89.136 Y95.421 E20.77965
G1 X104.052 Y116.724 E21.26393
G1 X104.690 Y116.724 E21.27580
G1 X89.774 Y95.421 E21.76007
G1 X90.411 Y95.421 E21.77195
G1 X105.328 Y116.724 E22.25622
G1 X105.965 Y116.724 E22.26809
G1 X91.049 Y95.421 E22.75237
G1 X91.687 Y95.421 E22.76424
G1 X106.603 Y116.724 E23.24851
G1 X107.241 Y116.724 E23.26039
G1 X92.324 Y95.421 E23.74466
G1 X92.962 Y95.421 E23.75653
G1 X107.878 Y116.724 E24.24081
G1 X108.516 Y116.724 E24.25268
G1 X93.600 Y95.421 E24.73695
G1 X94.238 Y95.421 E24.74883
G1 X109.154 Y116.724 E25.23310
G1 X109.791 Y116.724 E25.24497
G1 X94.875 Y95.421 E25.72924
G1 X95.513 Y95.421 E25.74112
G1 X110.214 Y116.416 E26.21840
G1 X110.214 Y115.505 E26.23535
G1 X96.151 Y95.421 E26.69193
G1 X96.788 Y95.421 E26.70380
G1 X110.214 Y114.595 E27.13967
G1 X110.214 Y113.684 E27.15663
G1 X97.426 Y95.421 E27.57180
G1 X98.064 Y95.421 E27.58367
G1 X110.214 Y112.773 E27.97814
G1 X110.214 Y111.863 E27.99510
G1 X98.701 Y95.421 E28.36886
G1 X99.339 Y95.421 E28.38073
G1 X110.214 Y110.952 E28.73379
G1 X110.214 Y110.041 E28.75075
G1 X99.977 Y95.421 E29.08310
G1 X100.614 Y95.421 E29.09498
G1 X110.214 Y109.130 E29.40663
G1 X110.214 Y108.220 E29.42359
G1 X101.252 Y95.421 E29.71454
G1 X101.890 Y95.421 E29.72641
G1 X110.214 Y107.309 E29.99666
G1 X110.214 Y106.398 E30.01362
G1 X102.527 Y95.421 E30.26316
G1 X103.165 Y95.421 E30.27503
G1 X110.214 Y105.488 E30.50387
G1 X110.214 Y104.577 E30.52083
G1 X103.803 Y95.421 E30.72897
G1 X104.440 Y95.421 E30.74084
G1 X110.214 Y103.666 E30.92827
G1 X110.214 Y102.755 E30.94523
G1 X105.078 Y95.421 E31.11196
G1 X105.716 Y95.421 E31.12384
G1 X110.214 Y101.845 E31.26986
G1 X110.214 Y100.934 E31.28682
G1 X106.353 Y95.421 E31.41215
G1 X106.991 Y95.421 E31.42402
G1 X110.214 Y100.023 E31.52864
G1 X110.214 Y99.113 E31.54560
G1 X107.629 Y95.421 E31.62952
G1 X108.267 Y95.421 E31.64139
G1 X110.214 Y98.202 E31.70460
G1 X110.214 Y97.291 E31.72156
G1 X108.904 Y95.421 E31.76407
G1 X109.542 Y95.421 E31.77595
G1 X110.214 Y96.381 E31.79776
G1 X110.214 Y95.470 E31.81471
G1 X110.180 Y95.421 E31.81582
M106 S255
G1 F2400.000 E30.01582
G92 E0
G1 Z0.700 F7200.000
G1 X110.955 Y94.925 F7200.000
G1 E1.80000 F2400.000
G1 X110.955 Y117.344 E2.44507 F4318.792
G1 X79.045 Y117.344 E3.36324
G1 X79.045 Y94.924 E4.00833
G1 X79.354 Y94.585 E4.02154
G1 X110.644 Y94.585 E4.92186
G1 X110.905 Y94.870 E4.93295
G1 X111.494 Y94.716 F7200.000
M106 S255
G1 X111.494 Y117.537 E5.75951 F3600
G1 X111.343 Y117.645 E5.76625
M106 S255
G1 X111.052 Y117.853 E5.77653 F3670.973
M106 S255
G1 X111.010 Y117.883 E5.77840 F3600
G1 X78.990 Y117.883 E6.93815
G1 X78.948 Y117.853 E6.94002
M106 S255
G1 X78.657 Y117.645 E6.95031 F3670.973
M106 S255
G1 X78.506 Y117.537 E6.95704 F3600
G1 X78.506 Y94.715 E7.78362
G1 X79.116 Y94.046 E7.81643
G1 X110.882 Y94.046 E8.96694
G1 X111.444 Y94.660 E8.99709
M106 S255
G1 X111.136 Y95.064 F7200.000
G1 X110.567 Y116.921 F7200.000
G1 X110.518 Y116.955 E8.99831 F4750.671
G1 X110.567 Y116.228 E9.01326
G1 X109.528 Y116.955 E9.03927
G1 X108.539 Y116.955 E9.05957
G1 X110.567 Y115.536 E9.11037
G1 X110.567 Y114.843 E9.12459
G1 X107.549 Y116.955 E9.20018
G1 X106.559 Y116.955 E9.22049
G1 X110.567 Y114.150 E9.32086
G1 X110.567 Y113.457 E9.33508
G1 X105.570 Y116.955 E9.46025
G1 X104.580 Y116.955 E9.48056
G1 X110.567 Y112.764 E9.63052
G1 X110.567 Y112.071 E9.64474
G1 X103.590 Y116.955 E9.81949
G1 X102.601 Y116.955 E9.83980
G1 X110.567 Y111.378 E10.03934
G1 X110.567 Y110.685 E10.05356
G1 X101.611 Y116.955 E10.27789
G1 X100.621 Y116.955 E10.29820
G1 X110.567 Y109.992 E10.54732
G1 X110.567 Y109.299 E10.56154
G1 X99.632 Y116.955 E10.83545
G1 X98.642 Y116.955 E10.85576
G1 X110.567 Y108.606 E11.15446
G1 X110.567 Y107.913 E11.16868
G1 X97.653 Y116.955 E11.49217
G1 X96.663 Y116.955 E11.51248
G1 X110.567 Y107.220 E11.86076
G1 X110.567 Y106.527 E11.87498
G1 X95.673 Y116.955 E12.24806
G1 X94.684 Y116.955 E12.26837
G1 X110.567 Y105.834 E12.66623
G1 X110.567 Y105.141 E12.68045
G1 X93.694 Y116.955 E13.10311
G1 X92.704 Y116.955 E13.12341
G1 X110.567 Y104.448 E13.57086
G1 X110.567 Y103.755 E13.58508
G1 X91.715 Y116.955 E14.05732
G1 X90.725 Y116.955 E14.07762
G1 X110.567 Y103.062 E14.57465
G1 X110.567 Y102.369 E14.58887
G1 X89.735 Y116.955 E15.11069
G1 X88.746 Y116.955 E15.13100
G1 X110.567 Y101.676 E15.67761
G1 X110.567 Y100.983 E15.69182
G1 X87.756 Y116.955 E16.26322
G1 X86.766 Y116.955 E16.28353
G1 X110.567 Y100.290 E16.87972
G1 X110.567 Y99.597 E16.89394
G1 X85.777 Y116.955 E17.51492
G1 X84.787 Y116.955 E17.53523
G1 X110.567 Y98.904 E18.18100
G1 X110.567 Y98.211 E18.19522
G1 X83.797 Y116.955 E18.86578
G1 X82.808 Y116.955 E18.88609
G1 X110.567 Y97.518 E19.58144
G1 X110.567 Y96.825 E19.59566
G1 X81.818 Y116.955 E20.31580
G1 X80.828 Y116.955 E20.33611
G1 X110.567 Y96.133 E21.08104
G1 X110.567 Y95.440 E21.09526
G1 X79.839 Y116.955 E21.86498
G1 X79.433 Y116.546 E21.87680
G1 X110.242 Y94.974 E22.64856
G1 X109.253 Y94.974 E22.66886
G1 X79.433 Y115.853 E23.41582
G1 X79.433 Y115.160 E23.43004
G1 X108.263 Y94.974 E24.15222
G1 X107.273 Y94.974 E24.17252
G1 X79.433 Y114.467 E24.86990
G1 X79.433 Y113.774 E24.88412
G1 X106.284 Y94.974 E25.55671
G1 X105.294 Y94.974 E25.57702
G1 X79.433 Y113.081 E26.22482
G1 X79.433 Y112.388 E26.23904
G1 X104.304 Y94.974 E26.86205
G1 X103.315 Y94.974 E26.88236
G1 X79.433 Y111.696 E27.48058
G1 X79.433 Y111.003 E27.49479
G1 X102.325 Y94.974 E28.06822
G1 X101.335 Y94.974 E28.08853
G1 X79.433 Y110.310 E28.63717
G1 X79.433 Y109.617 E28.65139
G1 X100.346 Y94.974 E29.17523
G1 X99.356 Y94.974 E29.19554
G1 X79.433 Y108.924 E29.69460
G1 X79.433 Y108.231 E29.70882
G1 X98.366 Y94.974 E30.18308
G1 X97.377 Y94.974 E30.20339
G1 X79.433 Y107.538 E30.65287
G1 X79.433 Y106.845 E30.66709
G1 X96.387 Y94.974 E31.09177
G1 X95.397 Y94.974 E31.11208
G1 X79.433 Y106.152 E31.51197
G1 X79.433 Y105.459 E31.52619
G1 X94.408 Y94.974 E31.90130
G1 X93.418 Y94.974 E31.92161
G1 X79.433 Y104.766 E32.27192
G1 X79.433 Y104.073 E32.28614
G1 X92.429 Y94.974 E32.61166
G1 X91.439 Y94.974 E32.63197
G1 X79.433 Y103.380 E32.93270
G1 X79.433 Y102.687 E32.94692
G1 X90.449 Y94.974 E33.22286
G1 X89.460 Y94.974 E33.24317
G1 X79.433 Y101.994 E33.49432
G1 X79.433 Y101.301 E33.50854
G1 X88.470 Y94.974 E33.73490
G1 X87.480 Y94.974 E33.75521
G1 X79.433 Y100.608 E33.95678
G1 X79.433 Y99.915 E33.97100
G1 X86.491 Y94.974 E34.14778
G1 X85.501 Y94.974 E34.16809
G1 X79.433 Y99.222 E34.32008
G1 X79.433 Y98.529 E34.33430
G1 X84.511 Y94.974 E34.46150
G1 X83.522 Y94.974 E34.48181
G1 X79.433 Y97.836 E34.58421
G1 X79.433 Y97.143 E34.59843
G1 X82.532 Y94.974 E34.67605
G1 X81.542 Y94.974 E34.69636
G1 X79.433 Y96.450 E34.74919
G1 X79.433 Y95.757 E34.76341
G1 X80.553 Y94.974 E34.79144
G1 X79.563 Y94.974 E34.81175
G1 X79.460 Y95.046 E34.81434
G1 F2400.000 E33.01434
G92 E0
G1 Z1.050 F7200.000
G1 X79.045 Y94.883 F7200.000
G1 E1.80000 F2400.000
G1 X79.097 Y94.635 E1.80730 F4160.802
G1 X79.378 Y94.327 E1.81930
G1 X110.619 Y94.327 E2.71820
G1 X110.902 Y94.637 E2.73028
G1 X110.955 Y94.884 E2.73756
G1 X110.955 Y117.344 E3.38381
G1 X79.045 Y117.344 E4.30197
G1 X79.045 Y94.958 E4.94609
G1 X78.506 Y94.827 F7200.000
G1 X78.600 Y94.380 E4.95923 F3536.681
G1 X79.133 Y93.787 E4.98218
G1 X110.862 Y93.787 E5.89513
G1 X111.399 Y94.381 E5.91814
G1 X111.494 Y94.827 E5.93128
G1 X111.494 Y117.537 E6.58472
G1 X111.010 Y117.883 E6.60184
G1 X78.990 Y117.883 E7.52319
G1 X78.506 Y117.537 E7.54031
G1 X78.506 Y94.902 E8.19159
G1 X78.929 Y94.655 F7200.000
G1 X79.467 Y116.955 F7200.000
G1 X79.433 Y116.907 E8.19281 F4576.882
G1 X80.160 Y116.955 E8.20774
G1 X79.433 Y115.918 E8.23370
G1 X79.433 Y114.929 E8.25398
G1 X80.852 Y116.955 E8.30469
G1 X81.545 Y116.955 E8.31889
G1 X79.433 Y113.940 E8.39436
G1 X79.433 Y112.951 E8.41463
G1 X82.237 Y116.955 E8.51485
G1 X82.930 Y116.955 E8.52905
G1 X79.433 Y111.962 E8.65401
G1 X79.433 Y110.973 E8.67429
G1 X83.622 Y116.955 E8.82401
G1 X84.315 Y116.955 E8.83820
G1 X79.433 Y109.984 E9.01267
G1 X79.433 Y108.996 E9.03295
G1 X85.007 Y116.955 E9.23217
G1 X85.699 Y116.955 E9.24637
G1 X79.433 Y108.007 E9.47034
G1 X79.433 Y107.018 E9.49061
G1 X86.392 Y116.955 E9.73933
G1 X87.084 Y116.955 E9.75353
G1 X79.433 Y106.029 E10.02700
G1 X79.433 Y105.040 E10.04728
G1 X87.777 Y116.955 E10.34550
G1 X88.469 Y116.955 E10.35970
G1 X79.433 Y104.051 E10.68267
G1 X79.433 Y103.062 E10.70295
G1 X89.162 Y116.955 E11.05067
G1 X89.854 Y116.955 E11.06487
G1 X79.433 Y102.073 E11.43734
G1 X79.433 Y101.084 E11.45762
G1 X90.547 Y116.955 E11.85484
G1 X91.239 Y116.955 E11.86904
G1 X79.433 Y100.095 E12.29101
G1 X79.433 Y99.106 E12.31129
G1 X91.931 Y116.955 E12.75802
G1 X92.624 Y116.955 E12.77221
G1 X79.433 Y98.117 E13.24369
G1 X79.433 Y97.129 E13.26396
G1 X93.316 Y116.955 E13.76019
G1 X94.009 Y116.955 E13.77439
G1 X79.433 Y96.140 E14.29537
G1 X79.433 Y95.151 E14.31564
G1 X94.701 Y116.955 E14.86137
G1 X95.394 Y116.955 E14.87557
G1 X80.002 Y94.974 E15.42573
G1 X80.694 Y94.974 E15.43993
G1 X96.086 Y116.955 E15.99009
G1 X96.779 Y116.955 E16.00428
G1 X81.387 Y94.974 E16.55445
G1 X82.079 Y94.974 E16.56864
G1 X97.471 Y116.955 E17.11880
G1 X98.163 Y116.955 E17.13300
G1 X82.772 Y94.974 E17.68316
G1 X83.464 Y94.974 E17.69736
G1 X98.856 Y116.955 E18.24752
G1 X99.548 Y116.955 E18.26171
G1 X84.157 Y94.974 E18.81188
G1 X84.849 Y94.974 E18.82607
G1 X100.241 Y116.955 E19.37623
G1 X100.933 Y116.955 E19.39043
G1 X85.541 Y94.974 E19.94059
G1 X86.234 Y94.974 E19.95479
G1 X101.626 Y116.955 E20.50495
G1 X102.318 Y116.955 E20.51914
G1 X86.926 Y94.974 E21.06930
G1 X87.619 Y94.974 E21.08350
G1 X103.011 Y116.955 E21.63366
G1 X103.703 Y116.955 E21.64786
G1 X88.311 Y94.974 E22.19802
G1 X89.004 Y94.974 E22.21222
G1 X104.396 Y116.955 E22.76238
G1 X105.088 Y116.955 E22.77657
G1 X89.696 Y94.974 E23.32673
G1 X90.389 Y94.974 E23.34093
G1 X105.780 Y116.955 E23.89109
G1 X106.473 Y116.955 E23.90529
G1 X91.081 Y94.974 E24.45545
G1 X91.774 Y94.974 E24.46964
G1 X107.165 Y116.955 E25.01981
G1 X107.858 Y116.955 E25.03400
G1 X92.466 Y94.974 E25.58416
G1 X93.158 Y94.974 E25.59836
G1 X108.550 Y116.955 E26.14852
G1 X109.243 Y116.955 E26.16272
G1 X93.851 Y94.974 E26.71288
G1 X94.543 Y94.974 E26.72707
G1 X109.935 Y116.955 E27.27723
G1 X110.567 Y116.868 E27.29030
G1 X95.236 Y94.974 E27.83828
G1 X95.928 Y94.974 E27.85248
G1 X110.567 Y115.879 E28.37571
G1 X110.567 Y114.891 E28.39599
G1 X96.621 Y94.974 E28.89447
G1 X97.313 Y94.974 E28.90866
G1 X110.567 Y113.902 E29.38239
G1 X110.567 Y112.913 E29.40267
G1 X98.006 Y94.974 E29.85164
G1 X98.698 Y94.974 E29.86584
G1 X110.567 Y111.924 E30.29007
G1 X110.567 Y110.935 E30.31034
G1 X99.390 Y94.974 E30.70982
G1 X100.083 Y94.974 E30.72402
G1 X110.567 Y109.946 E31.09874
G1 X110.567 Y108.957 E31.11902
G1 X100.775 Y94.974 E31.46900
G1 X101.468 Y94.974 E31.48319
G1 X110.567 Y107.968 E31.80842
G1 X110.567 Y106.979 E31.82869
G1 X102.160 Y94.974 E32.12917
G1 X102.853 Y94.974 E32.14336
G1 X110.567 Y105.990 E32.41909
G1 X110.567 Y105.001 E32.43936
G1 X103.545 Y94.974 E32.69033
G1 X104.238 Y94.974 E32.70453
G1 X110.567 Y104.012 E32.93075
G1 X110.567 Y103.024 E32.95103
G1 X104.930 Y94.974 E33.15250
G1 X105.622 Y94.974 E33.16670
G1 X110.567 Y102.035 E33.34342
G1 X110.567 Y101.046 E33.36369
G1 X106.315 Y94.974 E33.51566
G1 X107.007 Y94.974 E33.52986
G1 X110.567 Y100.057 E33.65708
G1 X110.567 Y99.068 E33.67735
