; generated by Slic3r 1.0.1-dev on 2014-03-08 at 14:36:37

; perimeters extrusion width = 0.55mm
; infill extrusion width = 0.65mm
; solid infill extrusion width = 0.58mm
; top infill extrusion width = 0.50mm

G21 ; set units to millimeters
M107
G28 ; home all axes
G90 ; use absolute coordinates
G92 E0
M82 ; use absolute distances for extrusion
G1 F2400.000 E-1.80000
G92 E0
G1 Z0.350 F7200.000
G1 X38.516 Y69.090 F7200.000
G1 E1.80000 F2400.000
G1 X40.689 Y68.161 E1.86503 F4200
G1 X42.325 Y67.969 E1.91035
G1 X142.096 Y67.969 E4.65566
G1 X144.426 Y68.366 E4.72069
G1 X146.493 Y69.512 E4.78572
G1 X147.855 Y70.966 E4.84055
G1 X151.686 Y76.481 E5.02531
G1 X158.049 Y87.487 E5.37513
G1 X158.871 Y89.703 E5.44016
G1 X158.993 Y91.006 E5.47618
G1 X158.993 Y108.993 E5.97111
G1 X158.596 Y111.323 E6.03614
G1 X158.049 Y112.513 E6.07217
G1 X151.358 Y124.034 E6.43878
G1 X147.855 Y129.034 E6.60675
G1 X146.194 Y130.714 E6.67178
G1 X144.069 Y131.749 E6.73681
G1 X142.096 Y132.031 E6.79164
G1 X41.819 Y132.031 E9.55087
G1 X39.489 Y131.634 E9.61590
G1 X37.423 Y130.488 E9.68093
G1 X35.890 Y128.780 E9.74408
G1 X32.109 Y122.849 E9.93762
G1 X31.192 Y120.671 E10.00264
G1 X31.007 Y119.069 E10.04701
G1 X31.007 Y80.517 E11.10782
G1 X31.404 Y78.187 E11.17285
G1 X32.486 Y76.202 E11.23505
G1 X36.773 Y70.686 E11.42728
G1 X38.461 Y69.140 E11.49025
G1 X38.868 Y69.477 F7200.000
G1 X40.976 Y68.625 E11.55283 F4200
G1 X42.325 Y68.484 E11.59014
G1 X142.096 Y68.484 E14.33545
G1 X144.336 Y68.881 E14.39803
G1 X146.302 Y70.024 E14.46061
G1 X147.433 Y71.262 E14.50675
G1 X151.240 Y76.739 E14.69028
G1 X157.602 Y87.745 E15.04010
G1 X158.477 Y91.006 E15.13300
G1 X158.477 Y108.993 E15.62794
G1 X157.602 Y112.254 E15.72084
G1 X150.935 Y123.738 E16.08622
G1 X147.433 Y128.738 E16.25420
G1 X145.823 Y130.345 E16.31678
G1 X143.759 Y131.300 E16.37936
G1 X142.096 Y131.516 E16.42550
G1 X41.819 Y131.516 E19.18473
G1 X39.580 Y131.119 E19.24731
G1 X37.613 Y129.976 E19.30989
G1 X36.325 Y128.502 E19.36376
G1 X32.544 Y122.571 E19.55729
G1 X31.675 Y120.470 E19.61987
G1 X31.523 Y119.069 E19.65864
G1 X31.523 Y80.517 E20.71945
G1 X31.920 Y78.277 E20.78203
G1 X32.893 Y76.519 E20.83734
G1 X37.180 Y71.002 E21.02958
G1 X38.812 Y69.528 E21.09010
G1 F2400.000 E19.29010
G92 E0
G1 X103.141 Y79.946 F7200.000
G1 E1.80000 F2400.000
G1 X103.281 Y79.408 E1.81530 F2016
G1 X103.510 Y78.901 E1.83060
G1 X103.822 Y78.440 E1.84590
G1 X104.206 Y78.039 E1.86120
G1 X104.653 Y77.708 E1.87651
G1 X105.150 Y77.458 E1.89181
G1 X105.682 Y77.295 E1.90711
G1 X106.221 Y77.226 E1.92206
G1 X108.103 Y77.245 E1.97385
G1 X108.659 Y77.365 E1.98949
G1 X109.175 Y77.573 E2.00480
G1 X109.648 Y77.864 E2.02010
G1 X110.066 Y78.231 E2.03540
G1 X110.415 Y78.664 E2.05070
G1 X110.686 Y79.150 E2.06600
G1 X110.847 Y79.606 E2.07931
G1 X110.965 Y80.222 E2.09658
G1 X110.965 Y80.778 E2.11188
G1 X110.871 Y81.326 E2.12718
G1 X110.686 Y81.850 E2.14248
G1 X110.415 Y82.336 E2.15778
G1 X110.066 Y82.769 E2.17308
G1 X109.648 Y83.136 E2.18838
G1 X109.175 Y83.427 E2.20368
G1 X108.659 Y83.635 E2.21899
G1 X108.103 Y83.755 E2.23463
G1 X106.221 Y83.774 E2.28642
G1 X105.682 Y83.705 E2.30137
G1 X105.150 Y83.542 E2.31667
G1 X104.653 Y83.292 E2.33197
G1 X104.206 Y82.961 E2.34728
G1 X103.822 Y82.560 E2.36258
G1 X103.510 Y82.099 E2.37788
G1 X103.281 Y81.592 E2.39318
G1 X103.141 Y81.054 E2.40848
G1 X103.094 Y80.500 E2.42378
G1 X103.135 Y80.021 E2.43702
G1 X103.649 Y80.062 F7200.000
G1 X103.769 Y79.580 E2.45068 F2016
G1 X103.962 Y79.154 E2.46356
G1 X104.224 Y78.766 E2.47645
G1 X104.548 Y78.427 E2.48933
G1 X104.925 Y78.149 E2.50222
G1 X105.343 Y77.938 E2.51510
G1 X105.791 Y77.801 E2.52799
G1 X106.251 Y77.742 E2.54076
G1 X108.045 Y77.761 E2.59013
G1 X108.507 Y77.860 E2.60313
G1 X108.942 Y78.035 E2.61601
G1 X109.340 Y78.280 E2.62890
G1 X109.692 Y78.590 E2.64179
G1 X109.986 Y78.954 E2.65467
G1 X110.214 Y79.363 E2.66756
G1 X110.361 Y79.777 E2.67966
G1 X110.450 Y80.266 E2.69332
G1 X110.450 Y80.734 E2.70620
G1 X110.370 Y81.196 E2.71909
G1 X110.214 Y81.637 E2.73197
G1 X109.986 Y82.046 E2.74486
G1 X109.692 Y82.410 E2.75774
G1 X109.340 Y82.720 E2.77063
G1 X108.942 Y82.965 E2.78351
G1 X108.507 Y83.140 E2.79640
G1 X108.045 Y83.239 E2.80940
G1 X106.251 Y83.258 E2.85877
G1 X105.791 Y83.199 E2.87154
G1 X105.343 Y83.062 E2.88443
G1 X104.925 Y82.851 E2.89731
G1 X104.548 Y82.573 E2.91020
G1 X104.224 Y82.234 E2.92308
G1 X103.962 Y81.847 E2.93597
G1 X103.769 Y81.420 E2.94885
G1 X103.651 Y80.967 E2.96174
G1 X103.611 Y80.500 E2.97462
G1 X103.642 Y80.137 E2.98466
G1 X103.274 Y79.736 F7200.000
G1 F2400.000 E1.18466
G92 E0
G1 X106.221 Y116.326 F7200.000
G1 E1.80000 F2400.000
G1 X108.103 Y116.345 E1.85179 F2016
G1 X108.659 Y116.465 E1.86744
G1 X109.175 Y116.672 E1.88274
G1 X109.648 Y116.964 E1.89804
G1 X110.065 Y117.331 E1.91334
G1 X110.415 Y117.764 E1.92864
G1 X110.686 Y118.250 E1.94394
G1 X110.871 Y118.774 E1.95924
G1 X110.965 Y119.322 E1.97454
G1 X110.965 Y119.878 E1.98984
G1 X110.871 Y120.426 E2.00515
G1 X110.686 Y120.950 E2.02045
G1 X110.415 Y121.436 E2.03575
G1 X110.066 Y121.868 E2.05105
G1 X109.648 Y122.236 E2.06635
G1 X109.175 Y122.527 E2.08165
G1 X108.659 Y122.735 E2.09695
G1 X108.103 Y122.855 E2.11260
G1 X106.221 Y122.874 E2.16438
G1 X105.682 Y122.805 E2.17934
G1 X105.150 Y122.642 E2.19464
G1 X104.653 Y122.392 E2.20994
G1 X104.206 Y122.061 E2.22524
G1 X103.822 Y121.660 E2.24054
G1 X103.510 Y121.199 E2.25584
G1 X103.281 Y120.692 E2.27115
G1 X103.141 Y120.154 E2.28645
G1 X103.094 Y119.600 E2.30175
G1 X103.141 Y119.046 E2.31705
G1 X103.281 Y118.508 E2.33235
G1 X103.510 Y118.001 E2.34765
G1 X103.822 Y117.540 E2.36295
G1 X104.206 Y117.139 E2.37825
G1 X104.653 Y116.808 E2.39355
G1 X105.150 Y116.558 E2.40885
G1 X105.682 Y116.395 E2.42416
G1 X106.146 Y116.336 E2.43704
G1 X106.227 Y116.845 F7200.000
G1 X108.045 Y116.861 E2.48708 F2016
G1 X108.507 Y116.960 E2.50008
G1 X108.942 Y117.135 E2.51296
G1 X109.340 Y117.380 E2.52585
G1 X109.692 Y117.690 E2.53873
G1 X109.986 Y118.054 E2.55162
G1 X110.214 Y118.463 E2.56450
G1 X110.370 Y118.904 E2.57739
G1 X110.450 Y119.366 E2.59027
G1 X110.450 Y119.834 E2.60316
G1 X110.370 Y120.296 E2.61605
G1 X110.214 Y120.737 E2.62893
G1 X109.986 Y121.146 E2.64182
G1 X109.692 Y121.510 E2.65470
G1 X109.340 Y121.820 E2.66759
G1 X108.942 Y122.065 E2.68047
G1 X108.507 Y122.240 E2.69336
G1 X108.045 Y122.339 E2.70636
G1 X106.251 Y122.358 E2.75573
G1 X105.791 Y122.299 E2.76850
G1 X105.343 Y122.162 E2.78138
G1 X104.925 Y121.951 E2.79427
G1 X104.548 Y121.673 E2.80715
G1 X104.224 Y121.334 E2.82004
G1 X103.962 Y120.946 E2.83293
G1 X103.769 Y120.520 E2.84581
G1 X103.651 Y120.067 E2.85870
G1 X103.611 Y119.600 E2.87158
G1 X103.651 Y119.133 E2.88447
G1 X103.769 Y118.680 E2.89735
G1 X103.962 Y118.254 E2.91024
G1 X104.224 Y117.866 E2.92312
G1 X104.548 Y117.527 E2.93601
G1 X104.925 Y117.249 E2.94889
G1 X105.343 Y117.038 E2.96178
G1 X105.791 Y116.901 E2.97467
G1 X106.153 Y116.855 E2.98470
G1 X106.461 Y116.403 F7200.000
G1 X106.527 Y110.362 F7200.000
G1 X107.548 Y110.412 E3.01282 F4200
G1 X108.568 Y110.362 E3.04093
G1 X109.579 Y110.212 E3.06905
G1 X110.570 Y109.963 E3.09716
G1 X111.532 Y109.619 E3.12528
G1 X112.456 Y109.182 E3.15339
G1 X113.332 Y108.657 E3.18151
G1 X114.153 Y108.048 E3.20962
G1 X114.910 Y107.362 E3.23774
G1 X115.596 Y106.605 E3.26585
G1 X116.205 Y105.784 E3.29397
G1 X116.730 Y104.908 E3.32208
G1 X117.167 Y103.984 E3.35020
G1 X117.511 Y103.022 E3.37831
G1 X117.760 Y102.031 E3.40643
G1 X117.909 Y101.021 E3.43454
G1 X117.960 Y100.000 E3.46266
G1 X117.909 Y98.979 E3.49077
G1 X117.760 Y97.969 E3.51889
G1 X117.511 Y96.978 E3.54700
G1 X117.167 Y96.016 E3.57512
G1 X116.730 Y95.092 E3.60323
G1 X116.205 Y94.215 E3.63135
G1 X115.596 Y93.395 E3.65946
G1 X114.910 Y92.638 E3.68758
G1 X114.153 Y91.952 E3.71569
G1 X113.332 Y91.343 E3.74381
G1 X112.456 Y90.818 E3.77192
G1 X111.532 Y90.381 E3.80004
G1 X110.570 Y90.037 E3.82815
G1 X109.579 Y89.788 E3.85627
G1 X108.568 Y89.638 E3.88438
G1 X107.548 Y89.588 E3.91250
G1 X106.527 Y89.638 E3.94061
G1 X105.516 Y89.788 E3.96873
G1 X104.525 Y90.037 E3.99684
G1 X103.563 Y90.381 E4.02496
G1 X102.640 Y90.818 E4.05307
G1 X101.763 Y91.343 E4.08119
G1 X101.536 Y91.512 E4.08898
G1 X98.776 Y91.512 E4.16493
G1 X98.776 Y80.782 E4.46015
G1 X102.666 Y75.776 E4.63462
G1 X111.712 Y75.776 E4.88352
G1 X114.842 Y80.245 E5.03366
G1 X114.842 Y85.490 E5.17799
G1 X121.205 Y91.354 E5.41608
G1 X121.205 Y108.646 E5.89189
G1 X114.842 Y114.510 E6.12998
G1 X114.842 Y119.755 E6.27431
G1 X111.712 Y124.224 E6.42445
G1 X102.206 Y124.224 E6.68601
G1 X98.776 Y118.843 E6.86161
G1 X98.776 Y108.463 E7.14722
G1 X101.501 Y108.463 E7.22223
G1 X101.763 Y108.657 E7.23119
G1 X102.640 Y109.182 E7.25931
G1 X103.563 Y109.619 E7.28742
G1 X104.525 Y109.963 E7.31554
G1 X105.516 Y110.212 E7.34365
G1 X106.453 Y110.351 E7.36971
G1 X106.578 Y109.848 F7200.000
G1 X107.548 Y109.895 E7.39643 F3570
G1 X108.518 Y109.848 E7.42315
G1 X109.478 Y109.705 E7.44987
G1 X110.420 Y109.469 E7.47659
G1 X111.335 Y109.142 E7.50331
G1 X112.212 Y108.727 E7.53003
G1 X113.045 Y108.228 E7.55675
G1 X113.825 Y107.649 E7.58347
G1 X114.545 Y106.997 E7.61019
G1 X115.197 Y106.278 E7.63691
G1 X115.776 Y105.498 E7.66363
G1 X116.275 Y104.665 E7.69036
G1 X116.690 Y103.787 E7.71708
G1 X117.017 Y102.873 E7.74380
G1 X117.253 Y101.931 E7.77052
G1 X117.396 Y100.970 E7.79724
G1 X117.443 Y100.000 E7.82396
G1 X117.396 Y99.030 E7.85068
G1 X117.253 Y98.069 E7.87740
G1 X117.017 Y97.127 E7.90412
G1 X116.690 Y96.213 E7.93084
G1 X116.275 Y95.335 E7.95756
G1 X115.776 Y94.502 E7.98428
G1 X115.197 Y93.722 E8.01100
G1 X114.545 Y93.003 E8.03773
G1 X113.825 Y92.351 E8.06445
G1 X113.045 Y91.772 E8.09117
G1 X112.212 Y91.273 E8.11789
G1 X111.335 Y90.858 E8.14461
G1 X110.420 Y90.531 E8.17133
G1 X109.478 Y90.295 E8.19805
G1 X108.518 Y90.152 E8.22477
G1 X107.548 Y90.105 E8.25149
G1 X106.578 Y90.152 E8.27821
G1 X105.617 Y90.295 E8.30493
G1 X104.675 Y90.531 E8.33165
G1 X103.761 Y90.858 E8.35838
G1 X102.883 Y91.273 E8.38510
G1 X102.050 Y91.772 E8.41182
G1 X101.706 Y92.027 E8.42360
G1 X98.260 Y92.027 E8.51842
G1 X98.260 Y80.606 E8.83270
G1 X102.414 Y75.260 E9.01898
G1 X111.980 Y75.260 E9.28221
G1 X115.358 Y80.082 E9.44421
G1 X115.358 Y85.264 E9.58680
G1 X121.644 Y91.057 E9.82202
G1 X121.721 Y91.184 E9.82609
G1 X121.721 Y108.867 E10.31267
G1 X115.358 Y114.736 E10.55085
G1 X115.358 Y119.918 E10.69344
G1 X111.980 Y124.740 E10.85544
G1 X101.923 Y124.740 E11.13216
G1 X98.260 Y118.993 E11.31969
G1 X98.260 Y107.947 E11.62363
G1 X101.672 Y107.947 E11.71751
G1 X102.050 Y108.228 E11.73047
G1 X102.883 Y108.727 E11.75719
G1 X103.761 Y109.142 E11.78391
G1 X104.675 Y109.469 E11.81063
G1 X105.617 Y109.705 E11.83735
G1 X106.504 Y109.837 E11.86201
G1 X106.792 Y110.300 F7200.000
G1 X102.529 Y109.522 F7200.000
G1 X107.052 Y115.981 E12.00797 F4620
G1 X107.691 Y115.987 E12.01980
G1 X103.472 Y109.963 E12.15594
G1 X104.319 Y110.265 E12.17258
G1 X108.362 Y116.039 E12.30306
G1 X109.172 Y116.290 E12.31875
G1 X105.098 Y110.472 E12.45023
G1 X105.834 Y110.617 E12.46412
G1 X113.321 Y121.310 E12.70576
G1 X113.638 Y120.857 E12.71600
G1 X106.538 Y110.717 E12.94515
G1 X107.195 Y110.749 E12.95732
G1 X113.956 Y120.404 E13.17551
G1 X114.273 Y119.951 E13.18574
G1 X107.832 Y110.752 E13.39362
G1 X108.445 Y110.722 E13.40499
G1 X114.488 Y119.353 E13.60001
G1 X114.488 Y118.446 E13.61678
G1 X109.030 Y110.651 E13.79294
G1 X109.605 Y110.566 E13.80370
G1 X114.488 Y117.540 E13.96131
G1 X114.488 Y116.634 E13.97808
G1 X110.147 Y110.434 E14.11819
G1 X110.686 Y110.298 E14.12848
G1 X114.488 Y115.728 E14.25119
G1 X114.488 Y114.822 E14.26796
G1 X111.193 Y110.116 E14.37430
G1 X111.699 Y109.932 E14.38426
G1 X114.675 Y114.183 E14.48031
G1 X115.061 Y113.827 E14.49002
G1 X112.175 Y109.707 E14.58314
G1 X112.650 Y109.479 E14.59289
G1 X115.446 Y113.472 E14.68313
G1 X115.832 Y113.117 E14.69283
G1 X113.097 Y109.211 E14.78110
G1 X113.543 Y108.941 E14.79074
G1 X116.217 Y112.761 E14.87705
G1 X116.603 Y112.406 E14.88676
G1 X113.960 Y108.632 E14.97204
G1 X114.378 Y108.322 E14.98167
G1 X116.989 Y112.050 E15.06592
G1 X117.374 Y111.695 E15.07563
G1 X114.766 Y107.970 E15.15980
G1 X115.154 Y107.618 E15.16949
G1 X117.760 Y111.340 E15.25358
G1 X118.146 Y110.984 E15.26329
G1 X115.513 Y107.224 E15.34826
G1 X115.871 Y106.829 E15.35812
G1 X118.531 Y110.629 E15.44399
G1 X118.917 Y110.274 E15.45369
G1 X116.197 Y106.389 E15.54147
G1 X116.521 Y105.946 E15.55164
G1 X119.302 Y109.918 E15.64140
G1 X119.688 Y109.563 E15.65111
G1 X116.813 Y105.458 E15.74388
G1 X117.098 Y104.958 E15.75452
G1 X120.074 Y109.207 E15.85055
G1 X120.459 Y108.852 E15.86026
G1 X117.354 Y104.417 E15.96048
G1 X117.591 Y103.850 E15.97186
G1 X120.845 Y108.497 E16.07687
G1 X120.851 Y107.600 E16.09347
G1 X117.806 Y103.250 E16.19176
G1 X117.983 Y102.597 E16.20429
G1 X120.851 Y106.694 E16.29686
G1 X120.851 Y105.788 E16.31364
G1 X118.135 Y101.909 E16.40128
G1 X118.246 Y101.161 E16.41527
G1 X120.851 Y104.882 E16.49934
G1 X120.851 Y103.975 E16.51611
G1 X118.298 Y100.329 E16.59852
G1 X118.285 Y99.404 E16.61564
G1 X120.851 Y103.069 E16.69847
G1 X120.851 Y102.163 E16.71525
G1 X118.172 Y98.337 E16.80172
G1 X117.888 Y97.025 F7200.000
G1 X120.851 Y101.257 E16.89735 F4620
G1 X120.851 Y100.351 E16.91412
G1 X116.989 Y94.835 E17.03877
G1 X115.663 Y92.941 F7200.000
G1 X109.248 Y83.779 E17.24581 F4620
G1 X109.700 Y83.520 E17.25547
G1 X120.851 Y99.445 E17.61535
G1 X120.851 Y98.539 E17.63212
G1 X110.111 Y83.200 E17.97874
G1 X110.479 Y82.820 E17.98854
G1 X120.851 Y97.633 E18.32327
G1 X120.851 Y96.727 E18.34005
G1 X110.800 Y82.372 E18.66442
G1 X111.064 Y81.843 E18.67537
G1 X120.851 Y95.821 E18.99123
G1 X120.851 Y94.915 E19.00800
G1 X111.251 Y81.204 E19.31781
G1 X111.319 Y80.395 E19.33284
G1 X114.488 Y84.922 E19.43512
G1 X114.488 Y84.015 E19.45189
G1 X111.041 Y79.092 E19.56314
G1 X110.177 Y77.858 F7200.000
G1 X108.967 Y76.130 E19.60221 F4620
G1 X108.414 Y76.246 E19.61266
G1 X109.037 Y77.136 E19.63276
G1 X109.601 Y76.130 E19.65412
G1 X114.488 Y83.109 E19.81184
G1 X114.488 Y82.203 E19.82862
G1 X110.236 Y76.130 E19.96587
G1 X110.870 Y76.130 E19.97761
G1 X114.488 Y81.297 E20.09439
G1 X114.488 Y80.391 E20.11116
G1 X111.504 Y76.130 E20.20746
G1 X105.689 Y76.886 F7200.000
G1 X105.160 Y76.130 E20.22454 F4620
G1 X104.526 Y76.130 E20.23629
G1 X105.188 Y77.076 E20.25768
G1 X104.702 Y77.288 E20.26749
G1 X103.891 Y76.130 E20.29366
G1 X103.257 Y76.130 E20.30540
G1 X104.110 Y77.349 E20.33296
G1 X103.706 Y77.677 E20.34260
G1 X102.725 Y76.277 E20.37425
G1 X102.391 Y76.706 E20.38432
G1 X103.340 Y78.061 E20.41493
G1 X103.028 Y78.522 E20.42523
G1 X102.058 Y77.136 E20.45655
G1 X101.724 Y77.565 E20.46662
G1 X102.942 Y79.305 E20.50594
G1 X102.783 Y79.983 E20.51884
G1 X101.390 Y77.995 E20.56378
G1 X101.057 Y78.424 E20.57384
G1 X102.770 Y80.872 E20.62915
G1 X100.389 Y79.283 F7200.000
G1 X107.363 Y89.243 E20.85422 F4620
G1 X106.750 Y89.273 E20.86559
G1 X100.055 Y79.712 E21.08164
G1 X99.722 Y80.142 E21.09171
G1 X106.159 Y89.335 E21.29945
G1 X105.584 Y89.420 E21.31021
G1 X99.388 Y80.571 E21.51017
G1 X99.130 Y81.108 E21.52121
G1 X105.036 Y89.544 E21.71182
G1 X104.496 Y89.679 E21.72212
G1 X99.130 Y82.015 E21.89532
G1 X99.130 Y82.921 E21.91209
G1 X103.984 Y89.854 E22.06877
G1 X103.477 Y90.036 E22.07874
G1 X99.130 Y83.827 E22.21905
G1 X99.130 Y84.733 E22.23582
G1 X102.998 Y90.257 E22.36065
G1 X102.521 Y90.482 E22.37041
G1 X99.130 Y85.639 E22.47986
G1 X99.130 Y86.545 E22.49663
G1 X102.071 Y90.746 E22.59156
G1 X101.624 Y91.014 E22.60121
G1 X99.130 Y87.451 E22.68171
G1 X99.130 Y88.357 E22.69848
G1 X101.091 Y91.158 E22.76177
G1 X100.456 Y91.158 E22.77352
G1 X99.130 Y89.263 E22.81633
G1 X99.130 Y90.169 E22.83310
G1 X99.822 Y91.158 E22.85544
G1 X99.187 Y91.158 E22.86718
G1 X99.130 Y91.075 E22.86905
G1 X108.007 Y89.256 F7200.000
G1 X100.723 Y78.853 E23.10413 F4620
G1 X104.791 Y83.757 F7200.000
G1 X108.669 Y89.295 E23.22927 F4620
G1 X109.377 Y89.401 E23.24252
G1 X105.634 Y84.056 E23.36330
G1 X106.319 Y84.127 E23.37604
G1 X110.123 Y89.560 E23.49880
G1 X110.914 Y89.784 E23.51403
G1 X106.949 Y84.120 E23.64200
G1 X107.578 Y84.114 E23.65367
G1 X111.772 Y90.103 E23.78899
G1 X112.735 Y90.572 E23.80884
