; generated by Slic3r 1.1.1-dev on 2014-04-29 at 16:00:45

; perimeters extrusion width = 0.50mm
; infill extrusion width = 0.55mm
; solid infill extrusion width = 0.50mm
; top infill extrusion width = 0.45mm

G21 ; set units to millimeters
G28 ; home all axes
G90 ; use absolute coordinates
G92 E0
M82 ; use absolute distances for extrusion
M204 S2500
G1 F2100.000 E-1.80000
G92 E0
G1 Z0.400 F9600.000
G1 X46.153 Y68.662 F9600.000
G1 E1.80000 F2100.000
G1 X49.197 Y67.969 E1.89817 F4620
G1 X157.606 Y67.969 E5.30731
G1 X159.936 Y68.366 E5.38163
G1 X162.578 Y70.028 E5.47980
G1 X167.578 Y75.028 E5.70216
G1 X168.945 Y76.956 E5.77648
G1 X169.638 Y80.000 E5.87465
G1 X169.638 Y120.000 E7.13252
G1 X169.241 Y122.330 E7.20684
G1 X167.578 Y124.972 E7.30501
G1 X162.578 Y129.972 E7.52737
G1 X160.650 Y131.338 E7.60169
G1 X157.606 Y132.031 E7.69986
G1 X49.197 Y132.031 E11.10900
G1 X46.867 Y131.634 E11.18332
G1 X44.225 Y129.972 E11.28149
G1 X39.225 Y124.972 E11.50385
G1 X37.670 Y122.616 E11.59261
G1 X32.079 Y108.666 E12.06523
G1 X31.450 Y106.943 E12.12290
G1 X30.962 Y105.175 E12.18058
G1 X30.617 Y103.373 E12.23826
G1 X30.419 Y101.550 E12.29593
G1 X30.368 Y99.717 E12.35361
G1 X30.465 Y97.885 E12.41128
G1 X30.708 Y96.068 E12.46896
G1 X31.097 Y94.275 E12.52664
G1 X31.630 Y92.520 E12.58431
G1 X32.127 Y91.211 E12.62834
G1 X37.670 Y77.384 E13.09682
G1 X39.225 Y75.028 E13.18557
G1 X44.225 Y70.028 E13.40794
G1 X46.092 Y68.705 E13.47990
G1 X46.454 Y69.090 F9600.000
G1 X49.197 Y68.484 E13.56824 F4620
G1 X157.606 Y68.484 E16.97738
G1 X159.846 Y68.881 E17.04890
G1 X162.214 Y70.393 E17.13724
G1 X167.214 Y75.393 E17.35960
G1 X168.516 Y77.257 E17.43112
G1 X169.122 Y80.000 E17.51946
G1 X169.122 Y120.000 E18.77734
G1 X168.725 Y122.239 E18.84886
G1 X167.214 Y124.607 E18.93720
G1 X162.214 Y129.607 E19.15956
G1 X160.349 Y130.910 E19.23108
G1 X157.606 Y131.516 E19.31942
G1 X49.197 Y131.516 E22.72857
G1 X46.957 Y131.119 E22.80009
G1 X44.590 Y129.607 E22.88843
G1 X39.590 Y124.607 E23.11079
G1 X38.149 Y122.424 E23.19304
G1 X32.561 Y108.483 E23.66536
G1 X31.946 Y106.799 E23.72173
G1 X31.467 Y105.072 E23.77810
G1 X31.129 Y103.311 E23.83447
G1 X30.934 Y101.529 E23.89084
G1 X30.883 Y99.738 E23.94721
G1 X30.977 Y97.948 E24.00358
G1 X31.214 Y96.171 E24.05995
G1 X31.593 Y94.419 E24.11632
G1 X32.112 Y92.703 E24.17269
G1 X32.606 Y91.403 E24.21641
G1 X38.149 Y77.576 E24.68489
G1 X39.590 Y75.393 E24.76714
G1 X44.590 Y70.393 E24.98950
G1 X46.392 Y69.133 E25.05866
G1 F2100.000 E23.25866
G92 E0
G1 X114.955 Y80.722 F9600.000
G1 E1.80000 F2100.000
G1 X115.049 Y80.174 E1.81749 F1890
G1 X115.235 Y79.650 E1.83497
G1 X115.506 Y79.164 E1.85246
G1 X115.855 Y78.731 E1.86995
G1 X116.273 Y78.364 E1.88743
G1 X116.746 Y78.073 E1.90492
G1 X117.262 Y77.865 E1.92241
G1 X117.820 Y77.745 E1.94036
G1 X121.778 Y77.726 E2.06484
G1 X122.315 Y77.795 E2.08186
G1 X122.847 Y77.958 E2.09935
G1 X123.344 Y78.208 E2.11684
G1 X123.791 Y78.539 E2.13432
G1 X124.175 Y78.940 E2.15181
G1 X124.487 Y79.401 E2.16930
G1 X124.716 Y79.908 E2.18678
G1 X124.856 Y80.446 E2.20427
G1 X124.903 Y81.000 E2.22176
G1 X124.856 Y81.554 E2.23924
G1 X124.716 Y82.092 E2.25673
G1 X124.487 Y82.599 E2.27422
G1 X124.175 Y83.060 E2.29170
G1 X123.791 Y83.461 E2.30919
G1 X123.344 Y83.792 E2.32668
G1 X122.847 Y84.042 E2.34416
G1 X122.315 Y84.205 E2.36165
G1 X121.778 Y84.274 E2.37867
G1 X117.820 Y84.255 E2.50315
G1 X117.262 Y84.135 E2.52110
G1 X116.746 Y83.927 E2.53859
G1 X116.273 Y83.636 E2.55608
G1 X115.855 Y83.269 E2.57357
G1 X115.506 Y82.836 E2.59105
G1 X115.235 Y82.350 E2.60854
G1 X115.049 Y81.826 E2.62603
G1 X114.955 Y81.278 E2.64351
G1 X114.955 Y80.797 E2.65864
G1 X115.471 Y80.766 F9600.000
G1 X115.550 Y80.304 E2.67337 F1890
G1 X115.706 Y79.863 E2.68809
G1 X115.935 Y79.454 E2.70282
G1 X116.229 Y79.090 E2.71755
G1 X116.580 Y78.780 E2.73227
G1 X116.979 Y78.535 E2.74700
G1 X117.414 Y78.360 E2.76172
G1 X117.876 Y78.260 E2.77661
G1 X121.747 Y78.242 E2.89832
G1 X122.206 Y78.301 E2.91289
G1 X122.654 Y78.438 E2.92762
G1 X123.072 Y78.649 E2.94235
G1 X123.449 Y78.927 E2.95707
G1 X123.773 Y79.266 E2.97180
G1 X124.035 Y79.653 E2.98653
G1 X124.228 Y80.080 E3.00125
G1 X124.346 Y80.533 E3.01598
G1 X124.386 Y81.000 E3.03070
G1 X124.346 Y81.467 E3.04543
G1 X124.228 Y81.920 E3.06016
G1 X124.035 Y82.346 E3.07488
G1 X123.773 Y82.734 E3.08961
G1 X123.449 Y83.073 E3.10434
G1 X123.072 Y83.351 E3.11906
G1 X122.654 Y83.562 E3.13379
G1 X122.206 Y83.699 E3.14851
G1 X121.747 Y83.758 E3.16308
G1 X117.876 Y83.740 E3.28480
G1 X117.414 Y83.640 E3.29968
G1 X116.979 Y83.465 E3.31441
G1 X116.580 Y83.220 E3.32914
G1 X116.229 Y82.910 E3.34386
G1 X115.935 Y82.546 E3.35859
G1 X115.706 Y82.137 E3.37332
G1 X115.550 Y81.696 E3.38804
G1 X115.471 Y81.234 E3.40277
G1 X115.471 Y80.841 E3.41514
G1 X115.095 Y80.487 F9600.000
G1 X117.503 Y91.313 F9600.000
G1 X118.335 Y91.233 E3.44140 F4620
G1 X119.170 Y91.233 E3.46766
G1 X120.001 Y91.313 E3.49393
G1 X120.821 Y91.471 E3.52019
G1 X121.623 Y91.706 E3.54646
G1 X122.398 Y92.017 E3.57272
G1 X123.141 Y92.399 E3.59899
G1 X123.843 Y92.851 E3.62525
G1 X124.500 Y93.367 E3.65152
G1 X125.104 Y93.943 E3.67778
G1 X125.651 Y94.575 E3.70405
G1 X126.136 Y95.255 E3.73031
G1 X126.553 Y95.978 E3.75658
G1 X126.900 Y96.738 E3.78284
G1 X127.173 Y97.527 E3.80911
G1 X127.370 Y98.339 E3.83537
G1 X127.489 Y99.166 E3.86164
G1 X127.529 Y100.000 E3.88790
G1 X127.489 Y100.834 E3.91417
G1 X127.370 Y101.661 E3.94043
G1 X127.173 Y102.473 E3.96670
G1 X126.900 Y103.262 E3.99296
G1 X126.553 Y104.022 E4.01923
G1 X126.136 Y104.745 E4.04549
G1 X125.651 Y105.425 E4.07176
G1 X125.104 Y106.057 E4.09802
G1 X124.500 Y106.633 E4.12429
G1 X123.843 Y107.149 E4.15055
G1 X123.141 Y107.601 E4.17682
G1 X122.398 Y107.983 E4.20308
G1 X121.623 Y108.294 E4.22935
G1 X120.821 Y108.529 E4.25561
G1 X120.001 Y108.687 E4.28188
G1 X119.170 Y108.767 E4.30814
G1 X118.335 Y108.767 E4.33441
G1 X117.503 Y108.687 E4.36067
G1 X116.683 Y108.529 E4.38694
G1 X115.882 Y108.294 E4.41320
G1 X115.106 Y107.983 E4.43947
G1 X114.364 Y107.601 E4.46573
G1 X113.661 Y107.149 E4.49200
G1 X113.005 Y106.633 E4.51826
G1 X112.400 Y106.057 E4.54453
G1 X111.853 Y105.425 E4.57079
G1 X111.369 Y104.745 E4.59706
G1 X110.951 Y104.022 E4.62332
G1 X110.604 Y103.262 E4.64959
G1 X110.331 Y102.473 E4.67585
G1 X110.134 Y101.661 E4.70212
G1 X110.015 Y100.834 E4.72838
G1 X109.976 Y100.000 E4.75465
G1 X110.015 Y99.166 E4.78091
G1 X110.134 Y98.339 E4.80717
G1 X110.331 Y97.527 E4.83344
G1 X110.604 Y96.738 E4.85970
G1 X110.951 Y95.978 E4.88597
G1 X111.369 Y95.255 E4.91223
G1 X111.853 Y94.575 E4.93850
G1 X112.400 Y93.943 E4.96476
G1 X113.005 Y93.367 E4.99103
G1 X113.661 Y92.851 E5.01729
G1 X114.364 Y92.399 E5.04356
G1 X115.106 Y92.017 E5.06982
G1 X115.882 Y91.706 E5.09609
G1 X116.683 Y91.471 E5.12235
G1 X117.430 Y91.327 E5.14626
G1 X117.577 Y91.824 F9600.000
G1 X118.359 Y91.749 E5.17098 F3570
G1 X119.145 Y91.749 E5.19570
G1 X119.928 Y91.824 E5.22042
G1 X120.700 Y91.973 E5.24514
G1 X121.454 Y92.194 E5.26986
G1 X122.184 Y92.486 E5.29458
G1 X122.882 Y92.846 E5.31930
G1 X123.544 Y93.271 E5.34402
G1 X124.162 Y93.757 E5.36874
G1 X124.731 Y94.300 E5.39346
G1 X125.245 Y94.894 E5.41818
G1 X125.701 Y95.534 E5.44290
G1 X126.094 Y96.215 E5.46762
G1 X126.421 Y96.930 E5.49234
G1 X126.678 Y97.673 E5.51706
G1 X126.863 Y98.437 E5.54178
G1 X126.975 Y99.215 E5.56650
G1 X127.013 Y100.000 E5.59122
G1 X126.975 Y100.785 E5.61594
G1 X126.863 Y101.563 E5.64066
G1 X126.678 Y102.327 E5.66538
G1 X126.421 Y103.070 E5.69010
G1 X126.094 Y103.785 E5.71482
G1 X125.701 Y104.466 E5.73954
G1 X125.245 Y105.106 E5.76426
G1 X124.731 Y105.700 E5.78898
G1 X124.162 Y106.243 E5.81370
G1 X123.544 Y106.729 E5.83842
G1 X122.882 Y107.154 E5.86314
G1 X122.184 Y107.514 E5.88786
G1 X121.454 Y107.806 E5.91258
G1 X120.700 Y108.027 E5.93730
G1 X119.928 Y108.176 E5.96201
G1 X119.145 Y108.251 E5.98673
G1 X118.359 Y108.251 E6.01145
G1 X117.577 Y108.176 E6.03617
G1 X116.805 Y108.027 E6.06089
G1 X116.051 Y107.806 E6.08561
G1 X115.321 Y107.514 E6.11033
G1 X114.622 Y107.154 E6.13505
G1 X113.961 Y106.729 E6.15977
G1 X113.343 Y106.243 E6.18449
G1 X112.774 Y105.700 E6.20921
G1 X112.259 Y105.106 E6.23393
G1 X111.803 Y104.466 E6.25865
G1 X111.410 Y103.785 E6.28337
G1 X111.084 Y103.070 E6.30809
G1 X110.827 Y102.327 E6.33281
G1 X110.641 Y101.563 E6.35753
G1 X110.529 Y100.785 E6.38225
G1 X110.492 Y100.000 E6.40697
G1 X110.529 Y99.215 E6.43169
G1 X110.641 Y98.437 E6.45641
G1 X110.827 Y97.673 E6.48113
G1 X111.084 Y96.930 E6.50585
G1 X111.410 Y96.215 E6.53057
G1 X111.803 Y95.534 E6.55529
G1 X112.259 Y94.894 E6.58001
G1 X112.774 Y94.300 E6.60473
G1 X113.343 Y93.757 E6.62945
G1 X113.961 Y93.271 E6.65417
G1 X114.622 Y92.846 E6.67889
G1 X115.321 Y92.486 E6.70361
G1 X116.051 Y92.194 E6.72833
G1 X116.805 Y91.973 E6.75305
G1 X117.503 Y91.838 E6.77541
G1 X117.770 Y91.363 F9600.000
G1 F2100.000 E4.97541
G92 E0
G1 X117.820 Y115.745 F9600.000
G1 E1.80000 F2100.000
G1 X121.778 Y115.726 E1.92448 F1890
G1 X122.315 Y115.795 E1.94150
G1 X122.847 Y115.958 E1.95899
G1 X123.344 Y116.208 E1.97648
G1 X123.791 Y116.539 E1.99396
G1 X124.175 Y116.940 E2.01145
G1 X124.487 Y117.401 E2.02894
G1 X124.716 Y117.908 E2.04642
G1 X124.856 Y118.446 E2.06391
G1 X124.903 Y119.000 E2.08140
G1 X124.856 Y119.554 E2.09888
G1 X124.716 Y120.092 E2.11637
G1 X124.487 Y120.599 E2.13386
G1 X124.175 Y121.060 E2.15134
G1 X123.791 Y121.461 E2.16883
G1 X123.344 Y121.792 E2.18632
G1 X122.847 Y122.042 E2.20380
G1 X122.315 Y122.205 E2.22129
G1 X121.778 Y122.274 E2.23831
G1 X117.820 Y122.255 E2.36279
G1 X117.262 Y122.135 E2.38075
G1 X116.746 Y121.927 E2.39823
G1 X116.273 Y121.636 E2.41572
G1 X115.855 Y121.269 E2.43320
G1 X115.506 Y120.836 E2.45069
G1 X115.235 Y120.350 E2.46818
G1 X115.049 Y119.826 E2.48567
G1 X114.955 Y119.278 E2.50315
G1 X114.955 Y118.722 E2.52064
G1 X115.049 Y118.174 E2.53813
G1 X115.235 Y117.650 E2.55561
G1 X115.506 Y117.164 E2.57310
G1 X115.855 Y116.731 E2.59059
G1 X116.273 Y116.364 E2.60807
G1 X116.746 Y116.073 E2.62556
G1 X117.262 Y115.865 E2.64305
G1 X117.747 Y115.761 E2.65864
G1 X117.876 Y116.260 F9600.000
G1 X121.747 Y116.242 E2.78036 F1890
G1 X122.206 Y116.301 E2.79493
G1 X122.654 Y116.438 E2.80966
G1 X123.072 Y116.649 E2.82438
G1 X123.449 Y116.927 E2.83911
G1 X123.773 Y117.266 E2.85383
G1 X124.035 Y117.654 E2.86856
G1 X124.228 Y118.080 E2.88329
G1 X124.346 Y118.533 E2.89801
G1 X124.386 Y119.000 E2.91274
G1 X124.346 Y119.467 E2.92746
G1 X124.228 Y119.920 E2.94219
G1 X124.035 Y120.346 E2.95692
G1 X123.773 Y120.734 E2.97164
G1 X123.449 Y121.073 E2.98637
G1 X123.072 Y121.351 E3.00110
G1 X122.654 Y121.562 E3.01582
G1 X122.206 Y121.699 E3.03055
G1 X121.747 Y121.758 E3.04512
G1 X117.876 Y121.740 E3.16684
G1 X117.414 Y121.640 E3.18172
G1 X116.979 Y121.465 E3.19644
G1 X116.580 Y121.220 E3.21117
G1 X116.229 Y120.910 E3.22590
G1 X115.935 Y120.546 E3.24062
G1 X115.706 Y120.137 E3.25535
G1 X115.550 Y119.696 E3.27008
G1 X115.471 Y119.234 E3.28480
G1 X115.471 Y118.766 E3.29953
G1 X115.550 Y118.304 E3.31425
G1 X115.706 Y117.863 E3.32898
G1 X115.935 Y117.454 E3.34371
G1 X116.229 Y117.090 E3.35843
G1 X116.580 Y116.780 E3.37316
G1 X116.979 Y116.535 E3.38788
G1 X117.414 Y116.360 E3.40261
G1 X117.803 Y116.276 E3.41513
G1 X118.094 Y115.810 F9600.000
G1 X110.579 Y112.624 F9600.000
G1 X109.286 Y111.603 E3.46696 F4620
G1 X108.376 Y110.797 E3.50517
G1 X107.541 Y109.927 E3.54308
G1 X106.779 Y108.993 E3.58099
G1 X106.094 Y108.001 E3.61891
G1 X105.491 Y106.957 E3.65682
G1 X104.974 Y105.868 E3.69473
G1 X104.547 Y104.741 E3.73264
G1 X104.211 Y103.583 E3.77056
G1 X103.970 Y102.401 E3.80847
G1 X103.825 Y101.205 E3.84638
G1 X103.776 Y100.000 E3.88429
G1 X103.825 Y98.795 E3.92221
G1 X103.970 Y97.599 E3.96012
G1 X104.211 Y96.417 E3.99803
G1 X104.547 Y95.259 E4.03595
G1 X104.974 Y94.132 E4.07386
G1 X105.491 Y93.043 E4.11177
G1 X106.094 Y91.999 E4.14968
G1 X106.779 Y91.007 E4.18760
G1 X107.541 Y90.073 E4.22551
G1 X108.376 Y89.203 E4.26342
G1 X109.286 Y88.397 E4.30163
G1 X110.579 Y87.376 E4.35345
G1 X110.579 Y80.321 E4.57529
G1 X115.124 Y75.776 E4.77745
G1 X124.482 Y75.776 E5.07171
G1 X129.027 Y80.321 E5.27386
G1 X129.027 Y119.679 E6.51153
G1 X124.482 Y124.224 E6.71369
G1 X115.124 Y124.224 E7.00795
G1 X110.579 Y119.679 E7.21010
G1 X110.579 Y112.699 E7.42958
G1 X110.063 Y112.874 F9600.000
G1 X108.955 Y111.998 E7.47401 F3570
G1 X108.019 Y111.169 E7.51333
G1 X107.155 Y110.270 E7.55255
G1 X106.366 Y109.304 E7.59177
G1 X105.658 Y108.277 E7.63099
G1 X105.034 Y107.197 E7.67021
G1 X104.499 Y106.070 E7.70943
G1 X104.057 Y104.904 E7.74864
G1 X103.710 Y103.706 E7.78786
G1 X103.461 Y102.484 E7.82708
G1 X103.310 Y101.246 E7.86630
G1 X103.260 Y100.000 E7.90552
G1 X103.310 Y98.754 E7.94474
G1 X103.461 Y97.516 E7.98396
G1 X103.710 Y96.294 E8.02318
G1 X104.057 Y95.096 E8.06240
G1 X104.499 Y93.930 E8.10162
G1 X105.034 Y92.803 E8.14084
G1 X105.658 Y91.723 E8.18006
G1 X106.366 Y90.696 E8.21928
G1 X107.155 Y89.730 E8.25850
G1 X108.019 Y88.831 E8.29772
G1 X108.955 Y88.002 E8.33704
G1 X110.063 Y87.126 E8.38147
G1 X110.063 Y80.108 E8.60217
G1 X114.911 Y75.260 E8.81776
G1 X124.695 Y75.260 E9.12545
G1 X129.543 Y80.108 E9.34104
G1 X129.543 Y119.892 E10.59215
G1 X124.695 Y124.740 E10.80774
G1 X114.911 Y124.740 E11.11543
G1 X110.063 Y119.892 E11.33102
G1 X110.063 Y112.949 E11.54937
G1 X110.279 Y112.423 F9600.000
G1 X113.878 Y107.709 F9600.000
G1 X121.542 Y115.374 E11.77942 F4620
G1 X120.809 Y115.377 E11.79499
G1 X104.186 Y98.755 E12.29390
G1 X104.152 Y99.458 E12.30884
G1 X120.075 Y115.380 E12.78676
G1 X119.342 Y115.384 E12.80233
G1 X104.138 Y100.180 E13.25867
G1 X104.169 Y100.948 E13.27498
G1 X118.608 Y115.387 E13.70837
G1 X117.875 Y115.391 E13.72394
G1 X104.249 Y101.766 E14.13289
G1 X104.378 Y102.632 E14.15147
G1 X117.252 Y115.505 E14.53787
G1 X116.714 Y115.704 E14.55005
G1 X104.575 Y103.565 E14.91440
G1 X104.875 Y104.602 E14.93733
G1 X116.241 Y115.968 E15.27846
G1 X115.824 Y116.288 E15.28962
G1 X105.332 Y105.796 E15.60453
G1 X106.096 Y107.297 F9600.000
G1 X115.458 Y116.660 E15.88553 F4620
G1 X115.145 Y117.084 E15.89671
G1 X110.933 Y112.871 E16.02316
G1 X110.933 Y113.608 E16.03880
G1 X114.889 Y117.564 E16.15755
G1 X114.701 Y118.113 E16.16986
G1 X110.933 Y114.345 E16.28296
G1 X110.933 Y115.082 E16.29860
G1 X114.601 Y118.751 E16.40871
G1 X114.639 Y119.525 E16.42516
G1 X110.933 Y115.819 E16.53639
G1 X110.933 Y116.556 E16.55203
G1 X114.958 Y120.581 E16.67285
G1 X115.299 Y123.870 F9600.000
G1 X110.933 Y119.504 E16.80392 F4620
G1 X110.933 Y118.767 E16.81956
G1 X116.036 Y123.870 E16.97274
G1 X116.773 Y123.870 E16.98838
G1 X110.933 Y118.030 E17.16368
G1 X110.933 Y117.293 E17.17932
G1 X117.510 Y123.870 E17.37675
G1 X118.247 Y123.870 E17.39239
G1 X116.645 Y122.268 E17.44048
G1 X117.706 Y122.593 E17.46403
G1 X118.984 Y123.870 E17.50238
G1 X119.721 Y123.870 E17.51802
G1 X118.463 Y122.612 E17.55579
G1 X119.203 Y122.615 E17.57151
G1 X120.458 Y123.870 E17.60918
G1 X121.195 Y123.870 E17.62482
G1 X119.944 Y122.619 E17.66238
G1 X120.684 Y122.622 E17.67810
G1 X121.932 Y123.870 E17.71556
G1 X122.669 Y123.870 E17.73120
G1 X121.425 Y122.626 E17.76855
G1 X122.122 Y122.586 E17.78338
G1 X123.406 Y123.870 E17.82192
G1 X124.143 Y123.870 E17.83756
G1 X122.723 Y122.450 E17.88019
G1 X123.247 Y122.237 E17.89219
G1 X124.594 Y123.584 E17.93262
G1 X124.962 Y123.215 E17.94368
G1 X123.709 Y121.962 E17.98130
G1 X124.116 Y121.633 E17.99242
G1 X125.331 Y122.847 E18.02887
G1 X125.699 Y122.478 E18.03993
G1 X124.473 Y121.252 E18.07674
G1 X124.770 Y120.812 E18.08800
G1 X126.068 Y122.110 E18.12695
G1 X126.436 Y121.741 E18.13802
G1 X125.005 Y120.311 E18.18096
G1 X125.173 Y119.741 E18.19355
G1 X126.805 Y121.373 E18.24253
G1 X127.173 Y121.004 E18.25359
G1 X125.251 Y119.082 E18.31127
G1 X125.176 Y118.270 E18.32859
G1 X127.542 Y120.636 E18.39959
G1 X127.910 Y120.267 E18.41065
G1 X124.643 Y117.000 E18.50872
G1 X123.602 Y115.959 F9600.000
G1 X116.482 Y108.839 E18.72243 F4620
G1 X117.409 Y109.030 E18.74253
G1 X128.279 Y119.899 E19.06877
G1 X128.647 Y119.530 E19.07983
G1 X118.229 Y109.112 E19.39253
G1 X118.974 Y109.121 E19.40835
G1 X128.674 Y118.820 E19.69947
G1 X128.674 Y118.083 E19.71512
G1 X119.666 Y109.075 E19.98549
