; generated by Slic3r 0.9.11-dev on 2013-12-20 at 15:35:08

; layer_height = 0.4
; perimeters = 2
; top_solid_layers = 2
; bottom_solid_layers = 2
; fill_density = 0.75
; perimeter_speed = 90
; infill_speed = 110
; travel_speed = 130
; nozzle_diameter = 0.5
; filament_diameter = 2.89
; extrusion_multiplier = 1
; perimeters extrusion width = 0.50mm
; infill extrusion width = 0.53mm
; solid infill extrusion width = 0.53mm
; top infill extrusion width = 0.53mm
; first layer extrusion width = 1.00mm

G21 ; set units to millimeters
M107
G28 ; home all axes
G90 ; use absolute coordinates
G92 E0
M82 ; use absolute distances for extrusion
G1 F1800.000 E-1.40000
G92 E0
G1 Z0.500 F7800.000
G1 X76.190 Y70.130 F7800.000
G1 E1.40000 F1800.000
G1 X77.230 Y69.270 E1.49183 F1620.000
G1 X78.420 Y68.630 E1.58377
G1 X79.720 Y68.240 E1.67612
G1 X81.060 Y68.110 E1.76773
G1 X97.550 Y68.110 E2.88977
G1 X98.860 Y68.230 E2.97928
G1 X100.130 Y68.610 E3.06948
G1 X101.300 Y69.220 E3.15926
G1 X102.330 Y70.040 E3.24885
G1 X103.190 Y71.040 E3.33859
G1 X106.700 Y76.040 E3.75427
G1 X107.040 Y76.570 E3.79712
G1 X107.320 Y77.120 E3.83912
G1 X114.890 Y93.590 E5.07251
G1 X115.360 Y95.000 E5.17364
G1 X115.520 Y96.470 E5.27425
G1 X115.520 Y103.520 E5.75396
G1 X115.360 Y104.990 E5.85458
G1 X114.890 Y106.400 E5.95571
G1 X107.320 Y122.870 E7.18910
G1 X107.040 Y123.420 E7.23110
G1 X106.700 Y123.950 E7.27394
G1 X103.190 Y128.950 E7.68962
G1 X102.330 Y129.950 E7.77937
G1 X101.300 Y130.770 E7.86895
G1 X100.130 Y131.380 E7.95873
G1 X98.860 Y131.760 E8.04894
G1 X97.550 Y131.880 E8.13845
G1 X81.060 Y131.880 E9.26049
G1 X79.720 Y131.750 E9.35210
G1 X78.420 Y131.360 E9.44445
G1 X77.230 Y130.720 E9.53639
G1 X76.190 Y129.860 E9.62822
G1 X75.330 Y128.820 E9.72004
G1 X74.690 Y127.630 E9.81198
G1 X74.300 Y126.330 E9.90434
G1 X74.170 Y124.990 E9.99594
G1 X74.170 Y75.000 E13.39746
G1 X74.300 Y73.660 E13.48907
G1 X74.690 Y72.360 E13.58142
G1 X75.330 Y71.170 E13.67336
G1 X76.105 Y70.233 E13.75607
G1 F1800.000 E12.35607
G92 E0
G1 X85.298 Y79.148 F7800.000
G1 E1.40000 F1800.000
G1 X85.644 Y78.787 E1.43402 F540.000
G1 X86.046 Y78.490 E1.46805
G1 X86.493 Y78.265 E1.50207
G1 X86.971 Y78.118 E1.53609
G1 X87.458 Y78.056 E1.56950
G1 X94.973 Y78.074 E2.08085
G1 X95.470 Y78.181 E2.11548
G1 X95.934 Y78.368 E2.14951
G1 X96.360 Y78.630 E2.18353
G1 X96.735 Y78.960 E2.21755
G1 X97.049 Y79.349 E2.25157
G1 X97.293 Y79.786 E2.28560
G1 X97.460 Y80.257 E2.31962
G1 X97.544 Y80.750 E2.35364
G1 X97.544 Y81.250 E2.38766
G1 X97.460 Y81.743 E2.42169
G1 X97.293 Y82.214 E2.45571
G1 X97.050 Y82.651 E2.48973
G1 X96.735 Y83.040 E2.52375
G1 X96.360 Y83.370 E2.55778
G1 X95.934 Y83.632 E2.59180
G1 X95.470 Y83.819 E2.62582
G1 X94.973 Y83.926 E2.66046
G1 X87.458 Y83.944 E3.17180
G1 X86.971 Y83.882 E3.20521
G1 X86.493 Y83.735 E3.23924
G1 X86.091 Y83.533 E3.26982
G1 X85.644 Y83.213 E3.30724
G1 X85.298 Y82.852 E3.34126
G1 X85.047 Y82.480 E3.37184
G1 X84.812 Y81.982 E3.40926
G1 X84.686 Y81.498 E3.44328
G1 X84.644 Y81.000 E3.47730
G1 X84.686 Y80.502 E3.51133
G1 X84.812 Y80.018 E3.54535
G1 X85.018 Y79.562 E3.57937
G1 X85.223 Y79.259 E3.60428
G1 X85.132 Y78.677 F7800.000
G1 F1800.000 E2.20428
G92 E0
G1 X87.458 Y116.056 F7800.000
G1 E1.40000 F1800.000
G1 X94.973 Y116.074 E1.91134 F540.000
G1 X95.470 Y116.181 E1.94598
G1 X95.934 Y116.368 E1.98000
G1 X96.360 Y116.630 E2.01403
G1 X96.697 Y116.927 E2.04461
G1 X97.049 Y117.349 E2.08203
G1 X97.293 Y117.786 E2.11605
G1 X97.460 Y118.257 E2.15007
G1 X97.544 Y118.750 E2.18409
G1 X97.544 Y119.250 E2.21812
G1 X97.460 Y119.743 E2.25214
G1 X97.293 Y120.214 E2.28616
G1 X97.049 Y120.651 E2.32018
G1 X96.735 Y121.040 E2.35421
G1 X96.360 Y121.370 E2.38823
G1 X95.934 Y121.632 E2.42225
G1 X95.470 Y121.819 E2.45627
G1 X94.973 Y121.926 E2.49091
G1 X87.458 Y121.944 E3.00226
G1 X86.971 Y121.882 E3.03567
G1 X86.493 Y121.735 E3.06969
G1 X86.046 Y121.510 E3.10371
G1 X85.644 Y121.213 E3.13773
G1 X85.298 Y120.852 E3.17176
G1 X85.018 Y120.438 E3.20578
G1 X84.812 Y119.982 E3.23980
G1 X84.686 Y119.498 E3.27383
G1 X84.644 Y119.000 E3.30785
G1 X84.686 Y118.502 E3.34187
G1 X84.812 Y118.018 E3.37589
G1 X85.018 Y117.562 E3.40992
G1 X85.298 Y117.148 E3.44394
G1 X85.644 Y116.787 E3.47796
G1 X86.046 Y116.490 E3.51198
G1 X86.493 Y116.265 E3.54601
G1 X86.971 Y116.118 E3.58003
G1 X87.325 Y116.073 E3.60433
G1 X87.872 Y115.265 F7800.000
G1 X87.402 Y115.163 F7800.000
G1 X86.782 Y115.242 E3.64686 F1620.000
G1 X86.159 Y115.433 E3.69122
G1 X85.576 Y115.727 E3.73558
G1 X85.052 Y116.114 E3.77994
G1 X84.601 Y116.585 E3.82431
G1 X84.236 Y117.125 E3.86867
G1 X83.968 Y117.719 E3.91303
G1 X83.803 Y118.350 E3.95740
G1 X83.748 Y119.000 E4.00176
G1 X83.803 Y119.650 E4.04612
G1 X83.968 Y120.281 E4.09048
G1 X84.236 Y120.875 E4.13485
G1 X84.601 Y121.415 E4.17921
G1 X85.052 Y121.885 E4.22357
G1 X85.576 Y122.273 E4.26794
G1 X86.159 Y122.567 E4.31230
G1 X86.782 Y122.758 E4.35666
G1 X88.140 Y122.931 E4.44978
G1 X88.093 Y123.661 E4.49952
G1 X82.399 Y123.661 E4.88696
G1 X82.399 Y76.339 E8.10693
G1 X88.093 Y76.339 E8.49437
G1 X88.140 Y77.069 E8.54410
G1 X86.782 Y77.242 E8.63723
G1 X86.159 Y77.433 E8.68159
G1 X85.576 Y77.727 E8.72595
G1 X85.052 Y78.114 E8.77032
G1 X84.601 Y78.585 E8.81468
G1 X84.236 Y79.125 E8.85904
G1 X83.968 Y79.719 E8.90340
G1 X83.803 Y80.350 E8.94776
G1 X83.748 Y81.000 E8.99213
G1 X83.803 Y81.650 E9.03650
G1 X83.968 Y82.281 E9.08086
G1 X84.236 Y82.875 E9.12521
G1 X84.307 Y82.979 E9.13383
G1 X84.601 Y83.415 E9.16958
G1 X85.052 Y83.885 E9.21394
G1 X85.576 Y84.273 E9.25830
G1 X86.159 Y84.567 E9.30266
G1 X86.782 Y84.758 E9.34703
G1 X87.402 Y84.837 E9.38956
G1 X95.069 Y84.818 E9.91125
G1 X95.733 Y84.675 E9.95745
G1 X96.338 Y84.432 E10.00181
G1 X96.893 Y84.090 E10.04618
G1 X97.382 Y83.660 E10.09054
G1 X97.792 Y83.152 E10.13490
G1 X98.110 Y82.583 E10.17926
G1 X98.327 Y81.969 E10.22363
G1 X98.437 Y81.326 E10.26799
G1 X98.437 Y80.674 E10.31235
G1 X98.327 Y80.031 E10.35672
G1 X97.886 Y78.785 E10.44668
G1 X98.392 Y78.525 E10.48535
G1 X99.721 Y80.422 E10.64300
G1 X99.721 Y90.216 E11.30941
G1 X98.967 Y89.860 E11.36613
G1 X97.953 Y89.497 E11.43942
G1 X96.908 Y89.235 E11.51271
G1 X95.843 Y89.077 E11.58600
G1 X95.355 Y89.053 E11.61922
G1 X94.767 Y89.024 E11.65929
G1 X93.691 Y89.077 E11.73259
G1 X92.626 Y89.235 E11.80588
G1 X91.581 Y89.497 E11.87917
G1 X90.567 Y89.860 E11.95246
G1 X89.593 Y90.320 E12.02575
G1 X88.669 Y90.874 E12.09904
G1 X87.804 Y91.516 E12.17233
G1 X87.006 Y92.239 E12.24563
G1 X86.283 Y93.037 E12.31892
G1 X85.641 Y93.902 E12.39221
G1 X85.087 Y94.826 E12.46550
G1 X84.627 Y95.800 E12.53879
G1 X84.264 Y96.814 E12.61208
G1 X84.002 Y97.859 E12.68537
G1 X83.931 Y98.342 E12.71859
G1 X83.844 Y98.924 E12.75866
G1 X83.791 Y100.000 E12.83196
G1 X83.844 Y101.076 E12.90525
G1 X84.002 Y102.141 E12.97854
G1 X84.121 Y102.615 E13.01176
G1 X84.264 Y103.186 E13.05183
G1 X84.627 Y104.200 E13.12512
G1 X85.087 Y105.174 E13.19841
G1 X85.641 Y106.098 E13.27170
G1 X86.283 Y106.963 E13.34500
G1 X86.611 Y107.325 E13.37822
G1 X87.006 Y107.761 E13.41829
G1 X87.804 Y108.484 E13.49158
G1 X88.669 Y109.126 E13.56487
G1 X89.593 Y109.680 E13.63816
G1 X90.567 Y110.140 E13.71145
G1 X91.027 Y110.305 E13.74467
G1 X91.581 Y110.503 E13.78474
G1 X92.626 Y110.765 E13.85804
G1 X93.691 Y110.923 E13.93133
G1 X94.767 Y110.976 E14.00462
G1 X95.843 Y110.923 E14.07791
G1 X96.908 Y110.765 E14.15120
G1 X97.953 Y110.503 E14.22449
G1 X98.967 Y110.140 E14.29778
G1 X99.721 Y109.784 E14.35451
G1 X99.721 Y119.578 E15.02091
G1 X98.392 Y121.475 E15.17856
G1 X97.886 Y121.215 E15.21723
G1 X98.327 Y119.969 E15.30720
G1 X98.437 Y119.326 E15.35156
G1 X98.437 Y118.674 E15.39593
G1 X98.327 Y118.031 E15.44029
G1 X98.110 Y117.417 E15.48465
G1 X97.792 Y116.847 E15.52901
G1 X97.382 Y116.340 E15.57338
G1 X97.287 Y116.257 E15.58199
G1 X96.893 Y115.910 E15.61774
G1 X96.338 Y115.568 E15.66210
G1 X95.733 Y115.325 E15.70646
G1 X95.069 Y115.182 E15.75267
G1 X87.536 Y115.163 E16.26524
G1 F1800.000 E14.86524
G92 E0
G1 X87.389 Y116.002 F7800.000
G1 X97.768 Y78.680 F7800.000
G1 E1.40000 F1800.000
G1 X96.893 Y77.910 E1.47934 F540.000
G1 X96.338 Y77.568 E1.52370
G1 X95.733 Y77.325 E1.56806
G1 X94.078 Y76.968 E1.68321
G1 X94.145 Y76.339 E1.72625
G1 X96.861 Y76.339 E1.91102
G1 X98.218 Y78.277 E2.07201
G1 X97.868 Y78.591 E2.10400
G1 F1800.000 E0.70400
G92 E0
G1 X97.616 Y80.201 F7800.000
G1 X97.768 Y121.320 F7800.000
G1 E1.40000 F1800.000
G1 X98.218 Y121.723 E1.44111 F540.000
G1 X96.861 Y123.661 E1.60210
G1 X94.145 Y123.661 E1.78686
G1 X94.078 Y123.032 E1.82991
G1 X95.733 Y122.675 E1.94506
G1 X96.338 Y122.432 E1.98942
G1 X96.893 Y122.090 E2.03378
G1 X97.667 Y121.409 E2.10400
G1 X97.325 Y124.554 F7800.000
G1 X81.506 Y124.554 E3.18039 F1134.000
G1 X81.506 Y75.446 E6.52185
G1 X97.325 Y75.446 E7.59823
G1 X100.614 Y80.141 E7.98823
G1 X100.614 Y91.764 E8.77912
G1 X99.520 Y91.108 E8.86590
G1 X98.625 Y90.685 E8.93323
G1 X97.694 Y90.352 E9.00055
G1 X97.263 Y90.244 E9.03079
G1 X96.734 Y90.112 E9.06787
G1 X95.755 Y89.966 E9.13520
G1 X94.767 Y89.918 E9.20252
G1 X93.779 Y89.966 E9.26984
G1 X92.800 Y90.112 E9.33717
G1 X91.840 Y90.352 E9.40449
G1 X90.909 Y90.685 E9.47181
G1 X90.014 Y91.108 E9.53913
G1 X89.633 Y91.337 E9.56937
G1 X89.166 Y91.617 E9.60646
G1 X88.371 Y92.206 E9.67378
G1 X87.638 Y92.871 E9.74110
G1 X86.974 Y93.604 E9.80843
G1 X86.384 Y94.399 E9.87575
G1 X85.876 Y95.247 E9.94307
G1 X85.453 Y96.142 E10.01040
G1 X85.119 Y97.073 E10.07772
G1 X84.879 Y98.033 E10.14504
G1 X84.734 Y99.012 E10.21237
G1 X84.685 Y100.000 E10.27969
G1 X84.707 Y100.444 E10.30993
G1 X84.734 Y100.988 E10.34701
G1 X84.879 Y101.967 E10.41434
G1 X85.119 Y102.927 E10.48166
G1 X85.453 Y103.858 E10.54898
G1 X85.876 Y104.753 E10.61631
G1 X86.384 Y105.601 E10.68363
G1 X86.974 Y106.396 E10.75095
G1 X87.638 Y107.129 E10.81828
G1 X88.371 Y107.794 E10.88560
G1 X89.166 Y108.383 E10.95292
G1 X90.014 Y108.892 E11.02024
G1 X90.909 Y109.315 E11.08757
G1 X91.327 Y109.464 E11.11781
G1 X91.840 Y109.648 E11.15489
G1 X92.800 Y109.888 E11.22221
G1 X93.779 Y110.034 E11.28954
G1 X94.223 Y110.055 E11.31978
G1 X94.767 Y110.082 E11.35686
G1 X95.755 Y110.034 E11.42418
G1 X96.734 Y109.888 E11.49151
G1 X97.694 Y109.648 E11.55883
G1 X98.625 Y109.315 E11.62615
G1 X99.520 Y108.892 E11.69348
G1 X100.614 Y108.236 E11.78026
G1 X100.614 Y119.859 E12.57115
G1 X97.402 Y124.444 E12.95204
G1 X96.659 Y123.960 F7800.000
G1 F1800.000 E11.55204
G92 E0
G1 X97.297 Y124.500 F7800.000
G1 X105.105 Y104.385 F7800.000
G1 E1.40000 F1800.000
G1 X104.898 Y104.227 E1.41771 F540.000
G1 X105.270 Y103.186 E1.49296
G1 X105.532 Y102.141 E1.56625
G1 X105.690 Y101.076 E1.63954
G1 X105.743 Y100.000 E1.71283
G1 X105.690 Y98.924 E1.78612
G1 X105.532 Y97.859 E1.85941
G1 X105.270 Y96.814 E1.93270
G1 X104.898 Y95.773 E2.00795
G1 X105.105 Y95.615 E2.02566
G1 X107.299 Y97.167 E2.20852
G1 X107.299 Y102.833 E2.59407
G1 X105.214 Y104.307 E2.76783
G1 X104.082 Y103.858 F7800.000
G1 X104.415 Y102.927 E2.83515 F1134.000
G1 X104.655 Y101.967 E2.90248
G1 X104.801 Y100.988 E2.96980
G1 X104.849 Y100.000 E3.03712
G1 X104.801 Y99.012 E3.10445
G1 X104.655 Y98.033 E3.17177
G1 X104.415 Y97.073 E3.23909
G1 X104.082 Y96.142 E3.30642
G1 X103.659 Y95.247 E3.37374
G1 X103.150 Y94.399 E3.44106
G1 X102.561 Y93.604 E3.50839
G1 X101.896 Y92.871 E3.57571
G1 X101.062 Y92.114 E3.65236
G1 X101.293 Y91.826 E3.67750
G1 X108.192 Y96.705 E4.25247
G1 X108.192 Y103.295 E4.70091
G1 X101.293 Y108.174 E5.27589
G1 X101.061 Y107.886 E5.30103
G1 X101.896 Y107.129 E5.37769
G1 X102.561 Y106.396 E5.44501
G1 X103.150 Y105.601 E5.51234
G1 X103.659 Y104.753 E5.57966
G1 X104.025 Y103.979 E5.63787
G1 X104.965 Y103.727 F7800.000
G1 X99.119 Y110.835 F7800.000
G1 X99.038 Y110.754 E5.64582 F1080.000
G1 X98.088 Y111.090 E5.71569
G1 X99.119 Y112.121 E5.81681
G1 X99.119 Y113.407 E5.90597
G1 X97.059 Y111.347 E6.10793
G1 X95.942 Y111.517 E6.18625
G1 X99.119 Y114.694 E6.49772
G1 X96.724 Y114.871 E6.66421
G1 X93.331 Y111.478 E6.99684
G1 X91.727 Y111.160 E7.11018
G1 X95.151 Y114.584 E7.44581
G1 X93.858 Y114.577 E7.53544
G1 X89.656 Y110.375 E7.94735
G1 X94.715 Y111.576 F7800.000
G1 X99.119 Y115.980 E8.37911 F1080.000
G1 X83.078 Y116.659 F7800.000
G1 X83.001 Y116.582 E8.38672 F1080.000
G1 X83.708 Y116.003 E8.45008
G1 X83.001 Y115.295 E8.51940
G1 X83.001 Y114.009 E8.60856
G1 X84.337 Y115.346 E8.73958
G1 X84.967 Y114.689 E8.80264
G1 X83.001 Y112.723 E8.99538
G1 X83.001 Y111.437 E9.08454
G1 X86.319 Y114.755 E9.40982
G1 X87.411 Y114.561 E9.48674
G1 X83.001 Y110.151 E9.91913
G1 X83.001 Y108.865 E10.00829
G1 X88.701 Y114.564 E10.56708
G1 X89.990 Y114.568 E10.65645
G1 X83.001 Y107.578 E11.34164
G1 X83.001 Y106.292 E11.43080
G1 X91.279 Y114.571 E12.24238
G1 X92.569 Y114.574 E12.33176
G1 X83.001 Y105.006 E13.26974
G1 X83.064 Y103.793 F7800.000
G1 X83.023 Y103.752 E13.27165 F360.000
G1 X83.572 Y103.679 E13.29018 F360.000
G1 X83.023 Y103.131 E13.31615 F360.000
G1 X83.593 Y103.079 E13.33533 F360.000
G1 X83.023 Y102.509 E13.36234 F360.000
G1 X83.387 Y102.251 E13.37728 F360.000
G1 X83.023 Y101.887 E13.39452 F360.000
G1 X83.279 Y101.521 E13.40948 F360.000
G1 X83.023 Y101.266 E13.42159 F360.000
G1 X83.207 Y100.827 E13.43751 F360.000
G1 X83.023 Y100.644 E13.44620 F360.000
G1 X83.175 Y100.174 E13.46276 F360.000
G1 X83.023 Y100.022 E13.46992 F360.000
G1 X83.188 Y99.565 E13.48621 F360.000
G1 X83.023 Y99.401 E13.49399 F360.000
G1 X83.217 Y98.972 E13.50974 F360.000
G1 X83.023 Y98.779 E13.51889 F360.000
G1 X83.288 Y98.421 E13.53379 F360.000
G1 X83.023 Y98.157 E13.54630 F360.000
G1 X83.368 Y97.880 E13.56112 F360.000
G1 X83.023 Y97.536 E13.57743 F360.000
G1 X83.481 Y97.371 E13.59372 F360.000
G1 X83.023 Y96.914 E13.61538 F360.000
G1 X83.605 Y96.874 E13.63492 F360.000
G1 X83.023 Y96.292 E13.66248 F360.000
G1 X83.704 Y96.351 E13.68536 F360.000
G1 X83.750 Y96.397 E13.68755 F360.000
G1 X83.347 Y82.462 F7800.000
G1 X83.022 Y82.137 E13.70401 F360.000
G1 X83.176 Y81.627 E13.72311 F360.000
G1 X83.022 Y81.473 E13.73093 F360.000
G1 X83.130 Y80.916 E13.75124 F360.000
G1 X83.022 Y80.808 E13.75671 F360.000
G1 X83.182 Y80.303 E13.77567 F360.000
G1 X83.130 Y80.251 E13.77833 F360.000
G1 X83.345 Y78.798 F7800.000
G1 X83.297 Y78.750 E13.78342 F360.000
G1 X83.920 Y77.998 E13.85574 F360.000
G1 X83.297 Y77.375 E13.92104 F360.000
G1 X84.533 Y77.237 E14.01321 F360.000
G1 X84.617 Y77.320 E14.02194 F360.000
G1 X89.030 Y77.053 F7800.000
G1 X89.919 Y76.336 E14.12081 F360.000
G1 X90.757 Y77.174 E14.22343 F360.000
G1 X91.525 Y76.336 E14.32183 F360.000
G1 X92.367 Y77.178 E14.42493 F360.000
G1 X93.131 Y76.336 E14.52335 F360.000
G1 X93.240 Y76.444 E14.53662 F360.000
G1 X89.148 Y77.170 F7800.000
G1 X89.030 Y77.053 E14.55102 F360.000
G1 F1800.000 E13.15102
G92 E0
G1 X87.386 Y78.002 F7800.000
G1 X99.075 Y81.432 F7800.000
G1 E1.40000 F1800.000
G1 X99.096 Y81.454 E1.40100 F360.000
G1 X98.967 Y81.933 E1.41726 F360.000
G1 X99.096 Y82.062 E1.42324 F360.000
G1 X98.834 Y82.408 E1.43747 F360.000
G1 X99.096 Y82.670 E1.44961 F360.000
G1 X98.673 Y82.856 E1.46474 F360.000
G1 X98.724 Y82.907 E1.46711 F360.000
G1 F1800.000 E0.06711
G92 E0
G1 X96.454 Y83.490 F7800.000
G1 X106.102 Y97.563 F7800.000
G1 E1.40000 F1800.000
G1 X106.563 Y97.411 E1.41601 F360.000
G1 X106.675 Y97.523 E1.42125 F360.000
G1 X106.102 Y97.563 F7800.000
G1 X106.675 Y98.136 E1.44799 F360.000
G1 X106.230 Y98.303 E1.46370 F360.000
G1 X106.675 Y98.748 E1.48449 F360.000
G1 X106.320 Y99.006 E1.49897 F360.000
G1 X106.675 Y99.361 E1.51555 F360.000
G1 X106.351 Y99.650 E1.52988 F360.000
G1 X106.675 Y99.974 E1.54498 F360.000
G1 X106.355 Y100.267 E1.55930 F360.000
G1 X106.675 Y100.586 E1.57421 F360.000
G1 X106.327 Y100.851 E1.58865 F360.000
G1 X106.675 Y101.199 E1.60490 F360.000
G1 X106.272 Y101.409 E1.61989 F360.000
G1 X106.675 Y101.811 E1.63868 F360.000
G1 X106.675 Y102.424 E1.65891 F360.000
G1 X106.193 Y101.942 E1.68140 F360.000
G1 X106.097 Y102.458 E1.69873 F360.000
G1 X106.366 Y102.728 E1.71132 F360.000
G1 X105.974 Y102.948 E1.72617 F360.000
G1 X106.007 Y102.982 E1.72773 F360.000
G1 F1800.000 E0.32773
G92 E0
G1 X104.140 Y103.882 F7800.000
G1 X99.053 Y116.971 F7800.000
G1 E1.40000 F1800.000
G1 X99.102 Y117.020 E1.40298 F360.000
