; generated by Slic3r 0.9.11-dev on 2013-12-09 at 15:39:16

; layer_height = 0.35
; perimeters = 2
; top_solid_layers = 3
; bottom_solid_layers = 3
; fill_density = 0.4
; perimeter_speed = 60
; infill_speed = 100
; travel_speed = 100
; nozzle_diameter = 0.4
; filament_diameter = 2.9
; extrusion_multiplier = 1
; perimeters extrusion width = 0.40mm
; infill extrusion width = 0.70mm
; solid infill extrusion width = 0.42mm
; top infill extrusion width = 0.42mm
; first layer extrusion width = 0.35mm

G21 ; set units to millimeters
M107
G28 ; home all axes
G90 ; use absolute coordinates
G92 E0
M82 ; use absolute distances for extrusion
M204 S500
G1 F900.000 E-1.00000
G92 E0
G1 Z0.350 F6000.000
G1 X63.470 Y48.270 F6000.000
G1 E1.00000 F900.000
G1 X64.310 Y47.250 E1.02526 F1800.000
G1 X69.310 Y42.250 E1.16042
G1 X70.330 Y41.410 E1.18567
G1 X71.490 Y40.790 E1.21082
G1 X72.750 Y40.410 E1.23597
G1 X74.060 Y40.280 E1.26114
G1 X118.060 Y40.280 E2.10218
G1 X119.370 Y40.410 E2.12734
G1 X120.630 Y40.790 E2.15250
G1 X121.790 Y41.410 E2.17764
G1 X122.810 Y42.250 E2.20289
G1 X127.810 Y47.250 E2.33805
G1 X128.580 Y48.160 E2.36084
G1 X129.170 Y49.200 E2.38370
G1 X136.740 Y65.720 E2.73104
G1 X137.200 Y67.090 E2.75867
G1 X137.350 Y68.520 E2.78615
G1 X137.350 Y131.470 E3.98941
G1 X137.200 Y132.900 E4.01690
G1 X136.740 Y134.270 E4.04452
G1 X129.160 Y150.790 E4.39195
G1 X128.570 Y151.830 E4.41480
G1 X127.800 Y152.740 E4.43759
G1 X122.800 Y157.740 E4.57275
G1 X121.780 Y158.580 E4.59800
G1 X120.620 Y159.200 E4.62315
G1 X119.360 Y159.580 E4.64830
G1 X118.050 Y159.710 E4.67346
G1 X74.050 Y159.710 E5.51451
G1 X72.740 Y159.580 E5.53967
G1 X71.470 Y159.200 E5.56501
G1 X70.310 Y158.580 E5.59015
G1 X69.290 Y157.740 E5.61541
G1 X64.300 Y152.740 E5.75043
G1 X63.470 Y151.720 E5.77557
G1 X62.850 Y150.560 E5.80071
G1 X62.470 Y149.300 E5.82586
G1 X62.340 Y147.990 E5.85103
G1 X62.340 Y52.000 E7.68584
G1 X62.470 Y50.690 E7.71100
G1 X62.850 Y49.430 E7.73615
G1 X63.445 Y48.318 E7.76026
G1 X63.770 Y48.470 F6000.000
G1 X64.560 Y47.500 E7.78417 F1800.000
G1 X69.560 Y42.500 E7.91933
G1 X70.530 Y41.710 E7.94325
G1 X71.630 Y41.120 E7.96711
G1 X72.820 Y40.760 E7.99087
G1 X74.060 Y40.640 E8.01468
G1 X118.060 Y40.640 E8.85572
G1 X119.300 Y40.760 E8.87954
G1 X120.490 Y41.120 E8.90330
G1 X121.590 Y41.710 E8.92716
G1 X122.560 Y42.500 E8.95107
G1 X127.560 Y47.500 E9.08623
G1 X128.280 Y48.370 E9.10782
G1 X128.840 Y49.350 E9.12939
G1 X136.410 Y65.870 E9.47674
G1 X136.840 Y67.160 E9.50273
G1 X136.990 Y68.520 E9.52889
G1 X136.990 Y131.470 E10.73215
G1 X136.840 Y132.830 E10.75830
G1 X136.410 Y134.120 E10.78429
G1 X128.830 Y150.640 E11.13172
G1 X128.270 Y151.620 E11.15329
G1 X127.550 Y152.490 E11.17488
G1 X122.550 Y157.490 E11.31004
G1 X121.580 Y158.280 E11.33395
G1 X120.480 Y158.870 E11.35781
G1 X119.290 Y159.230 E11.38158
G1 X118.050 Y159.350 E11.40539
G1 X74.050 Y159.350 E12.24643
G1 X72.810 Y159.230 E12.27024
G1 X71.610 Y158.870 E12.29419
G1 X70.510 Y158.280 E12.31805
G1 X69.550 Y157.480 E12.34194
G1 X64.560 Y152.480 E12.47696
G1 X63.770 Y151.520 E12.50073
G1 X63.180 Y150.420 E12.52459
G1 X62.820 Y149.230 E12.54835
G1 X62.700 Y147.990 E12.57216
G1 X62.700 Y52.000 E14.40697
G1 X62.820 Y50.760 E14.43078
G1 X63.180 Y49.570 E14.45455
G1 X63.744 Y48.518 E14.47737
G1 F900.000 E13.47737
G92 E0
G1 X110.061 Y52.486 F6000.000
G1 E1.00000 F900.000
G1 X110.191 Y51.986 E1.00986 F900.000
G1 X110.403 Y51.516 E1.01973
G1 X110.692 Y51.088 E1.02960
G1 X111.050 Y50.716 E1.03946
G1 X111.465 Y50.409 E1.04933
G1 X111.925 Y50.176 E1.05919
G1 X112.419 Y50.025 E1.06906
G1 X112.931 Y49.960 E1.07893
G1 X113.447 Y49.982 E1.08879
G1 X113.951 Y50.090 E1.09866
G1 X114.430 Y50.283 E1.10852
G1 X114.870 Y50.553 E1.11839
G1 X115.257 Y50.894 E1.12825
G1 X115.581 Y51.296 E1.13812
G1 X115.833 Y51.747 E1.14799
G1 X116.005 Y52.233 E1.15785
G1 X116.092 Y52.742 E1.16772
G1 X116.092 Y53.258 E1.17758
G1 X116.005 Y53.767 E1.18745
G1 X115.833 Y54.253 E1.19731
G1 X115.581 Y54.704 E1.20718
G1 X115.257 Y55.106 E1.21705
G1 X114.870 Y55.447 E1.22691
G1 X114.430 Y55.717 E1.23678
G1 X113.951 Y55.910 E1.24664
G1 X113.447 Y56.018 E1.25651
G1 X112.931 Y56.040 E1.26637
G1 X112.419 Y55.975 E1.27624
G1 X111.925 Y55.824 E1.28611
G1 X111.465 Y55.591 E1.29597
G1 X111.050 Y55.284 E1.30584
G1 X110.692 Y54.912 E1.31570
G1 X110.403 Y54.484 E1.32557
G1 X110.191 Y54.014 E1.33544
G1 X110.061 Y53.514 E1.34530
G1 X110.017 Y53.000 E1.35517
G1 X110.056 Y52.540 E1.36400
G1 X110.416 Y52.569 F6000.000
G1 X110.532 Y52.107 E1.37310 F900.000
G1 X110.719 Y51.692 E1.38179
G1 X110.974 Y51.316 E1.39048
G1 X111.289 Y50.987 E1.39918
G1 X111.654 Y50.717 E1.40787
G1 X112.060 Y50.512 E1.41656
G1 X112.474 Y50.386 E1.42484
G1 X112.946 Y50.321 E1.43394
G1 X113.401 Y50.341 E1.44263
G1 X113.845 Y50.437 E1.45132
G1 X114.267 Y50.606 E1.46001
G1 X114.654 Y50.844 E1.46871
G1 X114.996 Y51.145 E1.47740
G1 X115.281 Y51.499 E1.48609
G1 X115.503 Y51.896 E1.49478
G1 X115.655 Y52.324 E1.50347
G1 X115.731 Y52.773 E1.51217
G1 X115.731 Y53.227 E1.52086
G1 X115.655 Y53.676 E1.52955
G1 X115.503 Y54.104 E1.53824
G1 X115.281 Y54.501 E1.54693
G1 X114.996 Y54.855 E1.55563
G1 X114.654 Y55.156 E1.56432
G1 X114.267 Y55.394 E1.57301
G1 X113.845 Y55.563 E1.58170
G1 X113.401 Y55.659 E1.59039
G1 X112.946 Y55.679 E1.59909
G1 X112.495 Y55.621 E1.60778
G1 X112.060 Y55.488 E1.61647
G1 X111.654 Y55.283 E1.62516
G1 X111.289 Y55.013 E1.63385
G1 X110.974 Y54.684 E1.64255
G1 X110.719 Y54.308 E1.65124
G1 X110.532 Y53.893 E1.65993
G1 X110.418 Y53.453 E1.66862
G1 X110.379 Y53.000 E1.67731
G1 X110.411 Y52.622 E1.68456
G1 X110.144 Y52.332 F6000.000
G1 X113.918 Y62.607 F6000.000
G1 X114.852 Y62.373 E1.70297 F1620.000
G1 X115.805 Y62.231 E1.72138
G1 X116.767 Y62.184 E1.73979
G1 X117.729 Y62.231 E1.75821
G1 X118.682 Y62.373 E1.77662
G1 X119.617 Y62.607 E1.79503
G1 X120.523 Y62.931 E1.81345
G1 X121.394 Y63.343 E1.83186
G1 X122.220 Y63.838 E1.85027
G1 X122.994 Y64.412 E1.86868
G1 X123.708 Y65.059 E1.88710
G1 X124.355 Y65.773 E1.90551
G1 X124.929 Y66.547 E1.92392
G1 X125.424 Y67.373 E1.94233
G1 X125.836 Y68.244 E1.96075
G1 X126.160 Y69.151 E1.97916
G1 X126.394 Y70.085 E1.99757
G1 X126.536 Y71.038 E2.01598
G1 X126.583 Y72.000 E2.03440
G1 X126.536 Y72.962 E2.05281
G1 X126.394 Y73.915 E2.07122
G1 X126.160 Y74.849 E2.08963
G1 X125.836 Y75.756 E2.10805
G1 X125.424 Y76.627 E2.12646
G1 X124.929 Y77.453 E2.14487
G1 X124.355 Y78.227 E2.16328
G1 X123.708 Y78.941 E2.18170
G1 X122.994 Y79.588 E2.20011
G1 X122.220 Y80.162 E2.21852
G1 X121.394 Y80.657 E2.23693
G1 X120.523 Y81.069 E2.25535
G1 X119.617 Y81.393 E2.27376
G1 X118.682 Y81.627 E2.29217
G1 X117.729 Y81.768 E2.31058
G1 X116.767 Y81.816 E2.32900
G1 X115.805 Y81.768 E2.34741
G1 X114.852 Y81.627 E2.36582
G1 X113.918 Y81.393 E2.38423
G1 X113.011 Y81.069 E2.40265
G1 X112.140 Y80.657 E2.42106
G1 X111.314 Y80.162 E2.43947
G1 X110.540 Y79.588 E2.45788
G1 X109.826 Y78.941 E2.47630
G1 X109.179 Y78.227 E2.49471
G1 X108.606 Y77.453 E2.51312
G1 X108.110 Y76.627 E2.53153
G1 X107.699 Y75.756 E2.54995
G1 X107.374 Y74.849 E2.56836
G1 X107.140 Y73.915 E2.58677
G1 X106.999 Y72.962 E2.60519
G1 X106.951 Y72.000 E2.62360
G1 X106.999 Y71.038 E2.64201
G1 X107.140 Y70.085 E2.66042
G1 X107.374 Y69.151 E2.67884
G1 X107.699 Y68.244 E2.69725
G1 X108.110 Y67.373 E2.71566
G1 X108.606 Y66.547 E2.73407
G1 X109.179 Y65.773 E2.75249
G1 X109.826 Y65.059 E2.77090
G1 X110.540 Y64.412 E2.78931
G1 X111.314 Y63.838 E2.80772
G1 X112.140 Y63.343 E2.82614
G1 X113.011 Y62.931 E2.84455
G1 X113.867 Y62.625 E2.86193
G1 X114.005 Y62.257 F6000.000
G1 F900.000 E1.86193
G92 E0
G1 X112.931 Y87.960 F6000.000
G1 E1.00000 F900.000
G1 X113.447 Y87.982 E1.00986 F900.000
G1 X113.951 Y88.090 E1.01973
G1 X114.430 Y88.283 E1.02960
G1 X114.870 Y88.553 E1.03946
G1 X115.218 Y88.860 E1.04833
G1 X115.581 Y89.296 E1.05918
G1 X115.833 Y89.747 E1.06905
G1 X116.005 Y90.233 E1.07891
G1 X116.092 Y90.742 E1.08878
G1 X116.092 Y91.258 E1.09864
G1 X116.005 Y91.767 E1.10851
G1 X115.833 Y92.253 E1.11837
G1 X115.581 Y92.704 E1.12824
G1 X115.257 Y93.106 E1.13811
G1 X114.870 Y93.447 E1.14797
G1 X114.430 Y93.717 E1.15784
G1 X113.951 Y93.910 E1.16770
G1 X113.447 Y94.018 E1.17757
G1 X112.931 Y94.040 E1.18744
G1 X112.419 Y93.975 E1.19730
G1 X111.925 Y93.824 E1.20717
G1 X111.465 Y93.591 E1.21703
G1 X111.050 Y93.284 E1.22690
G1 X110.692 Y92.912 E1.23676
G1 X110.403 Y92.484 E1.24663
G1 X110.191 Y92.014 E1.25650
G1 X110.061 Y91.514 E1.26636
G1 X110.017 Y91.000 E1.27623
G1 X110.061 Y90.486 E1.28609
G1 X110.178 Y90.037 E1.29496
G1 X110.403 Y89.516 E1.30581
G1 X110.692 Y89.088 E1.31568
G1 X111.050 Y88.716 E1.32554
G1 X111.465 Y88.409 E1.33541
G1 X111.925 Y88.176 E1.34527
G1 X112.419 Y88.025 E1.35514
G1 X112.877 Y87.967 E1.36397
G1 X112.925 Y88.324 F6000.000
G1 X113.401 Y88.341 E1.37307 F900.000
G1 X113.845 Y88.436 E1.38177
G1 X114.267 Y88.606 E1.39046
G1 X114.654 Y88.844 E1.39915
G1 X114.996 Y89.145 E1.40784
G1 X115.281 Y89.499 E1.41653
G1 X115.503 Y89.896 E1.42523
G1 X115.655 Y90.324 E1.43392
G1 X115.731 Y90.773 E1.44261
G1 X115.731 Y91.227 E1.45130
G1 X115.655 Y91.676 E1.45999
G1 X115.503 Y92.104 E1.46869
G1 X115.281 Y92.501 E1.47738
G1 X114.996 Y92.855 E1.48607
G1 X114.654 Y93.156 E1.49476
G1 X114.267 Y93.394 E1.50345
G1 X113.845 Y93.563 E1.51215
G1 X113.401 Y93.659 E1.52084
G1 X112.946 Y93.679 E1.52953
G1 X112.495 Y93.621 E1.53822
G1 X112.060 Y93.488 E1.54691
G1 X111.674 Y93.293 E1.55519
G1 X111.289 Y93.013 E1.56429
G1 X110.974 Y92.684 E1.57298
G1 X110.719 Y92.308 E1.58168
G1 X110.532 Y91.893 E1.59037
G1 X110.418 Y91.453 E1.59906
G1 X110.379 Y91.000 E1.60775
G1 X110.418 Y90.547 E1.61644
G1 X110.527 Y90.128 E1.62472
G1 X110.719 Y89.692 E1.63382
G1 X110.974 Y89.316 E1.64251
G1 X111.289 Y88.987 E1.65121
G1 X111.654 Y88.717 E1.65990
G1 X112.060 Y88.512 E1.66859
G1 X112.495 Y88.379 E1.67728
G1 X112.871 Y88.331 E1.68453
G1 X113.099 Y88.008 F6000.000
G1 X114.782 Y81.981 F6000.000
G1 X115.770 Y82.128 E1.70362 F1800.000
G1 X116.767 Y82.177 E1.72271
G1 X117.765 Y82.128 E1.74180
G1 X118.753 Y81.981 E1.76089
G1 X119.721 Y81.739 E1.77998
G1 X120.662 Y81.402 E1.79907
G1 X121.565 Y80.975 E1.81816
G1 X122.519 Y80.403 E1.83943
G1 X122.519 Y91.776 E2.05681
G1 X117.836 Y96.459 E2.18340
G1 X108.284 Y96.459 E2.36598
G1 X103.601 Y91.776 E2.49257
G1 X103.601 Y52.224 E3.24859
G1 X108.284 Y47.541 E3.37518
G1 X117.836 Y47.541 E3.55775
G1 X122.519 Y52.224 E3.68435
G1 X122.519 Y63.597 E3.90173
G1 X121.565 Y63.025 E3.92300
G1 X120.662 Y62.598 E3.94209
G1 X119.721 Y62.261 E3.96118
G1 X118.753 Y62.019 E3.98027
G1 X117.765 Y61.872 E3.99936
G1 X116.767 Y61.823 E4.01845
G1 X115.770 Y61.872 E4.03754
G1 X114.782 Y62.019 E4.05663
G1 X113.813 Y62.261 E4.07572
G1 X112.873 Y62.598 E4.09481
G1 X111.970 Y63.025 E4.11390
G1 X111.693 Y63.190 E4.12006
G1 X111.113 Y63.538 E4.13299
G1 X110.311 Y64.133 E4.15208
G1 X109.571 Y64.804 E4.17117
G1 X108.900 Y65.544 E4.19026
G1 X108.305 Y66.346 E4.20935
G1 X108.140 Y66.622 E4.21551
G1 X107.792 Y67.203 E4.22844
G1 X107.365 Y68.105 E4.24753
G1 X107.028 Y69.046 E4.26662
G1 X106.786 Y70.015 E4.28571
G1 X106.639 Y71.002 E4.30480
G1 X106.590 Y72.000 E4.32389
G1 X106.639 Y72.998 E4.34298
G1 X106.786 Y73.985 E4.36207
G1 X107.028 Y74.954 E4.38116
G1 X107.365 Y75.895 E4.40025
G1 X107.792 Y76.797 E4.41934
G1 X108.305 Y77.654 E4.43843
G1 X108.900 Y78.456 E4.45752
G1 X109.571 Y79.196 E4.47661
G1 X110.311 Y79.867 E4.49570
G1 X111.113 Y80.462 E4.51479
G1 X111.970 Y80.975 E4.53388
G1 X112.873 Y81.402 E4.55297
G1 X113.813 Y81.739 E4.57206
G1 X114.729 Y81.968 E4.59012
G1 F900.000 E3.59012
G92 E0
G1 X123.896 Y79.271 F6000.000
G1 E1.00000 F900.000
G1 X124.634 Y78.456 E1.02102 F900.000
G1 X125.229 Y77.654 E1.04011
G1 X125.742 Y76.797 E1.05920
G1 X126.169 Y75.895 E1.07829
G1 X126.506 Y74.954 E1.09738
G1 X126.749 Y73.985 E1.11647
G1 X126.895 Y72.998 E1.13556
G1 X126.944 Y72.000 E1.15465
G1 X126.895 Y71.002 E1.17374
G1 X126.749 Y70.015 E1.19283
G1 X126.506 Y69.046 E1.21192
G1 X126.169 Y68.105 E1.23101
G1 X125.742 Y67.203 E1.25010
G1 X125.229 Y66.346 E1.26919
G1 X124.634 Y65.544 E1.28828
G1 X123.896 Y64.729 E1.30930
G1 X124.063 Y64.540 E1.31413
G1 X130.097 Y68.807 E1.45539
G1 X130.097 Y75.193 E1.57746
G1 X124.063 Y79.460 E1.71873
G1 X123.931 Y79.311 E1.72252
G1 X122.979 Y80.668 F6000.000
G1 X122.880 Y80.739 E1.72485 F1620.000
G1 X122.880 Y91.925 E1.93867
G1 X117.985 Y96.820 E2.07098
G1 X108.135 Y96.820 E2.25927
G1 X103.240 Y91.925 E2.39157
G1 X103.240 Y52.075 E3.15330
G1 X108.135 Y47.180 E3.28560
G1 X117.985 Y47.180 E3.47389
G1 X122.880 Y52.075 E3.60620
G1 X122.880 Y63.261 E3.82003
G1 X130.458 Y68.620 E3.99744
G1 X130.458 Y75.380 E4.12665
G1 X123.023 Y80.637 E4.30071
G1 X122.869 Y80.618 F6000.000
G1 X122.276 Y80.960 F6000.000
G1 X122.196 Y80.881 E4.30286 F1800.000
G1 X121.877 Y81.072 E4.30999
G1 X122.276 Y81.471 E4.32079
G1 X122.276 Y81.982 E4.33057
G1 X121.547 Y81.253 E4.35029
G1 X121.200 Y81.417 E4.35764
G1 X122.276 Y82.493 E4.38676
G1 X122.276 Y83.004 E4.39654
G1 X120.853 Y81.581 E4.43505
G1 X120.485 Y81.724 E4.44260
G1 X122.276 Y83.514 E4.49107
G1 X122.276 Y84.025 E4.50085
G1 X120.109 Y81.859 E4.55950
G1 X119.727 Y81.988 E4.56721
G1 X122.276 Y84.536 E4.63619
G1 X122.276 Y85.047 E4.64597
G1 X119.319 Y82.090 E4.72601
G1 X118.910 Y82.193 E4.73407
G1 X122.275 Y85.558 E4.82517
G1 X122.275 Y86.069 E4.83495
G1 X118.475 Y82.269 E4.93782
G1 X118.030 Y82.335 E4.94643
G1 X122.275 Y86.580 E5.06135
G1 X122.275 Y87.091 E5.07113
G1 X117.566 Y82.381 E5.19862
G1 X117.079 Y82.405 E5.20795
G1 X122.275 Y87.601 E5.34861
G1 X122.275 Y88.112 E5.35839
G1 X116.574 Y82.411 E5.51273
G1 X116.037 Y82.385 E5.52303
G1 X122.275 Y88.623 E5.69191
G1 X122.275 Y89.134 E5.70169
G1 X115.471 Y82.330 E5.88589
G1 X114.871 Y82.241 E5.89750
G1 X122.275 Y89.645 E6.09794
G1 X122.275 Y90.156 E6.10772
G1 X114.208 Y82.089 E6.32611
G1 X113.491 Y81.882 E6.34040
G1 X122.275 Y90.667 E6.57822
G1 X122.275 Y91.178 E6.58800
G1 X112.677 Y81.579 E6.84785
G1 X111.661 Y81.074 F6000.000
G1 X122.256 Y91.669 E7.13467 F1800.000
G1 X122.001 Y91.924 E7.14158
G1 X109.889 Y79.813 E7.46945
G1 X108.954 Y78.878 F6000.000
G1 X103.845 Y73.769 E7.60776 F1800.000
G1 X103.845 Y74.279 E7.61754
G1 X121.745 Y92.180 E8.10213
G1 X121.490 Y92.435 E8.10904
G1 X103.845 Y74.790 E8.58671
G1 X103.845 Y75.301 E8.59649
G1 X121.234 Y92.691 E9.06725
G1 X120.979 Y92.946 E9.07416
G1 X103.845 Y75.812 E9.53800
G1 X103.845 Y76.323 E9.54778
G1 X120.723 Y93.202 E10.00470
G1 X120.468 Y93.457 E10.01162
G1 X103.845 Y76.834 E10.46163
G1 X103.845 Y77.345 E10.47141
G1 X114.604 Y88.104 E10.76267
G1 X113.801 Y87.812 F6000.000
G1 X103.845 Y77.856 E11.03220 F1800.000
G1 X103.845 Y78.366 E11.04198
G1 X113.206 Y87.728 E11.29540
G1 X112.710 Y87.743 E11.30490
G1 X103.845 Y78.877 E11.54489
G1 X103.845 Y79.388 E11.55467
G1 X112.272 Y87.816 E11.78280
G1 X111.881 Y87.935 E11.79063
G1 X103.845 Y79.899 E12.00818
G1 X103.845 Y80.410 E12.01796
G1 X111.535 Y88.101 E12.22615
G1 X111.216 Y88.292 E12.23328
G1 X103.845 Y80.921 E12.43283
G1 X103.845 Y81.432 E12.44261
G1 X110.926 Y88.514 E12.63432
G1 X110.666 Y88.764 E12.64124
G1 X103.845 Y81.943 E12.82590
G1 X103.845 Y82.454 E12.83568
G1 X110.431 Y89.040 E13.01398
G1 X110.225 Y89.345 E13.02103
G1 X103.845 Y82.964 E13.19375
G1 X103.845 Y83.475 E13.20353
G1 X110.058 Y89.689 E13.37174
G1 X109.920 Y90.061 E13.37934
G1 X103.845 Y83.986 E13.54380
G1 X103.845 Y84.497 E13.55358
G1 X109.818 Y90.470 E13.71528
G1 X109.778 Y90.941 E13.72433
G1 X103.845 Y85.008 E13.88494
G1 X103.845 Y85.519 E13.89472
G1 X109.814 Y91.489 E14.05633
G1 X110.002 Y92.187 E14.07018
G1 X103.845 Y86.030 E14.23687
G1 X103.845 Y86.541 E14.24665
G1 X113.519 Y96.215 E14.50855
G1 X113.009 Y96.215 E14.51833
G1 X103.845 Y87.052 E14.76641
G1 X103.845 Y87.562 E14.77619
G1 X112.498 Y96.215 E15.01043
G1 X111.987 Y96.215 E15.02021
G1 X103.845 Y88.073 E15.24063
G1 X103.845 Y88.584 E15.25041
G1 X111.476 Y96.215 E15.45700
G1 X110.965 Y96.215 E15.46677
G1 X103.845 Y89.095 E15.65953
G1 X103.845 Y89.606 E15.66931
G1 X110.454 Y96.215 E15.84824
G1 X109.943 Y96.215 E15.85802
G1 X103.845 Y90.117 E16.02311
G1 X103.845 Y90.628 E16.03289
G1 X109.432 Y96.215 E16.18416
