; generated by Slic3r 1.0.0RC1 on 2013-12-02 at 14:42:30

; layer_height = 0.35
; perimeters = 2
; top_solid_layers = 4
; bottom_solid_layers = 2
; fill_density = 0.6
; perimeter_speed = 80
; infill_speed = 110
; travel_speed = 100
; nozzle_diameter = 0.5
; filament_diameter = 2.9
; extrusion_multiplier = 1
; perimeters extrusion width = 0.42mm
; infill extrusion width = 0.58mm
; solid infill extrusion width = 0.58mm
; top infill extrusion width = 0.58mm
; first layer extrusion width = 0.35mm

G21 ; set units to millimeters
M107
G28 ; home all axes
G90 ; use absolute coordinates
G92 E0
M82 ; use absolute distances for extrusion
M204 S200
G1 F1500.000 E-1.00000
G92 E0
G1 Z0.350 F6000.000
G1 X63.120 Y48.030 F6000.000
G1 E1.00000 F1500.000
G1 X64.010 Y46.950 E1.02834 F2640.000
G1 X69.010 Y41.950 E1.17154
G1 X70.090 Y41.060 E1.19988
G1 X71.330 Y40.400 E1.22833
G1 X72.670 Y39.990 E1.25671
G1 X74.060 Y39.850 E1.28500
G1 X118.060 Y39.850 E2.17608
G1 X119.450 Y39.990 E2.20437
G1 X120.790 Y40.400 E2.23275
G1 X122.030 Y41.060 E2.26120
G1 X123.110 Y41.950 E2.28954
G1 X128.110 Y46.950 E2.43274
G1 X128.930 Y47.920 E2.45846
G1 X129.560 Y49.020 E2.48414
G1 X137.130 Y65.540 E2.85215
G1 X137.610 Y67.000 E2.88327
G1 X137.780 Y68.520 E2.91425
G1 X137.780 Y131.470 E4.18909
G1 X137.610 Y132.990 E4.22007
G1 X137.130 Y134.450 E4.25119
G1 X129.560 Y150.970 E4.61920
G1 X128.930 Y152.070 E4.64487
G1 X128.110 Y153.050 E4.67075
G1 X123.100 Y158.050 E4.81409
G1 X122.020 Y158.940 E4.84244
G1 X120.780 Y159.590 E4.87079
G1 X119.440 Y160.000 E4.89917
G1 X118.050 Y160.140 E4.92746
G1 X74.050 Y160.140 E5.81854
G1 X72.650 Y160.000 E5.84703
G1 X71.310 Y159.590 E5.87541
G1 X70.080 Y158.930 E5.90368
G1 X68.990 Y158.040 E5.93218
G1 X64.000 Y153.040 E6.07523
G1 X63.110 Y151.960 E6.10358
G1 X62.460 Y150.720 E6.13193
G1 X62.050 Y149.380 E6.16031
G1 X61.910 Y147.990 E6.18860
G1 X61.910 Y52.000 E8.13256
G1 X62.050 Y50.610 E8.16085
G1 X62.460 Y49.270 E8.18923
G1 X63.093 Y48.081 E8.21652
G1 X63.440 Y48.240 F6000.000
G1 X64.280 Y47.220 E8.24328 F2640.000
G1 X69.280 Y42.220 E8.38648
G1 X70.300 Y41.380 E8.41324
G1 X71.470 Y40.750 E8.44015
G1 X72.740 Y40.370 E8.46700
G1 X74.060 Y40.240 E8.49386
G1 X118.060 Y40.240 E9.38494
G1 X119.380 Y40.370 E9.41180
G1 X120.650 Y40.750 E9.43864
G1 X121.820 Y41.380 E9.46556
G1 X122.840 Y42.220 E9.49232
G1 X127.840 Y47.220 E9.63552
G1 X128.610 Y48.140 E9.65981
G1 X129.210 Y49.180 E9.68413
G1 X136.780 Y65.700 E10.05214
G1 X137.240 Y67.080 E10.08160
G1 X137.390 Y68.520 E10.11092
G1 X137.390 Y131.470 E11.38576
G1 X137.240 Y132.910 E11.41508
G1 X136.780 Y134.290 E11.44454
G1 X129.210 Y150.810 E11.81255
G1 X128.610 Y151.850 E11.83687
G1 X127.840 Y152.780 E11.86132
G1 X122.830 Y157.780 E12.00467
G1 X121.800 Y158.620 E12.03158
G1 X120.640 Y159.240 E12.05822
G1 X119.370 Y159.620 E12.08507
G1 X118.050 Y159.750 E12.11193
G1 X74.050 Y159.750 E13.00300
G1 X72.730 Y159.620 E13.02986
G1 X71.460 Y159.240 E13.05671
G1 X70.290 Y158.610 E13.08362
G1 X69.260 Y157.770 E13.11054
G1 X64.270 Y152.770 E13.25360
G1 X63.430 Y151.740 E13.28051
G1 X62.810 Y150.580 E13.30715
G1 X62.430 Y149.310 E13.33400
G1 X62.300 Y147.990 E13.36086
G1 X62.300 Y52.000 E15.30482
G1 X62.430 Y50.680 E15.33168
G1 X62.810 Y49.410 E15.35853
G1 X63.413 Y48.290 E15.38428
G1 X63.750 Y48.450 F6000.000
G1 X64.550 Y47.490 E15.40958 F2640.000
G1 X69.550 Y42.490 E15.55279
G1 X70.510 Y41.690 E15.57809
G1 X71.620 Y41.100 E15.60355
G1 X72.810 Y40.740 E15.62873
G1 X74.060 Y40.620 E15.65416
G1 X118.060 Y40.620 E16.54524
G1 X119.310 Y40.740 E16.57067
G1 X120.500 Y41.100 E16.59585
G1 X121.610 Y41.690 E16.62130
G1 X122.570 Y42.490 E16.64661
G1 X127.570 Y47.490 E16.78981
G1 X128.300 Y48.360 E16.81281
G1 X128.860 Y49.340 E16.83567
G1 X136.430 Y65.860 E17.20368
G1 X136.870 Y67.160 E17.23147
G1 X137.010 Y68.520 E17.25916
G1 X137.010 Y131.470 E18.53401
G1 X136.870 Y132.830 E18.56170
G1 X136.430 Y134.130 E18.58949
G1 X128.860 Y150.650 E18.95750
G1 X128.300 Y151.640 E18.98054
G1 X127.570 Y152.510 E19.00353
G1 X122.560 Y157.510 E19.14688
G1 X121.590 Y158.300 E19.17221
G1 X120.490 Y158.890 E19.19749
G1 X119.290 Y159.250 E19.22287
G1 X118.050 Y159.370 E19.24809
G1 X74.050 Y159.370 E20.13917
G1 X72.800 Y159.250 E20.16460
G1 X71.600 Y158.890 E20.18997
G1 X70.500 Y158.290 E20.21535
G1 X69.530 Y157.500 E20.24068
G1 X64.540 Y152.500 E20.38374
G1 X63.750 Y151.530 E20.40908
G1 X63.160 Y150.430 E20.43436
G1 X62.800 Y149.230 E20.45973
G1 X62.680 Y147.990 E20.48496
G1 X62.680 Y52.000 E22.42892
G1 X62.800 Y50.750 E22.45435
G1 X63.160 Y49.560 E22.47953
G1 X63.723 Y48.501 E22.50382
G1 F1500.000 E21.50382
G92 E0
G1 X110.045 Y52.483 F6000.000
G1 E1.00000 F1500.000
G1 X110.176 Y51.981 E1.01051 F1320.000
G1 X110.389 Y51.508 E1.02102
G1 X110.680 Y51.078 E1.03152
G1 X111.039 Y50.704 E1.04203
G1 X111.456 Y50.395 E1.05254
G1 X111.919 Y50.161 E1.06305
G1 X112.416 Y50.009 E1.07356
G1 X112.930 Y49.944 E1.08407
G1 X113.449 Y49.966 E1.09457
G1 X113.956 Y50.075 E1.10508
G1 X114.437 Y50.268 E1.11559
G1 X114.879 Y50.540 E1.12610
G1 X115.269 Y50.883 E1.13661
G1 X115.595 Y51.287 E1.14711
G1 X115.848 Y51.740 E1.15762
G1 X116.021 Y52.229 E1.16813
G1 X116.108 Y52.741 E1.17864
G1 X116.108 Y53.259 E1.18915
G1 X116.021 Y53.771 E1.19965
G1 X115.848 Y54.260 E1.21016
G1 X115.595 Y54.713 E1.22067
G1 X115.269 Y55.117 E1.23118
G1 X114.879 Y55.460 E1.24169
G1 X114.437 Y55.732 E1.25220
G1 X113.956 Y55.925 E1.26270
G1 X113.449 Y56.034 E1.27321
G1 X112.930 Y56.056 E1.28372
G1 X112.416 Y55.991 E1.29423
G1 X111.919 Y55.839 E1.30474
G1 X111.456 Y55.605 E1.31524
G1 X111.039 Y55.296 E1.32575
G1 X110.680 Y54.922 E1.33626
G1 X110.389 Y54.492 E1.34677
G1 X110.176 Y54.019 E1.35728
G1 X110.045 Y53.517 E1.36779
G1 X110.001 Y53.000 E1.37829
G1 X110.040 Y52.540 E1.38764
G1 X110.421 Y52.569 F6000.000
G1 X110.537 Y52.109 E1.39726 F1320.000
G1 X110.724 Y51.695 E1.40645
G1 X110.978 Y51.319 E1.41564
G1 X111.292 Y50.991 E1.42483
G1 X111.657 Y50.722 E1.43402
G1 X112.062 Y50.517 E1.44321
G1 X112.476 Y50.391 E1.45197
G1 X112.946 Y50.327 E1.46158
G1 X113.400 Y50.346 E1.47077
G1 X113.844 Y50.442 E1.47997
G1 X114.265 Y50.611 E1.48916
G1 X114.651 Y50.849 E1.49835
G1 X114.992 Y51.149 E1.50754
G1 X115.263 Y51.485 E1.51630
G1 X115.498 Y51.898 E1.52591
G1 X115.649 Y52.326 E1.53510
G1 X115.726 Y52.773 E1.54429
G1 X115.726 Y53.227 E1.55348
G1 X115.649 Y53.674 E1.56268
G1 X115.498 Y54.102 E1.57187
G1 X115.277 Y54.498 E1.58106
G1 X114.992 Y54.851 E1.59025
G1 X114.651 Y55.151 E1.59944
G1 X114.265 Y55.389 E1.60863
G1 X113.844 Y55.558 E1.61782
G1 X113.400 Y55.654 E1.62701
G1 X112.947 Y55.673 E1.63620
G1 X112.496 Y55.616 E1.64539
G1 X112.062 Y55.483 E1.65458
G1 X111.657 Y55.278 E1.66377
G1 X111.292 Y55.009 E1.67296
G1 X110.978 Y54.681 E1.68215
G1 X110.724 Y54.305 E1.69134
G1 X110.537 Y53.891 E1.70053
G1 X110.423 Y53.452 E1.70973
G1 X110.384 Y53.000 E1.71892
G1 X110.416 Y52.626 E1.72651
G1 X110.133 Y52.318 F6000.000
G1 X113.919 Y62.612 F6000.000
G1 X114.853 Y62.378 E1.74601 F1584.000
G1 X115.806 Y62.237 E1.76551
G1 X116.767 Y62.190 E1.78501
G1 X117.729 Y62.237 E1.80450
G1 X118.681 Y62.378 E1.82400
G1 X119.615 Y62.612 E1.84350
G1 X120.521 Y62.936 E1.86300
G1 X121.392 Y63.348 E1.88249
G1 X122.218 Y63.843 E1.90199
G1 X122.991 Y64.416 E1.92149
G1 X123.704 Y65.063 E1.94098
G1 X124.351 Y65.776 E1.96048
G1 X124.924 Y66.550 E1.97998
G1 X125.419 Y67.375 E1.99948
G1 X125.831 Y68.246 E2.01897
G1 X126.155 Y69.152 E2.03847
G1 X126.389 Y70.086 E2.05797
G1 X126.530 Y71.038 E2.07747
G1 X126.578 Y72.000 E2.09696
G1 X126.530 Y72.962 E2.11646
G1 X126.389 Y73.914 E2.13596
G1 X126.155 Y74.848 E2.15545
G1 X125.831 Y75.754 E2.17495
G1 X125.419 Y76.625 E2.19445
G1 X124.924 Y77.450 E2.21395
G1 X124.351 Y78.224 E2.23344
G1 X123.704 Y78.937 E2.25294
G1 X122.991 Y79.584 E2.27244
G1 X122.218 Y80.157 E2.29194
G1 X121.392 Y80.652 E2.31143
G1 X120.521 Y81.064 E2.33093
G1 X119.615 Y81.388 E2.35043
G1 X118.681 Y81.622 E2.36992
G1 X117.729 Y81.763 E2.38942
G1 X116.767 Y81.810 E2.40892
G1 X115.806 Y81.763 E2.42842
G1 X114.853 Y81.622 E2.44791
G1 X113.919 Y81.388 E2.46741
G1 X113.013 Y81.064 E2.48691
G1 X112.143 Y80.652 E2.50641
G1 X111.317 Y80.157 E2.52590
G1 X110.544 Y79.584 E2.54540
G1 X109.830 Y78.937 E2.56490
G1 X109.184 Y78.224 E2.58439
G1 X108.610 Y77.450 E2.60389
G1 X108.115 Y76.625 E2.62339
G1 X107.704 Y75.754 E2.64289
G1 X107.379 Y74.848 E2.66238
G1 X107.145 Y73.914 E2.68188
G1 X107.004 Y72.962 E2.70138
G1 X106.957 Y72.000 E2.72088
G1 X107.004 Y71.038 E2.74037
G1 X107.145 Y70.086 E2.75987
G1 X107.379 Y69.152 E2.77937
G1 X107.704 Y68.246 E2.79886
G1 X108.115 Y67.375 E2.81836
G1 X108.610 Y66.550 E2.83786
G1 X109.184 Y65.776 E2.85736
G1 X109.830 Y65.063 E2.87685
G1 X110.544 Y64.416 E2.89635
G1 X111.431 Y63.758 E2.91873
G1 X111.431 Y63.774 E2.91906
G1 X112.143 Y63.348 E2.93586
G1 X113.013 Y62.936 E2.95536
G1 X113.865 Y62.631 E2.97369
G1 X114.012 Y62.241 F6000.000
G1 F1500.000 E1.97369
G92 E0
G1 X112.930 Y87.944 F6000.000
G1 E1.00000 F1500.000
G1 X113.449 Y87.966 E1.01051 F1320.000
G1 X113.956 Y88.075 E1.02102
G1 X114.437 Y88.268 E1.03152
G1 X114.879 Y88.540 E1.04203
G1 X115.228 Y88.848 E1.05145
G1 X115.595 Y89.287 E1.06303
G1 X115.848 Y89.740 E1.07354
G1 X116.021 Y90.229 E1.08405
G1 X116.108 Y90.741 E1.09456
G1 X116.108 Y91.259 E1.10507
G1 X116.021 Y91.771 E1.11557
G1 X115.848 Y92.260 E1.12608
G1 X115.595 Y92.713 E1.13659
G1 X115.269 Y93.117 E1.14710
G1 X114.879 Y93.460 E1.15761
G1 X114.437 Y93.732 E1.16811
G1 X113.956 Y93.925 E1.17862
G1 X113.449 Y94.034 E1.18913
G1 X112.930 Y94.056 E1.19964
G1 X112.416 Y93.991 E1.21015
G1 X111.919 Y93.839 E1.22066
G1 X111.456 Y93.605 E1.23116
G1 X111.039 Y93.296 E1.24167
G1 X110.680 Y92.922 E1.25218
G1 X110.389 Y92.492 E1.26269
G1 X110.176 Y92.019 E1.27320
G1 X110.045 Y91.517 E1.28371
G1 X110.001 Y91.000 E1.29421
G1 X110.045 Y90.483 E1.30472
G1 X110.162 Y90.033 E1.31414
G1 X110.389 Y89.508 E1.32572
G1 X110.680 Y89.078 E1.33623
G1 X111.039 Y88.704 E1.34674
G1 X111.456 Y88.395 E1.35725
G1 X111.919 Y88.161 E1.36776
G1 X112.416 Y88.009 E1.37827
G1 X112.873 Y87.951 E1.38761
G1 X112.925 Y88.329 F6000.000
G1 X113.400 Y88.346 E1.39723 F1320.000
G1 X113.844 Y88.442 E1.40642
G1 X114.265 Y88.611 E1.41561
G1 X114.651 Y88.849 E1.42480
G1 X114.992 Y89.149 E1.43399
G1 X115.277 Y89.502 E1.44318
G1 X115.498 Y89.898 E1.45237
G1 X115.649 Y90.326 E1.46156
G1 X115.726 Y90.773 E1.47075
G1 X115.726 Y91.227 E1.47994
G1 X115.649 Y91.674 E1.48913
G1 X115.498 Y92.102 E1.49832
G1 X115.277 Y92.498 E1.50751
G1 X114.992 Y92.851 E1.51671
G1 X114.651 Y93.151 E1.52590
G1 X114.265 Y93.389 E1.53509
G1 X113.844 Y93.558 E1.54428
G1 X113.400 Y93.654 E1.55347
G1 X112.946 Y93.673 E1.56266
G1 X112.496 Y93.616 E1.57185
G1 X112.062 Y93.483 E1.58104
G1 X111.676 Y93.288 E1.58980
G1 X111.292 Y93.009 E1.59942
G1 X110.978 Y92.681 E1.60861
G1 X110.724 Y92.305 E1.61780
G1 X110.537 Y91.891 E1.62699
G1 X110.423 Y91.452 E1.63618
G1 X110.384 Y91.000 E1.64537
G1 X110.423 Y90.548 E1.65456
G1 X110.532 Y90.129 E1.66332
G1 X110.724 Y89.695 E1.67293
G1 X110.978 Y89.319 E1.68213
G1 X111.292 Y88.991 E1.69132
G1 X111.657 Y88.722 E1.70051
G1 X112.062 Y88.517 E1.70970
G1 X112.496 Y88.384 E1.71889
G1 X112.869 Y88.337 E1.72649
G1 X113.110 Y87.995 F6000.000
G1 X114.779 Y81.997 F6000.000
G1 X115.768 Y82.144 E1.74674 F2640.000
G1 X116.767 Y82.193 E1.76700
G1 X117.766 Y82.144 E1.78726
G1 X118.756 Y81.997 E1.80752
G1 X119.726 Y81.754 E1.82778
G1 X120.668 Y81.417 E1.84803
G1 X121.572 Y80.989 E1.86829
G1 X122.503 Y80.432 E1.89027
G1 X122.503 Y91.769 E2.11987
G1 X117.829 Y96.443 E2.25373
G1 X108.291 Y96.443 E2.44689
G1 X103.617 Y91.769 E2.58075
G1 X103.617 Y52.231 E3.38147
G1 X108.291 Y47.557 E3.51532
G1 X117.829 Y47.557 E3.70849
G1 X122.503 Y52.231 E3.84234
G1 X122.503 Y63.568 E4.07195
G1 X121.572 Y63.011 E4.09393
G1 X120.668 Y62.583 E4.11418
G1 X119.726 Y62.246 E4.13444
G1 X118.756 Y62.003 E4.15470
G1 X117.766 Y61.856 E4.17496
G1 X116.767 Y61.807 E4.19521
G1 X115.768 Y61.856 E4.21547
G1 X114.779 Y62.003 E4.23573
G1 X113.808 Y62.246 E4.25599
G1 X112.866 Y62.583 E4.27625
G1 X111.813 Y63.081 E4.29983
G1 X111.813 Y62.999 E4.30150
G1 X110.301 Y64.121 E4.33964
G1 X109.560 Y64.792 E4.35990
G1 X108.888 Y65.534 E4.38015
G1 X108.292 Y66.337 E4.40041
G1 X108.126 Y66.614 E4.40695
G1 X107.778 Y67.195 E4.42067
G1 X107.350 Y68.099 E4.44093
G1 X107.013 Y69.041 E4.46118
G1 X106.770 Y70.011 E4.48144
G1 X106.623 Y71.001 E4.50170
G1 X106.574 Y72.000 E4.52196
G1 X106.623 Y72.999 E4.54222
G1 X106.770 Y73.989 E4.56247
G1 X107.013 Y74.959 E4.58273
G1 X107.350 Y75.901 E4.60299
G1 X107.778 Y76.805 E4.62325
G1 X108.292 Y77.663 E4.64350
G1 X108.888 Y78.466 E4.66376
G1 X109.560 Y79.208 E4.68402
G1 X110.301 Y79.879 E4.70428
G1 X111.104 Y80.475 E4.72454
G1 X111.962 Y80.989 E4.74479
G1 X112.866 Y81.417 E4.76505
G1 X113.808 Y81.754 E4.78531
G1 X114.723 Y81.983 E4.80441
G1 F1500.000 E3.80441
G92 E0
G1 X124.052 Y79.122 F6000.000
G1 E1.00000 F1500.000
G1 X124.646 Y78.466 E1.01793 F1320.000
G1 X125.242 Y77.663 E1.03819
G1 X125.757 Y76.805 E1.05844
G1 X126.184 Y75.901 E1.07870
G1 X126.521 Y74.959 E1.09896
G1 X126.764 Y73.989 E1.11922
G1 X126.911 Y72.999 E1.13948
G1 X126.960 Y72.000 E1.15973
G1 X126.911 Y71.001 E1.17999
G1 X126.764 Y70.011 E1.20025
G1 X126.521 Y69.041 E1.22051
G1 X126.184 Y68.099 E1.24076
G1 X125.757 Y67.195 E1.26102
G1 X125.242 Y66.337 E1.28128
G1 X124.646 Y65.534 E1.30154
G1 X124.052 Y64.878 E1.31947
G1 X124.229 Y64.677 E1.32489
G1 X130.081 Y68.815 E1.47003
G1 X130.081 Y75.185 E1.59902
G1 X124.229 Y79.323 E1.74417
G1 X124.090 Y79.165 E1.74843
G1 X122.982 Y80.673 F6000.000
G1 X122.885 Y80.741 E1.75083 F1584.000
G1 X122.885 Y91.928 E1.97737
G1 X117.988 Y96.825 E2.11764
G1 X108.133 Y96.825 E2.31722
G1 X103.235 Y91.928 E2.45748
G1 X103.235 Y52.072 E3.26462
G1 X108.133 Y47.175 E3.40488
G1 X117.988 Y47.175 E3.60446
G1 X122.885 Y52.073 E3.74473
G1 X122.885 Y63.259 E3.97127
G1 X130.463 Y68.617 E4.15923
G1 X130.463 Y75.383 E4.29624
G1 X123.029 Y80.640 E4.48065
G1 X122.874 Y80.623 F6000.000
G1 X122.245 Y81.185 F6000.000
G1 X122.059 Y80.998 E4.48602 F2310.000
G1 X121.719 Y81.202 E4.49409
G1 X122.245 Y81.729 E4.50926
G1 X122.245 Y82.273 E4.52034
G1 X121.352 Y81.379 E4.54609
G1 X120.982 Y81.554 E4.55441
G1 X122.245 Y82.816 E4.59079
G1 X122.245 Y83.360 E4.60187
G1 X120.600 Y81.715 E4.64926
G1 X120.200 Y81.859 E4.65793
G1 X122.245 Y83.904 E4.71687
G1 X122.245 Y84.448 E4.72794
G1 X119.799 Y82.002 E4.79842
G1 X119.364 Y82.111 E4.80756
G1 X122.245 Y84.991 E4.89056
G1 X122.245 Y85.535 E4.90164
G1 X118.929 Y82.220 E4.99718
G1 X118.467 Y82.301 E5.00675
G1 X122.245 Y86.079 E5.11562
G1 X122.245 Y86.623 E5.12669
G1 X117.993 Y82.371 E5.24920
G1 X117.494 Y82.415 E5.25942
G1 X122.245 Y87.166 E5.39631
G1 X122.245 Y87.710 E5.40739
G1 X116.976 Y82.441 E5.55922
G1 X116.425 Y82.434 E5.57044
G1 X122.245 Y88.254 E5.73812
G1 X122.245 Y88.798 E5.74920
G1 X115.853 Y82.406 E5.93337
G1 X115.228 Y82.324 E5.94622
G1 X122.245 Y89.342 E6.14841
G1 X122.245 Y89.885 E6.15949
G1 X114.570 Y82.211 E6.38063
G1 X113.845 Y82.029 E6.39586
G1 X122.245 Y90.429 E6.63790
G1 X122.245 Y90.973 E6.64898
G1 X113.017 Y81.745 E6.91488
G1 X112.040 Y81.311 F6000.000
G1 X122.245 Y91.517 E7.20894 F2310.000
G1 X120.401 Y93.479 F6000.000
G1 X103.875 Y76.953 E7.68512 F2310.000
G1 X103.875 Y76.409 E7.69620
G1 X120.673 Y93.207 E8.18021
G1 X120.945 Y92.935 E8.18804
G1 X103.875 Y75.866 E8.67989
G1 X103.875 Y75.322 E8.69097
G1 X121.217 Y92.664 E9.19065
G1 X121.489 Y92.392 E9.19849
G1 X103.875 Y74.778 E9.70600
G1 X103.875 Y74.234 E9.71708
G1 X121.760 Y92.120 E10.23243
G1 X122.032 Y91.848 E10.24026
G1 X110.626 Y80.442 E10.56892
G1 X108.325 Y78.141 F6000.000
G1 X103.875 Y73.691 E10.69715 F2310.000
G1 X103.875 Y73.147 E10.70823
G1 X107.456 Y76.728 E10.81140
G1 X107.022 Y75.750 F6000.000
G1 X103.875 Y72.603 E10.90209 F2310.000
G1 X103.875 Y72.059 E10.91317
G1 X106.738 Y74.922 E10.99566
G1 X106.556 Y74.197 E11.01090
G1 X103.875 Y71.515 E11.08815
G1 X103.875 Y70.972 E11.09923
G1 X106.443 Y73.539 E11.17322
G1 X106.361 Y72.914 E11.18607
G1 X103.875 Y70.428 E11.25770
G1 X103.875 Y69.884 E11.26877
G1 X106.333 Y72.342 E11.33959
