; generated by Slic3r 1.1.1-dev on 2014-04-06 at 15:57:49

; perimeters extrusion width = 0.50mm
; infill extrusion width = 0.60mm
; solid infill extrusion width = 0.60mm
; top infill extrusion width = 0.43mm

G21 ; set units to millimeters
M107
G28 ; home all axes
G90 ; use absolute coordinates
G92 E0
M82 ; use absolute distances for extrusion
M204 S2000
G1 F1800.000 E-2.00000
G92 E0
G1 Z0.350 F9600.000
G1 X60.468 Y88.258 F9600.000
G1 E2.00000 F1800.000
G1 X62.668 Y87.374 E2.06823 F4500
G1 X64.170 Y87.213 E2.11168
G1 X135.829 Y87.213 E4.17356
G1 X138.167 Y87.610 E4.24179
G1 X140.243 Y88.757 E4.31002
G1 X141.311 Y89.813 E4.35323
G1 X141.594 Y90.160 E4.36611
G1 X142.766 Y92.221 E4.43434
G1 X143.191 Y94.638 E4.50496
G1 X143.191 Y117.678 E5.16789
G1 X142.794 Y120.016 E5.23612
G1 X141.647 Y122.092 E5.30435
G1 X140.232 Y123.435 E5.36049
G1 X139.987 Y123.610 E5.36914
G1 X137.855 Y124.647 E5.43737
G1 X135.868 Y124.932 E5.49513
G1 X64.132 Y124.932 E7.55921
G1 X61.794 Y124.535 E7.62744
G1 X60.013 Y123.610 E7.68520
G1 X59.768 Y123.435 E7.69385
G1 X58.098 Y121.751 E7.76208
G1 X57.078 Y119.611 E7.83031
G1 X56.809 Y117.678 E7.88645
G1 X56.809 Y94.638 E8.54938
G1 X57.206 Y92.301 E8.61761
G1 X58.401 Y90.166 E8.68799
G1 X58.683 Y89.819 E8.70086
G1 X60.412 Y88.308 E8.76693
G1 X60.826 Y88.672 F9600.000
G1 X62.957 Y87.866 E8.83249 F4500
G1 X64.170 Y87.752 E8.86753
G1 X135.829 Y87.752 E10.92941
G1 X138.073 Y88.149 E10.99497
G1 X140.044 Y89.292 E11.06053
G1 X140.893 Y90.154 E11.09534
G1 X141.176 Y90.501 E11.10822
G1 X142.289 Y92.489 E11.17378
G1 X142.652 Y94.638 E11.23649
G1 X142.652 Y117.678 E11.89942
G1 X142.255 Y119.922 E11.96498
G1 X141.112 Y121.893 E12.03054
G1 X139.918 Y122.996 E12.07732
G1 X139.674 Y123.171 E12.08597
G1 X137.618 Y124.154 E12.15153
G1 X135.868 Y124.393 E12.20234
G1 X64.132 Y124.393 E14.26643
G1 X61.888 Y123.996 E14.33199
G1 X60.326 Y123.171 E14.38280
G1 X60.082 Y122.996 E14.39146
G1 X58.488 Y121.368 E14.45701
G1 X57.550 Y119.291 E14.52257
G1 X57.348 Y117.678 E14.56935
G1 X57.348 Y94.638 E15.23229
G1 X57.745 Y92.395 E15.29785
G1 X58.819 Y90.507 E15.36034
G1 X59.101 Y90.160 E15.37321
G1 X60.770 Y88.721 E15.43661
G1 F1800.000 E13.43661
G92 E0
G1 X64.702 Y95.106 F9600.000
G1 E2.00000 F1800.000
G1 X95.759 Y95.106 E2.89364 F4500
G1 X95.759 Y117.039 E3.52472
G1 X64.702 Y117.039 E4.41836
G1 X64.702 Y95.181 E5.04729
G1 X64.162 Y94.567 F9600.000
G1 X96.299 Y94.567 E5.97195 F3375
G1 X96.299 Y117.578 E6.63407
G1 X64.162 Y117.578 E7.55874
G1 X64.162 Y94.642 E8.21870
G1 X64.595 Y94.817 F9600.000
G1 X65.214 Y95.618 F9600.000
G1 X95.247 Y95.618 E8.80099 F4950
G1 X95.247 Y116.527 E9.20637
G1 X65.214 Y116.527 E9.78865
G1 X65.214 Y95.693 E10.19258
G1 X65.754 Y96.159 F9600.000
G1 X94.707 Y96.159 E10.75390 F4950
G1 X94.707 Y115.986 E11.13831
G1 X65.754 Y115.986 E11.69964
G1 X65.754 Y96.234 E12.08260
G1 X66.295 Y96.699 F9600.000
G1 X94.166 Y96.700 E12.62296 F4950
G1 X94.166 Y115.445 E12.98640
G1 X66.295 Y115.445 E13.52676
G1 X66.295 Y96.774 E13.88876
G1 X66.836 Y97.240 F9600.000
G1 X93.625 Y97.240 E14.40815 F4950
G1 X93.625 Y114.905 E14.75064
G1 X66.836 Y114.905 E15.27003
G1 X66.836 Y97.315 E15.61106
G1 X67.376 Y97.781 F9600.000
G1 X93.085 Y97.781 E16.10950 F4950
G1 X93.085 Y114.364 E16.43101
G1 X67.376 Y114.364 E16.92945
G1 X67.376 Y97.856 E17.24951
G1 X67.917 Y98.321 F9600.000
G1 X92.544 Y98.321 E17.72698 F4950
G1 X92.544 Y113.824 E18.02754
G1 X67.917 Y113.824 E18.50500
G1 X67.917 Y98.396 E18.80411
G1 X68.458 Y98.862 F9600.000
G1 X92.003 Y98.862 E19.26061 F4950
G1 X92.003 Y113.283 E19.54020
G1 X68.458 Y113.283 E19.99671
G1 X68.458 Y98.937 E20.27484
G1 X68.998 Y99.403 F9600.000
G1 X91.463 Y99.403 E20.71038 F4950
G1 X91.463 Y112.742 E20.96901
G1 X68.998 Y112.742 E21.40455
G1 X68.998 Y99.478 E21.66173
G1 X69.539 Y99.943 F9600.000
G1 X90.922 Y99.943 E22.07630 F4950
G1 X90.922 Y112.202 E22.31396
G1 X69.539 Y112.202 E22.72854
G1 X69.539 Y100.018 E22.96475
G1 X70.080 Y100.484 F9600.000
G1 X90.381 Y100.484 E23.35836 F4950
G1 X90.381 Y111.661 E23.57506
G1 X70.080 Y111.661 E23.96867
G1 X70.080 Y100.559 E24.18392
G1 X70.620 Y101.025 F9600.000
G1 X89.841 Y101.025 E24.55657 F4950
G1 X89.841 Y111.120 E24.75230
G1 X70.620 Y111.120 E25.12495
G1 X70.620 Y101.100 E25.31923
G1 X71.161 Y101.565 F9600.000
G1 X89.300 Y101.565 E25.67092 F4950
G1 X89.300 Y110.580 E25.84569
G1 X71.161 Y110.580 E26.19737
G1 X71.161 Y101.640 E26.37069
G1 X71.702 Y102.106 F9600.000
G1 X88.759 Y102.106 E26.70141 F4950
G1 X88.759 Y110.039 E26.85522
G1 X71.702 Y110.039 E27.18594
G1 X71.702 Y102.181 E27.33829
G1 X72.242 Y102.647 F9600.000
G1 X88.219 Y102.647 E27.64805 F4950
G1 X88.219 Y109.498 E27.78089
G1 X72.242 Y109.498 E28.09064
G1 X72.242 Y102.722 E28.22204
G1 X72.783 Y103.187 F9600.000
G1 X87.678 Y103.187 E28.51083 F4950
G1 X87.678 Y108.958 E28.62271
G1 X72.783 Y108.958 E28.91150
G1 X72.783 Y103.262 E29.02192
G1 X73.323 Y103.728 F9600.000
G1 X87.138 Y103.728 E29.28975 F4950
G1 X87.138 Y108.417 E29.38067
G1 X73.323 Y108.417 E29.64849
G1 X73.323 Y103.803 E29.73796
G1 X73.864 Y104.268 F9600.000
G1 X86.597 Y104.269 E29.98482 F4950
G1 X86.597 Y107.876 E30.05477
G1 X73.864 Y107.876 E30.30163
G1 X73.864 Y104.343 E30.37013
G1 X74.405 Y104.809 F9600.000
G1 X86.056 Y104.809 E30.59603 F4950
G1 X86.056 Y107.336 E30.64502
G1 X74.405 Y107.336 E30.87092
G1 X74.405 Y104.884 E30.91845
G1 X74.945 Y105.350 F9600.000
G1 X85.516 Y105.350 E31.12339 F4950
G1 X85.516 Y106.795 E31.15141
G1 X74.945 Y106.795 E31.35635
G1 X74.945 Y105.425 E31.38292
G1 F1800.000 E29.38292
G92 E0
G1 X104.240 Y95.106 F9600.000
G1 E2.00000 F1800.000
G1 X135.298 Y95.106 E2.89364 F4500
G1 X135.298 Y117.039 E3.52472
G1 X104.240 Y117.039 E4.41836
G1 X104.240 Y95.181 E5.04729
G1 X103.701 Y94.567 F9600.000
G1 X135.838 Y94.567 E5.97195 F3375
G1 X135.838 Y117.578 E6.63407
G1 X103.701 Y117.578 E7.55874
G1 X103.701 Y94.642 E8.21870
G1 X104.134 Y94.817 F9600.000
G1 X104.753 Y95.618 F9600.000
G1 X134.786 Y95.618 E8.80099 F4950
G1 X134.786 Y116.527 E9.20637
G1 X104.753 Y116.527 E9.78865
G1 X104.753 Y95.693 E10.19258
G1 X105.293 Y96.159 F9600.000
G1 X134.245 Y96.159 E10.75390 F4950
G1 X134.245 Y115.986 E11.13831
G1 X105.293 Y115.986 E11.69964
G1 X105.293 Y96.234 E12.08260
G1 X105.834 Y96.699 F9600.000
G1 X133.705 Y96.700 E12.62296 F4950
G1 X133.705 Y115.445 E12.98640
G1 X105.834 Y115.445 E13.52676
G1 X105.834 Y96.774 E13.88876
G1 X106.375 Y97.240 F9600.000
G1 X133.164 Y97.240 E14.40815 F4950
G1 X133.164 Y114.905 E14.75064
G1 X106.375 Y114.905 E15.27003
G1 X106.375 Y97.315 E15.61106
G1 X106.915 Y97.781 F9600.000
G1 X132.624 Y97.781 E16.10950 F4950
G1 X132.624 Y114.364 E16.43101
G1 X106.915 Y114.364 E16.92945
G1 X106.915 Y97.856 E17.24951
G1 X107.456 Y98.321 F9600.000
G1 X132.083 Y98.321 E17.72698 F4950
G1 X132.083 Y113.824 E18.02754
G1 X107.456 Y113.824 E18.50500
G1 X107.456 Y98.396 E18.80411
G1 X107.997 Y98.862 F9600.000
G1 X131.542 Y98.862 E19.26061 F4950
G1 X131.542 Y113.283 E19.54020
G1 X107.997 Y113.283 E19.99671
G1 X107.997 Y98.937 E20.27484
G1 X108.537 Y99.403 F9600.000
G1 X131.002 Y99.403 E20.71038 F4950
G1 X131.002 Y112.742 E20.96901
G1 X108.537 Y112.742 E21.40455
G1 X108.537 Y99.478 E21.66173
G1 X109.078 Y99.943 F9600.000
G1 X130.461 Y99.943 E22.07630 F4950
G1 X130.461 Y112.202 E22.31396
G1 X109.078 Y112.202 E22.72854
G1 X109.078 Y100.018 E22.96475
G1 X109.619 Y100.484 F9600.000
G1 X129.920 Y100.484 E23.35836 F4950
G1 X129.920 Y111.661 E23.57506
G1 X109.619 Y111.661 E23.96867
G1 X109.619 Y100.559 E24.18392
G1 X110.159 Y101.025 F9600.000
G1 X129.380 Y101.025 E24.55657 F4950
G1 X129.380 Y111.120 E24.75230
G1 X110.159 Y111.120 E25.12495
G1 X110.159 Y101.100 E25.31923
G1 X110.700 Y101.565 F9600.000
G1 X128.839 Y101.565 E25.67092 F4950
G1 X128.839 Y110.580 E25.84569
G1 X110.700 Y110.580 E26.19737
G1 X110.700 Y101.640 E26.37069
G1 X111.240 Y102.106 F9600.000
G1 X128.298 Y102.106 E26.70141 F4950
G1 X128.298 Y110.039 E26.85522
G1 X111.240 Y110.039 E27.18594
G1 X111.240 Y102.181 E27.33829
G1 X111.781 Y102.647 F9600.000
G1 X127.758 Y102.647 E27.64805 F4950
G1 X127.758 Y109.498 E27.78089
G1 X111.781 Y109.498 E28.09064
G1 X111.781 Y102.722 E28.22204
G1 X112.322 Y103.187 F9600.000
G1 X127.217 Y103.187 E28.51083 F4950
G1 X127.217 Y108.958 E28.62271
G1 X112.322 Y108.958 E28.91150
G1 X112.322 Y103.262 E29.02192
G1 X112.862 Y103.728 F9600.000
G1 X126.676 Y103.728 E29.28975 F4950
G1 X126.676 Y108.417 E29.38067
G1 X112.862 Y108.417 E29.64849
G1 X112.862 Y103.803 E29.73796
G1 X113.403 Y104.268 F9600.000
G1 X126.136 Y104.269 E29.98482 F4950
G1 X126.136 Y107.876 E30.05477
G1 X113.403 Y107.876 E30.30163
G1 X113.403 Y104.343 E30.37013
G1 X113.944 Y104.809 F9600.000
G1 X125.595 Y104.809 E30.59603 F4950
G1 X125.595 Y107.336 E30.64502
G1 X113.944 Y107.336 E30.87092
G1 X113.944 Y104.884 E30.91845
G1 X114.484 Y105.350 F9600.000
G1 X125.055 Y105.350 E31.12339 F4950
G1 X125.055 Y106.795 E31.15141
G1 X114.484 Y106.795 E31.35635
G1 X114.484 Y105.425 E31.38292
M204 S2000
G1 F1800.000 E29.38292
G92 E0
G1 Z0.700 F9600.000
G1 X96.250 Y94.900 F9600.000
G1 E2.00000 F1800.000
M204 S1200
G1 X96.250 Y117.408 E2.60048 F6000
G1 X64.211 Y117.408 E3.45521
G1 X64.211 Y94.899 E4.05571
G1 X64.556 Y94.521 E4.06937
G1 X95.903 Y94.521 E4.90564
G1 X96.199 Y94.845 E4.91735
M204 S2000
G1 X96.750 Y94.706 F9600.000
M204 S1200
G1 X96.750 Y117.550 E5.52678 F4500
G1 X96.249 Y117.908 E5.54322
G1 X64.212 Y117.908 E6.39790
G1 X63.711 Y117.550 E6.41433
G1 X63.711 Y94.705 E7.02377
G1 X64.336 Y94.021 E7.04850
G1 X96.123 Y94.021 E7.89653
G1 X96.699 Y94.650 E7.91930
M204 S2000
G1 X96.391 Y95.054 F9600.000
G1 X95.890 Y117.008 F9600.000
M204 S2000
G1 X95.850 Y117.048 E7.92049 F6600
G1 X95.030 Y117.048 E7.93771
G1 X95.890 Y116.189 E7.96326
G1 X95.890 Y115.369 E7.98049
G1 X94.211 Y117.048 E8.03040
G1 X93.391 Y117.048 E8.04763
G1 X95.890 Y114.549 E8.12190
G1 X95.890 Y113.730 E8.13912
G1 X92.572 Y117.048 E8.23776
G1 X91.752 Y117.048 E8.25498
G1 X95.890 Y112.910 E8.37798
G1 X95.890 Y112.091 E8.39520
G1 X90.932 Y117.048 E8.54256
G1 X90.113 Y117.048 E8.55979
G1 X95.890 Y111.271 E8.73150
G1 X95.890 Y110.452 E8.74873
G1 X89.293 Y117.048 E8.94481
G1 X88.474 Y117.048 E8.96203
G1 X95.890 Y109.632 E9.18247
G1 X95.890 Y108.812 E9.19970
G1 X87.654 Y117.048 E9.44450
G1 X86.834 Y117.048 E9.46172
G1 X95.890 Y107.993 E9.73089
G1 X95.890 Y107.173 E9.74811
G1 X86.015 Y117.048 E10.04163
G1 X85.195 Y117.048 E10.05886
G1 X95.890 Y106.354 E10.37674
G1 X95.890 Y105.534 E10.39397
G1 X84.376 Y117.048 E10.73621
G1 X83.556 Y117.048 E10.75344
G1 X95.890 Y104.714 E11.12005
G1 X95.890 Y103.895 E11.13727
G1 X82.736 Y117.048 E11.52824
G1 X81.917 Y117.048 E11.54547
G1 X95.890 Y103.075 E11.96079
G1 X95.890 Y102.256 E11.97802
G1 X81.097 Y117.048 E12.41771
G1 X80.278 Y117.048 E12.43494
G1 X95.890 Y101.436 E12.89899
G1 X95.890 Y100.616 E12.91621
G1 X79.458 Y117.048 E13.40462
G1 X78.639 Y117.048 E13.42185
G1 X95.890 Y99.797 E13.93462
G1 X95.890 Y98.977 E13.95185
G1 X77.819 Y117.048 E14.48898
G1 X76.999 Y117.048 E14.50621
G1 X95.890 Y98.158 E15.06770
G1 X95.890 Y97.338 E15.08493
G1 X76.180 Y117.048 E15.67079
G1 X75.360 Y117.048 E15.68801
G1 X95.890 Y96.519 E16.29823
G1 X95.890 Y95.699 E16.31546
G1 X74.541 Y117.048 E16.95003
G1 X73.721 Y117.048 E16.96726
G1 X95.802 Y94.967 E17.62359
G1 X95.069 Y94.881 E17.63911
G1 X72.901 Y117.048 E18.29800
G1 X72.082 Y117.048 E18.31523
G1 X94.249 Y94.881 E18.97412
G1 X93.430 Y94.881 E18.99134
G1 X71.262 Y117.048 E19.65024
G1 X70.443 Y117.048 E19.66746
G1 X92.610 Y94.881 E20.32635
G1 X91.790 Y94.881 E20.34358
G1 X69.623 Y117.048 E21.00247
G1 X68.804 Y117.048 E21.01970
G1 X90.971 Y94.881 E21.67859
G1 X90.151 Y94.881 E21.69582
G1 X67.984 Y117.048 E22.35471
G1 X67.164 Y117.048 E22.37194
G1 X89.332 Y94.881 E23.03083
G1 X88.512 Y94.881 E23.04805
G1 X66.345 Y117.048 E23.70695
G1 X65.525 Y117.048 E23.72417
G1 X87.692 Y94.881 E24.38307
G1 X86.873 Y94.881 E24.40029
G1 X64.706 Y117.048 E25.05918
G1 X64.571 Y116.363 E25.07386
G1 X86.053 Y94.881 E25.71239
G1 X85.234 Y94.881 E25.72961
G1 X64.571 Y115.543 E26.34378
G1 X64.571 Y114.724 E26.36100
G1 X84.414 Y94.881 E26.95081
G1 X83.595 Y94.881 E26.96803
G1 X64.571 Y113.904 E27.53348
G1 X64.571 Y113.085 E27.55070
G1 X82.775 Y94.881 E28.09179
G1 X81.955 Y94.881 E28.10901
G1 X64.571 Y112.265 E28.62573
G1 X64.571 Y111.445 E28.64296
G1 X81.136 Y94.881 E29.13532
G1 X80.316 Y94.881 E29.15255
G1 X64.571 Y110.626 E29.62055
G1 X64.571 Y109.806 E29.63777
G1 X79.497 Y94.881 E30.08141
G1 X78.677 Y94.881 E30.09864
G1 X64.571 Y108.987 E30.51791
G1 X64.571 Y108.167 E30.53514
G1 X77.857 Y94.881 E30.93005
G1 X77.038 Y94.881 E30.94728
G1 X64.571 Y107.348 E31.31783
G1 X64.571 Y106.528 E31.33506
G1 X76.218 Y94.881 E31.68125
G1 X75.399 Y94.881 E31.69848
G1 X64.571 Y105.708 E32.02031
G1 X64.571 Y104.889 E32.03754
G1 X74.579 Y94.881 E32.33501
G1 X73.760 Y94.881 E32.35224
G1 X64.571 Y104.069 E32.62535
G1 X64.571 Y103.250 E32.64257
G1 X72.940 Y94.881 E32.89132
G1 X72.120 Y94.881 E32.90855
G1 X64.571 Y102.430 E33.13294
G1 X64.571 Y101.610 E33.15016
G1 X71.301 Y94.881 E33.35019
G1 X70.481 Y94.881 E33.36741
G1 X64.571 Y100.791 E33.54308
G1 X64.571 Y99.971 E33.56031
G1 X69.662 Y94.881 E33.71161
G1 X68.842 Y94.881 E33.72884
G1 X64.571 Y99.152 E33.85578
G1 X64.571 Y98.332 E33.87301
G1 X68.022 Y94.881 E33.97559
G1 X67.203 Y94.881 E33.99282
G1 X64.571 Y97.513 E34.07104
G1 X64.571 Y96.693 E34.08826
G1 X66.383 Y94.881 E34.14212
G1 X65.564 Y94.881 E34.15935
G1 X64.571 Y95.873 E34.18885
G1 X64.571 Y95.054 E34.20607
G1 X64.744 Y94.881 E34.21121
M204 S2000
G1 F1800.000 E32.21121
G92 E0
G1 X103.750 Y94.899 F9600.000
G1 E2.00000 F1800.000
M204 S1200
G1 X104.095 Y94.521 E2.01367 F6000
G1 X135.442 Y94.521 E2.84994
G1 X135.789 Y94.900 E2.86365
G1 X135.789 Y117.408 E3.46412
G1 X103.750 Y117.408 E4.31885
G1 X103.750 Y94.974 E4.91735
M204 S2000
G1 X103.250 Y94.705 F9600.000
M204 S1200
G1 X103.875 Y94.021 E4.94207 F4500
G1 X135.662 Y94.021 E5.79011
G1 X136.289 Y94.706 E5.81487
G1 X136.289 Y117.550 E6.42431
G1 X135.788 Y117.908 E6.44074
G1 X103.751 Y117.908 E7.29542
G1 X103.250 Y117.550 E7.31186
G1 X103.250 Y94.780 E7.91930
M204 S2000
G1 X103.750 Y94.690 F9600.000
G1 X104.283 Y94.881 F9600.000
M204 S2000
G1 X104.110 Y95.054 E7.92444 F6600
G1 X104.110 Y95.873 E7.94166
G1 X105.103 Y94.881 E7.97116
G1 X105.922 Y94.881 E7.98839
G1 X104.110 Y96.693 E8.04225
G1 X104.110 Y97.513 E8.05947
G1 X106.742 Y94.881 E8.13769
G1 X107.561 Y94.881 E8.15492
G1 X104.110 Y98.332 E8.25750
G1 X104.110 Y99.152 E8.27473
G1 X108.381 Y94.881 E8.40167
G1 X109.201 Y94.881 E8.41890
G1 X104.110 Y99.971 E8.57020
G1 X104.110 Y100.791 E8.58743
G1 X110.020 Y94.881 E8.76310
G1 X110.840 Y94.881 E8.78032
G1 X104.110 Y101.610 E8.98035
G1 X104.110 Y102.430 E8.99757
G1 X111.659 Y94.881 E9.22196
G1 X112.479 Y94.881 E9.23919
G1 X104.110 Y103.250 E9.48794
G1 X104.110 Y104.069 E9.50516
G1 X113.298 Y94.881 E9.77827
G1 X114.118 Y94.881 E9.79550
G1 X104.110 Y104.889 E10.09297
G1 X104.110 Y105.708 E10.11020
G1 X114.938 Y94.881 E10.43203
G1 X115.757 Y94.881 E10.44926
G1 X104.110 Y106.528 E10.79545
G1 X104.110 Y107.348 E10.81268
G1 X116.577 Y94.881 E11.18323
G1 X117.396 Y94.881 E11.20046
G1 X104.110 Y108.167 E11.59537
G1 X104.110 Y108.987 E11.61260
G1 X118.216 Y94.881 E12.03187
G1 X119.036 Y94.881 E12.04910
G1 X104.110 Y109.806 E12.49274
G1 X104.110 Y110.626 E12.50996
G1 X119.855 Y94.881 E12.97796
G1 X120.675 Y94.881 E12.99519
G1 X104.110 Y111.445 E13.48755
G1 X104.110 Y112.265 E13.50478
G1 X121.494 Y94.881 E14.02150
G1 X122.314 Y94.881 E14.03872
G1 X104.110 Y113.085 E14.57981
G1 X104.110 Y113.904 E14.59703
G1 X123.133 Y94.881 E15.16248
G1 X123.953 Y94.881 E15.17970
G1 X104.110 Y114.724 E15.76951
G1 X104.110 Y115.543 E15.78673
G1 X124.773 Y94.881 E16.40090
G1 X125.592 Y94.881 E16.41812
G1 X104.110 Y116.363 E17.05665
G1 X104.245 Y117.048 E17.07133
G1 X126.412 Y94.881 E17.73022
G1 X127.231 Y94.881 E17.74744
G1 X105.064 Y117.048 E18.40634
G1 X105.884 Y117.048 E18.42356
G1 X128.051 Y94.881 E19.08246
G1 X128.871 Y94.881 E19.09968
G1 X106.703 Y117.048 E19.75857
G1 X107.523 Y117.048 E19.77580
G1 X129.690 Y94.881 E20.43469
G1 X130.510 Y94.881 E20.45192
