; generated by Slic3r 1.1.1-dev on 2014-05-01 at 13:39:50

; perimeters extrusion width = 0.50mm
; infill extrusion width = 0.60mm
; solid infill extrusion width = 0.60mm
; top infill extrusion width = 0.43mm

G21 ; set units to millimeters
M107
G28 ; home all axes
G90 ; use absolute coordinates
G92 E0
M82 ; use absolute distances for extrusion
M204 S2000
G1 F1800.000 E-2.00000
G92 E0
G1 Z0.350 F9600.000
G1 X54.676 Y90.364 F9600.000
G1 E2.00000 F1800.000
G1 X56.810 Y89.330 E2.06823 F4500
G1 X58.785 Y89.049 E2.12563
G1 X141.215 Y89.049 E4.49741
G1 X143.553 Y89.446 E4.56563
G1 X145.628 Y90.593 E4.63386
G1 X147.208 Y92.361 E4.70209
G1 X148.021 Y94.183 E4.75949
G1 X148.056 Y94.305 E4.76315
G1 X148.329 Y96.250 E4.81966
G1 X148.329 Y121.250 E5.53899
G1 X147.931 Y123.588 E5.60722
G1 X146.784 Y125.663 E5.67544
G1 X145.016 Y127.243 E5.74367
G1 X142.826 Y128.151 E5.81190
G1 X141.250 Y128.329 E5.85753
G1 X58.750 Y128.329 E8.23132
G1 X56.412 Y127.931 E8.29955
G1 X54.337 Y126.784 E8.36778
G1 X52.757 Y125.016 E8.43600
G1 X51.849 Y122.826 E8.50423
G1 X51.671 Y121.250 E8.54986
G1 X51.671 Y96.250 E9.26919
G1 X51.944 Y94.305 E9.32569
G1 X51.979 Y94.183 E9.32935
G1 X53.003 Y92.044 E9.39758
G1 X54.623 Y90.417 E9.46365
G1 X55.136 Y90.701 F9600.000
G1 X57.219 Y89.779 E9.52921 F4500
G1 X58.785 Y89.588 E9.57461
G1 X141.215 Y89.588 E11.94638
G1 X143.459 Y89.985 E12.01194
G1 X145.430 Y91.128 E12.07750
G1 X146.889 Y92.877 E12.14306
G1 X147.503 Y94.331 E12.18845
G1 X147.538 Y94.453 E12.19212
G1 X147.789 Y96.250 E12.24432
G1 X147.789 Y121.250 E12.96365
G1 X147.392 Y123.494 E13.02921
G1 X146.250 Y125.465 E13.09476
G1 X144.500 Y126.924 E13.16032
G1 X141.250 Y127.789 E13.25709
G1 X58.750 Y127.789 E15.63088
G1 X56.506 Y127.392 E15.69644
G1 X54.535 Y126.250 E15.76200
G1 X53.076 Y124.500 E15.82756
G1 X52.211 Y121.250 E15.92433
G1 X52.211 Y96.250 E16.64366
G1 X52.462 Y94.454 E16.69586
G1 X52.497 Y94.331 E16.69952
G1 X53.495 Y92.283 E16.76508
G1 X55.082 Y90.753 E16.82848
G1 F1800.000 E14.82848
G92 E0
G1 X108.064 Y96.942 F9600.000
G1 E2.00000 F1800.000
G1 X140.436 Y96.942 E2.93143 F4500
G1 X140.436 Y120.436 E3.60743
G1 X108.064 Y120.436 E4.53886
G1 X108.064 Y97.017 E5.21270
G1 X107.525 Y96.402 F9600.000
G1 X140.975 Y96.402 E6.17516 F3375
G1 X140.975 Y120.975 E6.88219
G1 X107.525 Y120.975 E7.84466
G1 X107.525 Y96.477 E8.54953
G1 X107.958 Y96.652 F9600.000
G1 F1800.000 E6.54953
G92 E0
G1 X108.475 Y120.065 F9600.000
G1 E2.00000 F1800.000
G1 X108.435 Y120.025 E2.00110 F4950
G1 X108.435 Y119.260 E2.01593
G1 X109.240 Y120.065 E2.03801
G1 X110.005 Y120.065 E2.05284
G1 X108.435 Y118.495 E2.09589
G1 X108.435 Y117.730 E2.11072
G1 X110.770 Y120.065 E2.17475
G1 X111.534 Y120.065 E2.18959
G1 X108.435 Y116.966 E2.27460
G1 X108.435 Y116.201 E2.28943
G1 X112.299 Y120.065 E2.39541
G1 X113.064 Y120.065 E2.41025
G1 X108.435 Y115.436 E2.53721
G1 X108.435 Y114.671 E2.55204
G1 X113.829 Y120.065 E2.69998
G1 X114.594 Y120.065 E2.71482
G1 X108.435 Y113.906 E2.88373
G1 X108.435 Y113.141 E2.89857
G1 X115.359 Y120.065 E3.08846
G1 X116.123 Y120.065 E3.10330
G1 X108.435 Y112.377 E3.31417
G1 X108.435 Y111.612 E3.32900
G1 X116.888 Y120.065 E3.56085
G1 X117.653 Y120.065 E3.57569
G1 X108.435 Y110.847 E3.82851
G1 X108.435 Y110.082 E3.84335
G1 X118.418 Y120.065 E4.11715
G1 X119.183 Y120.065 E4.13199
G1 X108.435 Y109.317 E4.42677
G1 X108.435 Y108.553 E4.44160
G1 X119.947 Y120.065 E4.75736
G1 X120.712 Y120.065 E4.77220
G1 X108.435 Y107.788 E5.10894
G1 X108.435 Y107.023 E5.12377
G1 X121.477 Y120.065 E5.48148
G1 X122.242 Y120.065 E5.49632
G1 X108.435 Y106.258 E5.87501
G1 X108.435 Y105.493 E5.88985
G1 X123.007 Y120.065 E6.28952
G1 X123.771 Y120.065 E6.30435
G1 X108.435 Y104.729 E6.72500
G1 X108.435 Y103.964 E6.73983
G1 X124.536 Y120.065 E7.18146
G1 X125.301 Y120.065 E7.19629
G1 X108.435 Y103.199 E7.65889
G1 X108.435 Y102.434 E7.67373
G1 X126.066 Y120.065 E8.15731
G1 X126.831 Y120.065 E8.17214
G1 X108.435 Y101.669 E8.67670
G1 X108.435 Y100.904 E8.69154
G1 X127.596 Y120.065 E9.21707
G1 X128.360 Y120.065 E9.23190
G1 X108.435 Y100.140 E9.77842
G1 X108.435 Y99.375 E9.79325
G1 X129.125 Y120.065 E10.36074
G1 X129.890 Y120.065 E10.37558
G1 X108.435 Y98.610 E10.96405
G1 X108.435 Y97.845 E10.97888
G1 X130.655 Y120.065 E11.58833
G1 X131.420 Y120.065 E11.60316
G1 X108.668 Y97.313 E12.22721
G1 X109.432 Y97.313 E12.24205
G1 X132.184 Y120.065 E12.86610
G1 X132.949 Y120.065 E12.88093
G1 X110.197 Y97.313 E13.50499
G1 X110.962 Y97.313 E13.51982
G1 X133.714 Y120.065 E14.14387
G1 X134.479 Y120.065 E14.15871
G1 X111.727 Y97.313 E14.78276
G1 X112.492 Y97.313 E14.79759
G1 X135.244 Y120.065 E15.42164
G1 X136.008 Y120.065 E15.43648
G1 X113.256 Y97.313 E16.06053
G1 X114.021 Y97.313 E16.07536
G1 X136.773 Y120.065 E16.69942
G1 X137.538 Y120.065 E16.71425
G1 X114.786 Y97.313 E17.33830
G1 X115.551 Y97.313 E17.35314
G1 X138.303 Y120.065 E17.97719
G1 X139.068 Y120.065 E17.99202
G1 X116.316 Y97.313 E18.61608
G1 X117.080 Y97.313 E18.63091
G1 X139.832 Y120.065 E19.25496
G1 X140.065 Y119.532 E19.26623
G1 X117.845 Y97.313 E19.87568
G1 X118.610 Y97.313 E19.89051
G1 X140.065 Y118.767 E20.47898
G1 X140.065 Y118.003 E20.49381
G1 X119.375 Y97.313 E21.06131
G1 X120.140 Y97.313 E21.07614
G1 X140.065 Y117.238 E21.62265
G1 X140.065 Y116.473 E21.63749
G1 X120.904 Y97.313 E22.16302
G1 X121.669 Y97.313 E22.17786
G1 X140.065 Y115.708 E22.68241
G1 X140.065 Y114.943 E22.69725
G1 X122.434 Y97.313 E23.18083
G1 X123.199 Y97.313 E23.19566
G1 X140.065 Y114.179 E23.65827
G1 X140.065 Y113.414 E23.67310
G1 X123.964 Y97.313 E24.11473
G1 X124.729 Y97.313 E24.12956
G1 X140.065 Y112.649 E24.55021
G1 X140.065 Y111.884 E24.56504
G1 X125.493 Y97.313 E24.96471
G1 X126.258 Y97.313 E24.97955
G1 X140.065 Y111.119 E25.35824
G1 X140.065 Y110.355 E25.37307
G1 X127.023 Y97.313 E25.73079
G1 X127.788 Y97.313 E25.74562
G1 X140.065 Y109.590 E26.08236
G1 X140.065 Y108.825 E26.09719
G1 X128.553 Y97.313 E26.41295
G1 X129.317 Y97.313 E26.42779
G1 X140.065 Y108.060 E26.72257
G1 X140.065 Y107.295 E26.73740
G1 X130.082 Y97.313 E27.01121
G1 X130.847 Y97.313 E27.02604
G1 X140.065 Y106.530 E27.27887
G1 X140.065 Y105.766 E27.29370
G1 X131.612 Y97.313 E27.52555
G1 X132.377 Y97.313 E27.54039
G1 X140.065 Y105.001 E27.75126
G1 X140.065 Y104.236 E27.76609
G1 X133.141 Y97.313 E27.95599
G1 X133.906 Y97.313 E27.97082
G1 X140.065 Y103.471 E28.13974
G1 X140.065 Y102.706 E28.15457
G1 X134.671 Y97.313 E28.30251
G1 X135.436 Y97.313 E28.31735
G1 X140.065 Y101.942 E28.44431
G1 X140.065 Y101.177 E28.45914
G1 X136.201 Y97.313 E28.56513
G1 X136.966 Y97.313 E28.57996
G1 X140.065 Y100.412 E28.66497
G1 X140.065 Y99.647 E28.67980
G1 X137.730 Y97.313 E28.74383
G1 X138.495 Y97.313 E28.75867
G1 X140.065 Y98.882 E28.80172
G1 X140.065 Y98.118 E28.81655
G1 X139.260 Y97.313 E28.83863
G1 X140.025 Y97.313 E28.85346
G1 X140.065 Y97.353 E28.85456
G1 F1800.000 E26.85456
G92 E0
G1 X91.936 Y96.942 F9600.000
G1 E2.00000 F1800.000
G1 X91.936 Y120.436 E2.67600 F4500
G1 X59.564 Y120.436 E3.60743
G1 X59.564 Y96.942 E4.28343
G1 X91.861 Y96.942 E5.21270
G1 X92.475 Y96.402 F9600.000
G1 X92.475 Y120.975 E5.91973 F3375
G1 X59.025 Y120.975 E6.88219
G1 X59.025 Y96.402 E7.58922
G1 X92.400 Y96.402 E8.54953
G1 X92.225 Y96.836 F9600.000
G1 X91.565 Y97.353 F9600.000
G1 X91.525 Y97.313 E8.55063 F4950
G1 X90.760 Y97.313 E8.56546
G1 X91.565 Y98.118 E8.58754
G1 X91.565 Y98.882 E8.60237
G1 X89.995 Y97.313 E8.64542
G1 X89.230 Y97.313 E8.66026
G1 X91.565 Y99.647 E8.72429
G1 X91.565 Y100.412 E8.73912
G1 X88.466 Y97.313 E8.82413
G1 X87.701 Y97.313 E8.83896
G1 X91.565 Y101.177 E8.94494
G1 X91.565 Y101.942 E8.95978
G1 X86.936 Y97.313 E9.08674
G1 X86.171 Y97.313 E9.10157
G1 X91.565 Y102.706 E9.24951
G1 X91.565 Y103.471 E9.26435
G1 X85.406 Y97.313 E9.43327
G1 X84.641 Y97.313 E9.44810
G1 X91.565 Y104.236 E9.63799
G1 X91.565 Y105.001 E9.65283
G1 X83.877 Y97.313 E9.86370
G1 X83.112 Y97.313 E9.87853
G1 X91.565 Y105.766 E10.11038
G1 X91.565 Y106.530 E10.12522
G1 X82.347 Y97.313 E10.37805
G1 X81.582 Y97.313 E10.39288
G1 X91.565 Y107.295 E10.66668
G1 X91.565 Y108.060 E10.68152
G1 X80.817 Y97.313 E10.97630
G1 X80.053 Y97.313 E10.99113
G1 X91.565 Y108.825 E11.30689
G1 X91.565 Y109.590 E11.32173
G1 X79.288 Y97.313 E11.65847
G1 X78.523 Y97.313 E11.67330
G1 X91.565 Y110.355 E12.03102
G1 X91.565 Y111.119 E12.04585
G1 X77.758 Y97.313 E12.42454
G1 X76.993 Y97.313 E12.43938
G1 X91.565 Y111.884 E12.83905
G1 X91.565 Y112.649 E12.85388
G1 X76.229 Y97.313 E13.27453
G1 X75.464 Y97.313 E13.28936
G1 X91.565 Y113.414 E13.73099
G1 X91.565 Y114.179 E13.74582
G1 X74.699 Y97.313 E14.20843
G1 X73.934 Y97.313 E14.22326
G1 X91.565 Y114.943 E14.70684
G1 X91.565 Y115.708 E14.72167
G1 X73.169 Y97.313 E15.22623
G1 X72.404 Y97.313 E15.24107
G1 X91.565 Y116.473 E15.76660
G1 X91.565 Y117.238 E15.78144
G1 X71.640 Y97.313 E16.32795
G1 X70.875 Y97.313 E16.34278
G1 X91.565 Y118.003 E16.91027
G1 X91.565 Y118.767 E16.92511
G1 X70.110 Y97.313 E17.51358
G1 X69.345 Y97.313 E17.52841
G1 X91.565 Y119.532 E18.13786
G1 X91.332 Y120.065 E18.14912
G1 X68.580 Y97.313 E18.77318
G1 X67.816 Y97.313 E18.78801
G1 X90.568 Y120.065 E19.41206
G1 X89.803 Y120.065 E19.42690
G1 X67.051 Y97.313 E20.05095
G1 X66.286 Y97.313 E20.06578
G1 X89.038 Y120.065 E20.68984
G1 X88.273 Y120.065 E20.70467
G1 X65.521 Y97.313 E21.32872
G1 X64.756 Y97.313 E21.34356
G1 X87.508 Y120.065 E21.96761
G1 X86.744 Y120.065 E21.98244
G1 X63.992 Y97.313 E22.60650
G1 X63.227 Y97.313 E22.62133
G1 X85.979 Y120.065 E23.24538
G1 X85.214 Y120.065 E23.26022
G1 X62.462 Y97.313 E23.88427
G1 X61.697 Y97.313 E23.89910
G1 X84.449 Y120.065 E24.52316
G1 X83.684 Y120.065 E24.53799
G1 X60.932 Y97.313 E25.16204
G1 X60.168 Y97.313 E25.17687
G1 X82.920 Y120.065 E25.80093
G1 X82.155 Y120.065 E25.81576
G1 X59.935 Y97.845 E26.42521
G1 X59.935 Y98.610 E26.44004
G1 X81.390 Y120.065 E27.02851
G1 X80.625 Y120.065 E27.04334
G1 X59.935 Y99.375 E27.61084
G1 X59.935 Y100.140 E27.62567
G1 X79.860 Y120.065 E28.17218
G1 X79.096 Y120.065 E28.18702
G1 X59.935 Y100.904 E28.71255
G1 X59.935 Y101.669 E28.72739
G1 X78.331 Y120.065 E29.23194
G1 X77.566 Y120.065 E29.24678
G1 X59.935 Y102.434 E29.73036
G1 X59.935 Y103.199 E29.74519
G1 X76.801 Y120.065 E30.20780
G1 X76.036 Y120.065 E30.22263
G1 X59.935 Y103.964 E30.66426
G1 X59.935 Y104.729 E30.67909
G1 X75.271 Y120.065 E31.09974
G1 X74.507 Y120.065 E31.11457
G1 X59.935 Y105.493 E31.51424
G1 X59.935 Y106.258 E31.52908
G1 X73.742 Y120.065 E31.90777
G1 X72.977 Y120.065 E31.92260
G1 X59.935 Y107.023 E32.28032
G1 X59.935 Y107.788 E32.29515
G1 X72.212 Y120.065 E32.63189
G1 X71.447 Y120.065 E32.64672
G1 X59.935 Y108.553 E32.96248
G1 X59.935 Y109.317 E32.97732
G1 X70.683 Y120.065 E33.27210
G1 X69.918 Y120.065 E33.28693
G1 X59.935 Y110.082 E33.56074
G1 X59.935 Y110.847 E33.57557
G1 X69.153 Y120.065 E33.82840
G1 X68.388 Y120.065 E33.84323
G1 X59.935 Y111.612 E34.07509
G1 X59.935 Y112.377 E34.08992
G1 X67.623 Y120.065 E34.30079
G1 X66.859 Y120.065 E34.31563
G1 X59.935 Y113.141 E34.50552
G1 X59.935 Y113.906 E34.52035
G1 X66.094 Y120.065 E34.68927
G1 X65.329 Y120.065 E34.70410
G1 X59.935 Y114.671 E34.85205
G1 X59.935 Y115.436 E34.86688
G1 X64.564 Y120.065 E34.99384
G1 X63.799 Y120.065 E35.00867
G1 X59.935 Y116.201 E35.11466
G1 X59.935 Y116.966 E35.12949
G1 X63.034 Y120.065 E35.21450
G1 X62.270 Y120.065 E35.22933
G1 X59.935 Y117.730 E35.29336
G1 X59.935 Y118.495 E35.30820
G1 X61.505 Y120.065 E35.35125
G1 X60.740 Y120.065 E35.36608
G1 X59.935 Y119.260 E35.38816
G1 X59.935 Y120.025 E35.40299
G1 X59.975 Y120.065 E35.40409
M204 S2000
G1 F1800.000 E33.40409
G92 E0
G1 Z0.700 F9600.000
G1 X108.000 Y120.500 F9600.000
G1 E2.00000 F1800.000
M204 S1200
G1 X108.000 Y96.632 E2.63674 F6000
G1 X140.500 Y96.632 E3.50377
G1 X140.500 Y120.500 E4.14051
G1 X108.075 Y120.500 E5.00554
M204 S2000
G1 X107.500 Y121.000 F9600.000
M204 S1200
G1 X107.500 Y96.132 E5.66895 F4500
G1 X141.000 Y96.132 E6.56266
G1 X141.000 Y121.000 E7.22608
G1 X107.575 Y121.000 E8.11779
M204 S2000
G1 X107.750 Y120.567 F9600.000
G1 F1800.000 E6.11779
G92 E0
G1 X108.400 Y96.993 F9600.000
G1 E2.00000 F1800.000
M204 S2000
G1 X108.360 Y97.033 E2.00119 F6600
G1 X108.360 Y97.851 E2.01837
G1 X109.219 Y96.993 E2.04386
G1 X110.037 Y96.993 E2.06104
G1 X108.360 Y98.670 E2.11082
G1 X108.360 Y99.488 E2.12800
G1 X110.856 Y96.993 E2.20209
G1 X111.675 Y96.993 E2.21927
G1 X108.360 Y100.307 E2.31765
G1 X108.360 Y101.126 E2.33483
G1 X112.493 Y96.993 E2.45751
G1 X113.312 Y96.993 E2.47470
G1 X108.360 Y101.944 E2.62167
G1 X108.360 Y102.763 E2.63886
G1 X114.130 Y96.993 E2.81014
G1 X114.949 Y96.993 E2.82732
G1 X108.360 Y103.582 E3.02289
G1 X108.360 Y104.400 E3.04008
G1 X115.768 Y96.993 E3.25995
G1 X116.586 Y96.993 E3.27713
G1 X108.360 Y105.219 E3.52131
G1 X108.360 Y106.037 E3.53849
G1 X117.405 Y96.993 E3.80696
G1 X118.223 Y96.993 E3.82414
G1 X108.360 Y106.856 E4.11692
G1 X108.360 Y107.675 E4.13410
G1 X119.042 Y96.993 E4.45117
G1 X119.861 Y96.993 E4.46835
G1 X108.360 Y108.493 E4.80972
G1 X108.360 Y109.312 E4.82690
G1 X120.679 Y96.993 E5.19257
G1 X121.498 Y96.993 E5.20975
G1 X108.360 Y110.130 E5.59972
G1 X108.360 Y110.949 E5.61690
G1 X122.317 Y96.993 E6.03117
G1 X123.135 Y96.993 E6.04835
G1 X108.360 Y111.768 E6.48691
G1 X108.360 Y112.586 E6.50409
G1 X123.954 Y96.993 E6.96696
G1 X124.772 Y96.993 E6.98414
G1 X108.360 Y113.405 E7.47130
G1 X108.360 Y114.223 E7.48848
G1 X125.591 Y96.993 E7.99994
G1 X126.410 Y96.993 E8.01712
G1 X108.360 Y115.042 E8.55288
G1 X108.360 Y115.861 E8.57007
G1 X127.228 Y96.993 E9.13012
G1 X128.047 Y96.993 E9.14730
G1 X108.360 Y116.679 E9.73166
G1 X108.360 Y117.498 E9.74884
G1 X128.865 Y96.993 E10.35750
G1 X129.684 Y96.993 E10.37468
G1 X108.360 Y118.317 E11.00763
G1 X108.360 Y119.135 E11.02482
G1 X130.503 Y96.993 E11.68207
G1 X131.321 Y96.993 E11.69925
G1 X108.360 Y119.954 E12.38080
G1 X108.993 Y120.140 E12.39464
G1 X132.140 Y96.993 E13.08172
G1 X132.958 Y96.993 E13.09890
G1 X109.811 Y120.140 E13.78597
G1 X110.630 Y120.140 E13.80316
G1 X133.777 Y96.993 E14.49023
G1 X134.596 Y96.993 E14.50741
G1 X111.448 Y120.140 E15.19449
G1 X112.267 Y120.140 E15.21167
G1 X135.414 Y96.993 E15.89875
G1 X136.233 Y96.993 E15.91593
G1 X113.086 Y120.140 E16.60300
G1 X113.904 Y120.140 E16.62018
G1 X137.052 Y96.993 E17.30726
G1 X137.870 Y96.993 E17.32444
G1 X114.723 Y120.140 E18.01152
G1 X115.542 Y120.140 E18.02870
G1 X138.689 Y96.993 E18.71578
G1 X139.507 Y96.993 E18.73296
G1 X116.360 Y120.140 E19.42003
G1 X117.179 Y120.140 E19.43721
G1 X140.140 Y97.179 E20.11877
G1 X140.140 Y97.997 E20.13595
G1 X117.997 Y120.140 E20.79320
G1 X118.816 Y120.140 E20.81038
G1 X140.140 Y98.816 E21.44334
G1 X140.140 Y99.635 E21.46052
G1 X119.635 Y120.140 E22.06917
G1 X120.453 Y120.140 E22.08635
G1 X140.140 Y100.453 E22.67071
G1 X140.140 Y101.272 E22.68789
G1 X121.272 Y120.140 E23.24795
G1 X122.090 Y120.140 E23.26513
G1 X140.140 Y102.090 E23.80089
G1 X140.140 Y102.909 E23.81807
G1 X122.909 Y120.140 E24.32953
G1 X123.728 Y120.140 E24.34672
G1 X140.140 Y103.728 E24.83388
G1 X140.140 Y104.546 E24.85106
G1 X124.546 Y120.140 E25.31392
G1 X125.365 Y120.140 E25.33110
G1 X140.140 Y105.365 E25.76967
G1 X140.140 Y106.183 E25.78685
G1 X126.183 Y120.140 E26.20112
G1 X127.002 Y120.140 E26.21830
G1 X140.140 Y107.002 E26.60826
G1 X140.140 Y107.821 E26.62545
G1 X127.821 Y120.140 E26.99111
G1 X128.639 Y120.140 E27.00830
G1 X140.140 Y108.639 E27.34967
G1 X140.140 Y109.458 E27.36685
G1 X129.458 Y120.140 E27.68392
G1 X130.277 Y120.140 E27.70110
G1 X140.140 Y110.277 E27.99387
G1 X140.140 Y111.095 E28.01105
G1 X131.095 Y120.140 E28.27953
G1 X131.914 Y120.140 E28.29671
G1 X140.140 Y111.914 E28.54088
G1 X140.140 Y112.732 E28.55806
G1 X132.732 Y120.140 E28.77794
G1 X133.551 Y120.140 E28.79512
G1 X140.140 Y113.551 E28.99070
G1 X140.140 Y114.370 E29.00788
G1 X134.370 Y120.140 E29.17916
G1 X135.188 Y120.140 E29.19634
G1 X140.140 Y115.188 E29.34332
G1 X140.140 Y116.007 E29.36050
G1 X136.007 Y120.140 E29.48318
G1 X136.825 Y120.140 E29.50037
G1 X140.140 Y116.825 E29.59875
G1 X140.140 Y117.644 E29.61593
G1 X137.644 Y120.140 E29.69001
G1 X138.463 Y120.140 E29.70719
G1 X140.140 Y118.463 E29.75698
G1 X140.140 Y119.281 E29.77416
