; generated by Slic3r 1.1.1-dev on 2014-05-01 at 16:51:41

; perimeters extrusion width = 0.50mm
; infill extrusion width = 0.60mm
; solid infill extrusion width = 0.60mm
; top infill extrusion width = 0.45mm

G21 ; set units to millimeters
M107
G28 ; home all axes
G90 ; use absolute coordinates
G92 E0
M82 ; use absolute distances for extrusion
M204 S2000
G1 F1800.000 E-2.00000
G92 E0
G1 Z0.350 F9600.000
G1 X53.835 Y71.608 F9600.000
G1 E2.00000 F1800.000
G1 X56.025 Y70.700 E2.06823 F4500
G1 X57.601 Y70.523 E2.11385
G1 X142.399 Y70.523 E4.55376
G1 X144.737 Y70.920 E4.62199
G1 X146.812 Y72.067 E4.69022
G1 X148.392 Y73.835 E4.75845
G1 X149.300 Y76.025 E4.82668
G1 X149.477 Y77.601 E4.87230
G1 X149.477 Y102.680 E5.59390
G1 X149.046 Y105.115 E5.66505
G1 X149.014 Y105.201 E5.66771
G1 X147.837 Y107.260 E5.73594
G1 X146.046 Y108.814 E5.80417
G1 X143.842 Y109.690 E5.87240
G1 X142.367 Y109.845 E5.91507
G1 X57.633 Y109.845 E8.35315
G1 X55.295 Y109.448 E8.42138
G1 X53.220 Y108.301 E8.48961
G1 X51.640 Y106.533 E8.55784
G1 X50.954 Y105.115 E8.60315
G1 X50.523 Y102.680 E8.67431
G1 X50.523 Y77.601 E9.39590
G1 X50.920 Y75.263 E9.46413
G1 X52.067 Y73.188 E9.53236
G1 X53.779 Y71.658 E9.59843
G1 X54.351 Y71.927 F9600.000
G1 X57.601 Y71.062 E9.69520 F4500
G1 X142.399 Y71.062 E12.13511
G1 X144.643 Y71.459 E12.20067
G1 X146.614 Y72.601 E12.26623
G1 X148.073 Y74.351 E12.33179
G1 X148.938 Y77.601 E12.42856
G1 X148.938 Y102.680 E13.15015
G1 X148.539 Y104.929 E13.21589
G1 X148.507 Y105.016 E13.21854
G1 X147.363 Y106.986 E13.28410
G1 X145.612 Y108.444 E13.34966
G1 X142.367 Y109.306 E13.44626
G1 X57.633 Y109.306 E15.88434
G1 X55.389 Y108.909 E15.94990
G1 X53.418 Y107.766 E16.01546
G1 X51.493 Y105.016 E16.11206
G1 X51.461 Y104.929 E16.11471
G1 X51.062 Y102.680 E16.18045
G1 X51.062 Y77.601 E16.90204
G1 X51.459 Y75.357 E16.96760
G1 X52.601 Y73.386 E17.03316
G1 X54.293 Y71.975 E17.09656
G1 F1800.000 E15.09656
G92 E0
G1 X109.752 Y78.955 F9600.000
G1 E2.00000 F1800.000
G1 X141.045 Y78.955 E2.90040 F4500
G1 X141.045 Y101.413 E3.54660
G1 X109.752 Y101.413 E4.44700
G1 X109.752 Y79.030 E5.09104
G1 X109.213 Y78.415 F9600.000
G1 X141.585 Y78.415 E6.02247 F4500
G1 X141.585 Y101.952 E6.69971
G1 X109.213 Y101.952 E7.63114
G1 X109.213 Y78.490 E8.30621
G1 X108.674 Y77.876 F9600.000
G1 X142.124 Y77.876 E9.26868 F3375
G1 X142.124 Y102.492 E9.97695
G1 X108.674 Y102.492 E10.93941
G1 X108.674 Y77.951 E11.64552
G1 X109.107 Y78.126 F9600.000
G1 F1800.000 E9.64552
G92 E0
G1 X110.163 Y101.042 F9600.000
G1 E2.00000 F1800.000
G1 X110.123 Y101.002 E2.00110 F4950
G1 X110.123 Y100.235 E2.01605
G1 X110.931 Y101.042 E2.03828
G1 X111.698 Y101.042 E2.05323
G1 X110.123 Y99.467 E2.09660
G1 X110.123 Y98.700 E2.11155
G1 X112.466 Y101.042 E2.17606
G1 X113.233 Y101.042 E2.19100
G1 X110.123 Y97.932 E2.27664
G1 X110.123 Y97.165 E2.29159
G1 X114.001 Y101.042 E2.39837
G1 X114.768 Y101.042 E2.41331
G1 X110.123 Y96.397 E2.54123
G1 X110.123 Y95.630 E2.55617
G1 X115.536 Y101.042 E2.70523
G1 X116.303 Y101.042 E2.72017
G1 X110.123 Y94.862 E2.89036
G1 X110.123 Y94.095 E2.90530
G1 X117.071 Y101.042 E3.09662
G1 X117.838 Y101.042 E3.11157
G1 X110.123 Y93.327 E3.32403
G1 X110.123 Y92.560 E3.33897
G1 X118.606 Y101.042 E3.57257
G1 X119.373 Y101.042 E3.58751
G1 X110.123 Y91.793 E3.84224
G1 X110.123 Y91.025 E3.85718
G1 X120.140 Y101.042 E4.13305
G1 X120.908 Y101.042 E4.14799
G1 X110.123 Y90.258 E4.44499
G1 X110.123 Y89.490 E4.45994
G1 X121.675 Y101.042 E4.77807
G1 X122.443 Y101.042 E4.79302
G1 X110.123 Y88.723 E5.13229
G1 X110.123 Y87.955 E5.14724
G1 X123.210 Y101.042 E5.50764
G1 X123.978 Y101.042 E5.52259
G1 X110.123 Y87.188 E5.90413
G1 X110.123 Y86.420 E5.91908
G1 X124.745 Y101.042 E6.32175
G1 X125.513 Y101.042 E6.33670
G1 X110.123 Y85.653 E6.76051
G1 X110.123 Y84.885 E6.77546
G1 X126.280 Y101.042 E7.22041
G1 X127.048 Y101.042 E7.23535
G1 X110.123 Y84.118 E7.70144
G1 X110.123 Y83.350 E7.71638
G1 X127.815 Y101.042 E8.20360
G1 X128.583 Y101.042 E8.21855
G1 X110.123 Y82.583 E8.72690
G1 X110.123 Y81.815 E8.74185
G1 X129.350 Y101.042 E9.27134
G1 X130.117 Y101.042 E9.28629
G1 X110.123 Y81.048 E9.83691
G1 X110.123 Y80.281 E9.85186
G1 X130.885 Y101.042 E10.42362
G1 X131.652 Y101.042 E10.43857
G1 X110.123 Y79.513 E11.03146
G1 X110.703 Y79.326 E11.04333
G1 X132.420 Y101.042 E11.64140
G1 X133.187 Y101.042 E11.65634
G1 X111.471 Y79.326 E12.25440
G1 X112.238 Y79.326 E12.26935
G1 X133.955 Y101.042 E12.86741
G1 X134.722 Y101.042 E12.88236
G1 X113.006 Y79.326 E13.48042
G1 X113.773 Y79.326 E13.49536
G1 X135.490 Y101.042 E14.09343
G1 X136.257 Y101.042 E14.10837
G1 X114.541 Y79.326 E14.70644
G1 X115.308 Y79.326 E14.72138
G1 X137.025 Y101.042 E15.31944
G1 X137.792 Y101.042 E15.33439
G1 X116.076 Y79.326 E15.93245
G1 X116.843 Y79.326 E15.94740
G1 X138.560 Y101.042 E16.54546
G1 X139.327 Y101.042 E16.56040
G1 X117.611 Y79.326 E17.15847
G1 X118.378 Y79.326 E17.17341
G1 X140.094 Y101.042 E17.77147
G1 X140.674 Y100.855 E17.78334
G1 X119.145 Y79.326 E18.37624
G1 X119.913 Y79.326 E18.39119
G1 X140.674 Y100.087 E18.96295
G1 X140.674 Y99.320 E18.97790
G1 X120.680 Y79.326 E19.52852
G1 X121.448 Y79.326 E19.54347
G1 X140.674 Y98.552 E20.07296
G1 X140.674 Y97.785 E20.08791
G1 X122.215 Y79.326 E20.59626
G1 X122.983 Y79.326 E20.61121
G1 X140.674 Y97.017 E21.09843
G1 X140.674 Y96.250 E21.11337
G1 X123.750 Y79.326 E21.57946
G1 X124.518 Y79.326 E21.59440
G1 X140.674 Y95.482 E22.03935
G1 X140.674 Y94.715 E22.05430
G1 X125.285 Y79.326 E22.47811
G1 X126.053 Y79.326 E22.49306
G1 X140.674 Y93.947 E22.89573
G1 X140.674 Y93.180 E22.91068
G1 X126.820 Y79.326 E23.29222
G1 X127.588 Y79.326 E23.30717
G1 X140.674 Y92.412 E23.66757
G1 X140.674 Y91.645 E23.68252
G1 X128.355 Y79.326 E24.02179
G1 X129.122 Y79.326 E24.03674
G1 X140.674 Y90.878 E24.35487
G1 X140.674 Y90.110 E24.36982
G1 X129.890 Y79.326 E24.66682
G1 X130.657 Y79.326 E24.68176
G1 X140.674 Y89.343 E24.95763
G1 X140.674 Y88.575 E24.97257
G1 X131.425 Y79.326 E25.22730
G1 X132.192 Y79.326 E25.24225
G1 X140.674 Y87.808 E25.47584
G1 X140.674 Y87.040 E25.49078
G1 X132.960 Y79.326 E25.70324
G1 X133.727 Y79.326 E25.71819
G1 X140.674 Y86.273 E25.90951
G1 X140.674 Y85.505 E25.92445
G1 X134.495 Y79.326 E26.09464
G1 X135.262 Y79.326 E26.10959
G1 X140.674 Y84.738 E26.25864
G1 X140.674 Y83.970 E26.27358
G1 X136.030 Y79.326 E26.40150
G1 X136.797 Y79.326 E26.41644
G1 X140.674 Y83.203 E26.52322
G1 X140.674 Y82.435 E26.53817
G1 X137.565 Y79.326 E26.62381
G1 X138.332 Y79.326 E26.63876
G1 X140.674 Y81.668 E26.70326
G1 X140.674 Y80.900 E26.71821
G1 X139.100 Y79.326 E26.76158
G1 X139.867 Y79.326 E26.77653
G1 X140.674 Y80.133 E26.79876
G1 X140.674 Y79.366 E26.81371
G1 X140.634 Y79.326 E26.81481
G1 F1800.000 E24.81481
G92 E0
G1 X90.248 Y78.955 F9600.000
G1 E2.00000 F1800.000
G1 X90.248 Y101.413 E2.64620 F4500
G1 X58.955 Y101.413 E3.54660
G1 X58.955 Y78.955 E4.19280
G1 X90.173 Y78.955 E5.09104
G1 X90.787 Y78.415 F9600.000
G1 X90.787 Y101.952 E5.76827 F4500
G1 X58.415 Y101.952 E6.69971
G1 X58.415 Y78.415 E7.37694
G1 X90.712 Y78.415 E8.30621
G1 X91.326 Y77.876 F9600.000
G1 X91.326 Y102.492 E9.01448 F3375
G1 X57.876 Y102.492 E9.97695
G1 X57.876 Y77.876 E10.68521
G1 X91.251 Y77.876 E11.64552
G1 X91.076 Y78.309 F9600.000
G1 X89.837 Y79.326 F9600.000
G1 X89.877 Y79.366 E11.64662 F4950
G1 X89.877 Y80.133 E11.66157
G1 X89.069 Y79.326 E11.68380
G1 X88.302 Y79.326 E11.69875
G1 X89.877 Y80.900 E11.74212
G1 X89.877 Y81.668 E11.75707
G1 X87.534 Y79.326 E11.82157
G1 X86.767 Y79.326 E11.83652
G1 X89.877 Y82.435 E11.92216
G1 X89.877 Y83.203 E11.93711
G1 X85.999 Y79.326 E12.04389
G1 X85.232 Y79.326 E12.05883
G1 X89.877 Y83.970 E12.18675
G1 X89.877 Y84.738 E12.20169
G1 X84.464 Y79.326 E12.35074
G1 X83.697 Y79.326 E12.36569
G1 X89.877 Y85.505 E12.53588
G1 X89.877 Y86.273 E12.55082
G1 X82.929 Y79.326 E12.74214
G1 X82.162 Y79.326 E12.75709
G1 X89.877 Y87.040 E12.96955
G1 X89.877 Y87.808 E12.98449
G1 X81.394 Y79.326 E13.21808
G1 X80.627 Y79.326 E13.23303
G1 X89.877 Y88.575 E13.48776
G1 X89.877 Y89.343 E13.50270
G1 X79.860 Y79.326 E13.77857
G1 X79.092 Y79.326 E13.79351
G1 X89.877 Y90.110 E14.09051
G1 X89.877 Y90.878 E14.10546
G1 X78.325 Y79.326 E14.42359
G1 X77.557 Y79.326 E14.43854
G1 X89.877 Y91.645 E14.77781
G1 X89.877 Y92.412 E14.79276
G1 X76.790 Y79.326 E15.15316
G1 X76.022 Y79.326 E15.16811
G1 X89.877 Y93.180 E15.54965
G1 X89.877 Y93.947 E15.56460
G1 X75.255 Y79.326 E15.96727
G1 X74.487 Y79.326 E15.98222
G1 X89.877 Y94.715 E16.40603
G1 X89.877 Y95.482 E16.42098
G1 X73.720 Y79.326 E16.86593
G1 X72.952 Y79.326 E16.88087
G1 X89.877 Y96.250 E17.34696
G1 X89.877 Y97.017 E17.36190
G1 X72.185 Y79.326 E17.84912
G1 X71.417 Y79.326 E17.86407
G1 X89.877 Y97.785 E18.37242
G1 X89.877 Y98.552 E18.38737
G1 X70.650 Y79.326 E18.91686
G1 X69.883 Y79.326 E18.93181
G1 X89.877 Y99.320 E19.48243
G1 X89.877 Y100.087 E19.49738
G1 X69.115 Y79.326 E20.06914
G1 X68.348 Y79.326 E20.08409
G1 X89.877 Y100.855 E20.67699
G1 X89.297 Y101.042 E20.68886
G1 X67.580 Y79.326 E21.28692
G1 X66.813 Y79.326 E21.30186
G1 X88.529 Y101.042 E21.89993
G1 X87.762 Y101.042 E21.91487
G1 X66.045 Y79.326 E22.51293
G1 X65.278 Y79.326 E22.52788
G1 X86.994 Y101.042 E23.12594
G1 X86.227 Y101.042 E23.14089
G1 X64.510 Y79.326 E23.73895
G1 X63.743 Y79.326 E23.75389
G1 X85.459 Y101.042 E24.35196
G1 X84.692 Y101.042 E24.36690
G1 X62.975 Y79.326 E24.96497
G1 X62.208 Y79.326 E24.97991
G1 X83.924 Y101.042 E25.57797
G1 X83.157 Y101.042 E25.59292
G1 X61.440 Y79.326 E26.19098
G1 X60.673 Y79.326 E26.20593
G1 X82.389 Y101.042 E26.80399
G1 X81.622 Y101.042 E26.81893
G1 X59.905 Y79.326 E27.41700
G1 X59.326 Y79.513 E27.42887
G1 X80.855 Y101.042 E28.02176
G1 X80.087 Y101.042 E28.03671
G1 X59.326 Y80.281 E28.60847
G1 X59.326 Y81.048 E28.62342
G1 X79.320 Y101.042 E29.17404
G1 X78.552 Y101.042 E29.18899
G1 X59.326 Y81.815 E29.71848
G1 X59.326 Y82.583 E29.73343
G1 X77.785 Y101.042 E30.24178
G1 X77.017 Y101.042 E30.25673
G1 X59.326 Y83.350 E30.74395
G1 X59.326 Y84.118 E30.75889
G1 X76.250 Y101.042 E31.22498
G1 X75.482 Y101.042 E31.23992
G1 X59.326 Y84.885 E31.68487
G1 X59.326 Y85.653 E31.69982
G1 X74.715 Y101.042 E32.12363
G1 X73.947 Y101.042 E32.13858
G1 X59.326 Y86.420 E32.54125
G1 X59.326 Y87.188 E32.55620
G1 X73.180 Y101.042 E32.93774
G1 X72.412 Y101.042 E32.95269
G1 X59.326 Y87.955 E33.31309
G1 X59.326 Y88.723 E33.32804
G1 X71.645 Y101.042 E33.66731
G1 X70.878 Y101.042 E33.68226
G1 X59.326 Y89.490 E34.00039
G1 X59.326 Y90.258 E34.01534
G1 X70.110 Y101.042 E34.31234
G1 X69.343 Y101.042 E34.32728
G1 X59.326 Y91.025 E34.60315
G1 X59.326 Y91.793 E34.61809
G1 X68.575 Y101.042 E34.87282
G1 X67.808 Y101.042 E34.88776
G1 X59.326 Y92.560 E35.12136
G1 X59.326 Y93.327 E35.13630
G1 X67.040 Y101.042 E35.34876
G1 X66.273 Y101.042 E35.36371
G1 X59.326 Y94.095 E35.55503
G1 X59.326 Y94.862 E35.56997
G1 X65.505 Y101.042 E35.74016
G1 X64.738 Y101.042 E35.75510
G1 X59.326 Y95.630 E35.90416
G1 X59.326 Y96.397 E35.91910
G1 X63.970 Y101.042 E36.04702
G1 X63.203 Y101.042 E36.06196
G1 X59.326 Y97.165 E36.16874
G1 X59.326 Y97.932 E36.18369
G1 X62.435 Y101.042 E36.26933
G1 X61.668 Y101.042 E36.28427
G1 X59.326 Y98.700 E36.34878
G1 X59.326 Y99.467 E36.36373
G1 X60.900 Y101.042 E36.40710
G1 X60.133 Y101.042 E36.42205
G1 X59.326 Y100.235 E36.44428
G1 X59.326 Y101.002 E36.45923
G1 X59.366 Y101.042 E36.46033
M204 S2000
G1 F1800.000 E34.46033
G92 E0
G1 Z0.700 F9600.000
G1 X109.649 Y101.848 F9600.000
G1 E2.00000 F1800.000
M204 S1200
G1 X109.649 Y78.851 E2.61350 F6000
G1 X141.149 Y78.851 E3.45385
G1 X141.149 Y101.848 E4.06735
G1 X109.724 Y101.848 E4.90571
M204 S2000
G1 X109.149 Y102.348 F9600.000
M204 S1200
G1 X109.149 Y78.351 E5.54588 F6000
G1 X141.649 Y78.351 E6.41292
G1 X141.649 Y102.348 E7.05309
G1 X109.224 Y102.348 E7.91813
M204 S2000
G1 F1800.000 E5.91813
G92 E0
G1 X108.649 Y77.851 F9600.000
G1 E2.00000 F1800.000
M204 S1200
G1 X142.149 Y77.851 E2.89371 F4500
G1 X142.149 Y102.767 E3.55841
M204 S2000
M204 S1200
G1 X142.149 Y102.848 E3.56083 F4320
G1 X108.649 Y102.848 E4.56357
G1 X108.649 Y102.767 E4.56599
M204 S2000
M204 S1200
G1 X108.649 Y77.926 E5.22869 F4500
M204 S2000
G1 X109.082 Y78.101 F9600.000
G1 X110.009 Y79.251 F9600.000
M204 S2000
G1 X110.049 Y79.211 E5.22989 F6600
G1 X110.877 Y79.211 E5.24749
G1 X110.009 Y80.079 E5.27358
G1 X110.009 Y80.907 E5.29118
G1 X111.705 Y79.211 E5.34215
G1 X112.532 Y79.211 E5.35975
G1 X110.009 Y81.734 E5.43561
G1 X110.009 Y82.562 E5.45321
G1 X113.360 Y79.211 E5.55396
G1 X114.188 Y79.211 E5.57156
G1 X110.009 Y83.390 E5.69720
G1 X110.009 Y84.218 E5.71479
G1 X115.016 Y79.211 E5.86532
G1 X115.843 Y79.211 E5.88291
G1 X110.009 Y85.045 E6.05833
G1 X110.009 Y85.873 E6.07592
G1 X116.671 Y79.211 E6.27622
G1 X117.499 Y79.211 E6.29382
G1 X110.009 Y86.701 E6.51900
G1 X110.009 Y87.529 E6.53660
G1 X118.327 Y79.211 E6.78667
G1 X119.154 Y79.211 E6.80427
G1 X110.009 Y88.356 E7.07923
G1 X110.009 Y89.184 E7.09683
G1 X119.982 Y79.211 E7.39667
G1 X120.810 Y79.211 E7.41427
G1 X110.009 Y90.012 E7.73900
G1 X110.009 Y90.840 E7.75660
G1 X121.638 Y79.211 E8.10622
G1 X122.465 Y79.211 E8.12381
G1 X110.009 Y91.667 E8.49832
G1 X110.009 Y92.495 E8.51592
G1 X123.293 Y79.211 E8.91531
G1 X124.121 Y79.211 E8.93291
G1 X110.009 Y93.323 E9.35719
G1 X110.009 Y94.151 E9.37479
G1 X124.949 Y79.211 E9.82395
G1 X125.776 Y79.211 E9.84155
G1 X110.009 Y94.978 E10.31560
G1 X110.009 Y95.806 E10.33320
G1 X126.604 Y79.211 E10.83214
G1 X127.432 Y79.211 E10.84974
G1 X110.009 Y96.634 E11.37357
G1 X110.009 Y97.462 E11.39116
G1 X128.260 Y79.211 E11.93988
G1 X129.087 Y79.211 E11.95748
G1 X110.009 Y98.289 E12.53108
G1 X110.009 Y99.117 E12.54867
G1 X129.915 Y79.211 E13.14716
G1 X130.743 Y79.211 E13.16476
G1 X110.009 Y99.945 E13.78813
G1 X110.009 Y100.773 E13.80573
G1 X131.571 Y79.211 E14.45399
G1 X132.398 Y79.211 E14.47159
G1 X110.122 Y101.487 E15.14134
G1 X110.950 Y101.487 E15.15894
G1 X133.226 Y79.211 E15.82869
G1 X134.054 Y79.211 E15.84629
G1 X111.778 Y101.487 E16.51604
G1 X112.605 Y101.487 E16.53363
G1 X134.881 Y79.211 E17.20338
G1 X135.709 Y79.211 E17.22098
G1 X113.433 Y101.487 E17.89073
G1 X114.261 Y101.487 E17.90833
G1 X136.537 Y79.211 E18.57808
G1 X137.365 Y79.211 E18.59568
G1 X115.089 Y101.487 E19.26543
G1 X115.916 Y101.487 E19.28303
G1 X138.192 Y79.211 E19.95278
G1 X139.020 Y79.211 E19.97037
G1 X116.744 Y101.487 E20.64012
G1 X117.572 Y101.487 E20.65772
G1 X139.848 Y79.211 E21.32747
G1 X140.676 Y79.211 E21.34507
G1 X118.400 Y101.487 E22.01482
G1 X119.227 Y101.487 E22.03242
G1 X140.789 Y79.926 E22.68068
G1 X140.789 Y80.754 E22.69828
G1 X120.055 Y101.487 E23.32165
G1 X120.883 Y101.487 E23.33925
G1 X140.789 Y81.581 E23.93774
G1 X140.789 Y82.409 E23.95533
G1 X121.711 Y101.487 E24.52894
G1 X122.538 Y101.487 E24.54653
G1 X140.789 Y83.237 E25.09525
G1 X140.789 Y84.065 E25.11284
G1 X123.366 Y101.487 E25.63667
G1 X124.194 Y101.487 E25.65427
G1 X140.789 Y84.892 E26.15321
G1 X140.789 Y85.720 E26.17081
G1 X125.022 Y101.487 E26.64486
G1 X125.849 Y101.487 E26.66246
G1 X140.789 Y86.548 E27.11163
G1 X140.789 Y87.376 E27.12922
G1 X126.677 Y101.487 E27.55350
G1 X127.505 Y101.487 E27.57110
G1 X140.789 Y88.203 E27.97049
G1 X140.789 Y89.031 E27.98809
G1 X128.333 Y101.487 E28.36260
G1 X129.160 Y101.487 E28.38020
G1 X140.789 Y89.859 E28.72981
G1 X140.789 Y90.687 E28.74741
G1 X129.988 Y101.487 E29.07214
G1 X130.816 Y101.487 E29.08974
G1 X140.789 Y91.514 E29.38959
G1 X140.789 Y92.342 E29.40718
G1 X131.644 Y101.487 E29.68214
G1 X132.471 Y101.487 E29.69974
G1 X140.789 Y93.170 E29.94981
G1 X140.789 Y93.998 E29.96741
G1 X133.299 Y101.487 E30.19259
G1 X134.127 Y101.487 E30.21019
G1 X140.789 Y94.825 E30.41049
G1 X140.789 Y95.653 E30.42809
G1 X134.955 Y101.487 E30.60350
G1 X135.782 Y101.487 E30.62110
G1 X140.789 Y96.481 E30.77162
G1 X140.789 Y97.309 E30.78922
G1 X136.610 Y101.487 E30.91486
G1 X137.438 Y101.487 E30.93245
G1 X140.789 Y98.136 E31.03320
G1 X140.789 Y98.964 E31.05080
G1 X138.266 Y101.487 E31.12666
G1 X139.093 Y101.487 E31.14426
G1 X140.789 Y99.792 E31.19524
G1 X140.789 Y100.620 E31.21284
G1 X139.921 Y101.487 E31.23893
G1 X140.749 Y101.487 E31.25652
G1 X140.789 Y101.447 E31.25773
M204 S2000
G1 F1800.000 E29.25773
G92 E0
