; generated by Slic3r 1.1.1-dev on 2014-05-05 at 16:43:51

; perimeters extrusion width = 0.50mm
; infill extrusion width = 0.52mm
; solid infill extrusion width = 0.52mm
; top infill extrusion width = 0.52mm

G21 ; set units to millimeters
M107
M104 S200 ; set temperature
G28 ; home all axes
G1 Z5 F5000 ; lift nozzle

M109 S200 ; wait for temperature to be reached
G90 ; use absolute coordinates
G92 E0
M82 ; use absolute distances for extrusion
G1 F1800.000 E-1.00000
G92 E0
G1 Z0.350 F7800.000
G1 X53.834 Y85.784 F7800.000
G1 E1.00000 F1800.000
G1 X55.920 Y84.818 E1.07480 F540
G1 X57.633 Y84.594 E1.13099
G1 X142.367 Y84.594 E3.88784
G1 X144.632 Y84.991 E3.96264
G1 X146.626 Y86.134 E4.03744
G1 X148.113 Y87.888 E4.11224
G1 X148.784 Y89.479 E4.16843
G1 X148.816 Y89.594 E4.17231
G1 X149.056 Y91.366 E4.23048
G1 X149.056 Y122.399 E5.24015
G1 X148.659 Y124.663 E5.31495
G1 X147.515 Y126.658 E5.38975
G1 X145.762 Y128.144 E5.46455
G1 X143.607 Y128.946 E5.53935
G1 X142.399 Y129.056 E5.57880
G1 X57.601 Y129.056 E8.33772
G1 X55.337 Y128.659 E8.41252
G1 X53.342 Y127.515 E8.48732
G1 X51.856 Y125.762 E8.56212
G1 X51.054 Y123.607 E8.63692
G1 X50.944 Y122.399 E8.67638
G1 X50.944 Y91.366 E9.68605
G1 X51.184 Y89.594 E9.74421
G1 X51.216 Y89.479 E9.74809
G1 X52.201 Y87.402 E9.82289
G1 X53.781 Y85.837 E9.89525
G1 F1800.000 E8.89525
G92 E0
G1 X110.063 Y92.915 F7800.000
G1 E1.00000 F1800.000
G1 X140.735 Y92.915 E1.99791 F540
G1 X140.735 Y120.735 E2.90304
G1 X110.063 Y120.735 E3.90095
G1 X110.063 Y92.990 E4.80364
G1 X109.406 Y92.258 F7800.000
G1 X141.392 Y92.258 E5.84430 F540
G1 X141.392 Y121.392 E6.79219
G1 X109.406 Y121.392 E7.83285
G1 X109.406 Y92.333 E8.77830
G1 X108.749 Y91.601 F7800.000
G1 X142.049 Y91.601 E9.86172 F378
G1 X142.049 Y122.049 E10.85236
G1 X108.749 Y122.049 E11.93578
G1 X108.749 Y91.676 E12.92398
G1 X109.182 Y91.851 F7800.000
G1 X110.559 Y120.278 F7800.000
G1 X110.519 Y120.238 E12.92528 F1080
G1 X110.519 Y119.295 E12.94688
G1 X111.503 Y120.278 E12.97872
G1 X112.446 Y120.278 E13.00032
G1 X110.519 Y118.352 E13.06270
G1 X110.519 Y117.409 E13.08430
G1 X113.389 Y120.278 E13.17723
G1 X114.332 Y120.278 E13.19883
G1 X110.519 Y116.466 E13.32230
G1 X110.519 Y115.523 E13.34390
G1 X115.275 Y120.278 E13.49792
G1 X116.218 Y120.278 E13.51952
G1 X110.519 Y114.580 E13.70408
G1 X110.519 Y113.637 E13.72568
G1 X117.161 Y120.278 E13.94079
G1 X118.104 Y120.278 E13.96239
G1 X110.519 Y112.694 E14.20804
G1 X110.519 Y111.750 E14.22964
G1 X119.047 Y120.278 E14.50584
G1 X119.990 Y120.278 E14.52743
G1 X110.519 Y110.807 E14.83418
G1 X110.519 Y109.864 E14.85577
G1 X120.934 Y120.278 E15.19306
G1 X121.877 Y120.278 E15.21466
G1 X110.519 Y108.921 E15.58249
G1 X110.519 Y107.978 E15.60409
G1 X122.820 Y120.278 E16.00247
G1 X123.763 Y120.278 E16.02407
G1 X110.519 Y107.035 E16.45299
G1 X110.519 Y106.092 E16.47459
G1 X124.706 Y120.278 E16.93405
G1 X125.649 Y120.278 E16.95565
G1 X110.519 Y105.149 E17.44566
G1 X110.519 Y104.206 E17.46726
G1 X126.592 Y120.278 E17.98782
G1 X127.535 Y120.278 E18.00941
G1 X110.519 Y103.263 E18.56051
G1 X110.519 Y102.319 E18.58211
G1 X128.478 Y120.278 E19.16376
G1 X129.422 Y120.278 E19.18536
G1 X110.519 Y101.376 E19.79755
G1 X110.519 Y100.433 E19.81914
G1 X130.365 Y120.278 E20.46188
G1 X131.308 Y120.278 E20.48348
G1 X110.519 Y99.490 E21.15676
G1 X110.519 Y98.547 E21.17835
G1 X132.251 Y120.278 E21.88218
G1 X133.194 Y120.278 E21.90378
G1 X110.519 Y97.604 E22.63814
G1 X110.519 Y96.661 E22.65974
G1 X134.137 Y120.278 E23.42466
G1 X135.080 Y120.278 E23.44625
G1 X110.519 Y95.718 E24.24171
G1 X110.519 Y94.775 E24.26331
G1 X136.023 Y120.278 E25.08931
G1 X136.966 Y120.278 E25.11091
G1 X110.519 Y93.832 E25.96746
G1 X111.002 Y93.371 E25.98274
G1 X137.909 Y120.278 E26.85419
G1 X138.853 Y120.278 E26.87579
G1 X111.945 Y93.371 E27.74725
G1 X112.888 Y93.371 E27.76885
G1 X139.796 Y120.278 E28.64030
G1 X140.278 Y119.818 E28.65558
G1 X113.832 Y93.371 E29.51212
G1 X114.775 Y93.371 E29.53372
G1 X140.278 Y118.875 E30.35972
G1 X140.278 Y117.932 E30.38132
G1 X115.718 Y93.371 E31.17678
G1 X116.661 Y93.371 E31.19838
G1 X140.278 Y116.989 E31.96329
G1 X140.278 Y116.046 E31.98489
G1 X117.604 Y93.371 E32.71926
G1 X118.547 Y93.371 E32.74086
G1 X140.278 Y115.103 E33.44468
G1 X140.278 Y114.159 E33.46628
G1 X119.490 Y93.371 E34.13956
G1 X120.433 Y93.371 E34.16115
G1 X140.278 Y113.216 E34.80389
G1 X140.278 Y112.273 E34.82549
G1 X121.376 Y93.371 E35.43768
G1 X122.319 Y93.371 E35.45927
G1 X140.278 Y111.330 E36.04092
G1 X140.278 Y110.387 E36.06252
G1 X123.263 Y93.371 E36.61362
G1 X124.206 Y93.371 E36.63522
G1 X140.278 Y109.444 E37.15577
G1 X140.278 Y108.501 E37.17737
G1 X125.149 Y93.371 E37.66738
G1 X126.092 Y93.371 E37.68898
G1 X140.278 Y107.558 E38.14844
G1 X140.278 Y106.615 E38.17004
G1 X127.035 Y93.371 E38.59896
G1 X127.978 Y93.371 E38.62056
G1 X140.278 Y105.672 E39.01894
G1 X140.278 Y104.728 E39.04054
G1 X128.921 Y93.371 E39.40837
G1 X129.864 Y93.371 E39.42997
G1 X140.278 Y103.785 E39.76725
G1 X140.278 Y102.842 E39.78885
G1 X130.807 Y93.371 E40.09559
G1 X131.750 Y93.371 E40.11719
G1 X140.278 Y101.899 E40.39339
G1 X140.278 Y100.956 E40.41499
G1 X132.694 Y93.371 E40.66064
G1 X133.637 Y93.371 E40.68224
G1 X140.278 Y100.013 E40.89735
G1 X140.278 Y99.070 E40.91895
G1 X134.580 Y93.371 E41.10351
G1 X135.523 Y93.371 E41.12511
G1 X140.278 Y98.127 E41.27913
G1 X140.278 Y97.184 E41.30073
G1 X136.466 Y93.371 E41.42420
G1 X137.409 Y93.371 E41.44580
G1 X140.278 Y96.240 E41.53873
G1 X140.278 Y95.297 E41.56033
G1 X138.352 Y93.371 E41.62271
G1 X139.295 Y93.371 E41.64431
G1 X140.278 Y94.354 E41.67615
G1 X140.278 Y93.411 E41.69775
G1 X140.238 Y93.371 E41.69904
G1 F1800.000 E40.69904
G92 E0
G1 X89.937 Y92.915 F7800.000
G1 E1.00000 F1800.000
G1 X89.937 Y120.735 E1.90513 F540
G1 X59.265 Y120.735 E2.90304
G1 X59.265 Y92.915 E3.80817
G1 X89.862 Y92.915 E4.80364
G1 X90.594 Y92.258 F7800.000
G1 X90.594 Y121.392 E5.75152 F540
G1 X58.608 Y121.392 E6.79219
G1 X58.608 Y92.258 E7.74007
G1 X90.519 Y92.258 E8.77830
G1 X91.251 Y91.601 F7800.000
G1 X91.251 Y122.049 E9.76894 F378
G1 X57.951 Y122.049 E10.85236
G1 X57.951 Y91.601 E11.84300
G1 X91.176 Y91.601 E12.92398
G1 X91.001 Y92.034 F7800.000
G1 X89.441 Y93.371 F7800.000
G1 X89.481 Y93.411 E12.92528 F1080
G1 X89.481 Y94.354 E12.94688
G1 X88.497 Y93.371 E12.97872
G1 X87.554 Y93.371 E13.00032
G1 X89.481 Y95.297 E13.06270
G1 X89.481 Y96.240 E13.08430
G1 X86.611 Y93.371 E13.17723
G1 X85.668 Y93.371 E13.19883
G1 X89.481 Y97.184 E13.32230
G1 X89.481 Y98.127 E13.34390
G1 X84.725 Y93.371 E13.49792
G1 X83.782 Y93.371 E13.51952
G1 X89.481 Y99.070 E13.70408
G1 X89.481 Y100.013 E13.72568
G1 X82.839 Y93.371 E13.94079
G1 X81.896 Y93.371 E13.96238
G1 X89.481 Y100.956 E14.20804
G1 X89.481 Y101.899 E14.22964
G1 X80.953 Y93.371 E14.50583
G1 X80.010 Y93.371 E14.52743
G1 X89.481 Y102.842 E14.83417
G1 X89.481 Y103.785 E14.85577
G1 X79.066 Y93.371 E15.19306
G1 X78.123 Y93.371 E15.21466
G1 X89.481 Y104.728 E15.58249
G1 X89.481 Y105.672 E15.60409
G1 X77.180 Y93.371 E16.00246
G1 X76.237 Y93.371 E16.02406
G1 X89.481 Y106.615 E16.45298
G1 X89.481 Y107.558 E16.47458
G1 X75.294 Y93.371 E16.93405
G1 X74.351 Y93.371 E16.95565
G1 X89.481 Y108.501 E17.44566
G1 X89.481 Y109.444 E17.46726
G1 X73.408 Y93.371 E17.98781
G1 X72.465 Y93.371 E18.00941
G1 X89.481 Y110.387 E18.56051
G1 X89.481 Y111.330 E18.58211
G1 X71.522 Y93.371 E19.16375
G1 X70.578 Y93.371 E19.18535
G1 X89.481 Y112.273 E19.79754
G1 X89.481 Y113.216 E19.81914
G1 X69.635 Y93.371 E20.46187
G1 X68.692 Y93.371 E20.48347
G1 X89.481 Y114.159 E21.15675
G1 X89.481 Y115.103 E21.17835
G1 X67.749 Y93.371 E21.88217
G1 X66.806 Y93.371 E21.90377
G1 X89.481 Y116.046 E22.63814
G1 X89.481 Y116.989 E22.65973
G1 X65.863 Y93.371 E23.42465
G1 X64.920 Y93.371 E23.44625
G1 X89.481 Y117.932 E24.24170
G1 X89.481 Y118.875 E24.26330
G1 X63.977 Y93.371 E25.08930
G1 X63.034 Y93.371 E25.11090
G1 X89.481 Y119.818 E25.96745
G1 X88.998 Y120.278 E25.98272
G1 X62.091 Y93.371 E26.85418
G1 X61.147 Y93.371 E26.87578
G1 X88.055 Y120.278 E27.74724
G1 X87.112 Y120.278 E27.76883
G1 X60.204 Y93.371 E28.64029
G1 X59.722 Y93.832 E28.65557
G1 X86.168 Y120.278 E29.51211
G1 X85.225 Y120.278 E29.53371
G1 X59.722 Y94.775 E30.35972
G1 X59.722 Y95.718 E30.38131
G1 X84.282 Y120.278 E31.17677
G1 X83.339 Y120.278 E31.19837
G1 X59.722 Y96.661 E31.96328
G1 X59.722 Y97.604 E31.98488
G1 X82.396 Y120.278 E32.71925
G1 X81.453 Y120.278 E32.74085
G1 X59.722 Y98.547 E33.44467
G1 X59.722 Y99.490 E33.46627
G1 X80.510 Y120.278 E34.13955
G1 X79.567 Y120.278 E34.16115
G1 X59.722 Y100.433 E34.80388
G1 X59.722 Y101.376 E34.82548
G1 X78.624 Y120.278 E35.43767
G1 X77.681 Y120.278 E35.45927
G1 X59.722 Y102.319 E36.04091
G1 X59.722 Y103.263 E36.06251
G1 X76.737 Y120.278 E36.61361
G1 X75.794 Y120.278 E36.63521
G1 X59.722 Y104.206 E37.15577
G1 X59.722 Y105.149 E37.17736
G1 X74.851 Y120.278 E37.66738
G1 X73.908 Y120.278 E37.68897
G1 X59.722 Y106.092 E38.14844
G1 X59.722 Y107.035 E38.17004
G1 X72.965 Y120.278 E38.59896
G1 X72.022 Y120.278 E38.62056
G1 X59.722 Y107.978 E39.01894
G1 X59.722 Y108.921 E39.04053
G1 X71.079 Y120.278 E39.40837
G1 X70.136 Y120.278 E39.42996
G1 X59.722 Y109.864 E39.76725
G1 X59.722 Y110.807 E39.78885
G1 X69.193 Y120.278 E40.09559
G1 X68.250 Y120.278 E40.11719
G1 X59.722 Y111.750 E40.39339
G1 X59.722 Y112.694 E40.41499
G1 X67.306 Y120.278 E40.66064
G1 X66.363 Y120.278 E40.68224
G1 X59.722 Y113.637 E40.89735
G1 X59.722 Y114.580 E40.91895
G1 X65.420 Y120.278 E41.10351
G1 X64.477 Y120.278 E41.12511
G1 X59.722 Y115.523 E41.27913
G1 X59.722 Y116.466 E41.30072
G1 X63.534 Y120.278 E41.42420
G1 X62.591 Y120.278 E41.44580
G1 X59.722 Y117.409 E41.53873
G1 X59.722 Y118.352 E41.56033
G1 X61.648 Y120.278 E41.62271
G1 X60.705 Y120.278 E41.64431
G1 X59.722 Y119.295 E41.67615
G1 X59.722 Y120.238 E41.69775
G1 X59.762 Y120.278 E41.69904
G1 F1800.000 E40.69904
G92 E0
G1 Z0.750 F7800.000
G1 X109.649 Y121.149 F7800.000
G1 E1.00000 F1800.000
G1 X109.649 Y92.254 E1.81756 F1800
G1 X141.149 Y92.254 E2.70882
G1 X141.149 Y121.149 E3.52638
G1 X109.724 Y121.149 E4.41553
G1 X109.149 Y121.649 F7800.000
G1 X109.149 Y91.754 E5.26138 F1800
G1 X141.649 Y91.754 E6.18094
G1 X141.649 Y121.649 E7.02679
G1 X109.224 Y121.649 E7.94423
G1 X108.649 Y122.149 F7800.000
G1 X108.649 Y91.254 E8.81837 F1260
G1 X142.149 Y91.254 E9.76623
G1 X142.149 Y122.149 E10.64037
G1 X108.724 Y122.149 E11.58611
G1 X108.899 Y121.716 F7800.000
G1 X109.996 Y92.641 F7800.000
G1 X110.036 Y92.601 E11.58722 F3600
G1 X110.772 Y92.601 E11.60172
G1 X109.996 Y93.378 E11.62334
G1 X109.996 Y94.114 E11.63783
G1 X111.509 Y92.601 E11.67995
G1 X112.246 Y92.601 E11.69445
G1 X109.996 Y94.851 E11.75708
G1 X109.996 Y95.587 E11.77158
G1 X112.982 Y92.601 E11.85470
G1 X113.719 Y92.601 E11.86920
G1 X109.996 Y96.324 E11.97283
G1 X109.996 Y97.061 E11.98733
G1 X114.455 Y92.601 E12.11147
G1 X115.192 Y92.601 E12.12596
G1 X109.996 Y97.797 E12.27060
G1 X109.996 Y98.534 E12.28510
G1 X115.929 Y92.601 E12.45024
G1 X116.665 Y92.601 E12.46474
G1 X109.996 Y99.270 E12.65039
G1 X109.996 Y100.007 E12.66489
G1 X117.402 Y92.601 E12.87104
G1 X118.138 Y92.601 E12.88553
G1 X109.996 Y100.744 E13.11219
G1 X109.996 Y101.480 E13.12669
G1 X118.875 Y92.601 E13.37384
G1 X119.612 Y92.601 E13.38834
G1 X109.996 Y102.217 E13.65600
G1 X109.996 Y102.953 E13.67050
G1 X120.348 Y92.601 E13.95867
G1 X121.085 Y92.601 E13.97316
G1 X109.996 Y103.690 E14.28183
G1 X109.996 Y104.426 E14.29633
G1 X121.821 Y92.601 E14.62550
G1 X122.558 Y92.601 E14.64000
G1 X109.996 Y105.163 E14.98967
G1 X109.996 Y105.900 E15.00417
G1 X123.294 Y92.601 E15.37435
G1 X124.031 Y92.601 E15.38885
G1 X109.996 Y106.636 E15.77953
G1 X109.996 Y107.373 E15.79403
G1 X124.768 Y92.601 E16.20522
G1 X125.504 Y92.601 E16.21972
G1 X109.996 Y108.109 E16.65141
G1 X109.996 Y108.846 E16.66590
G1 X126.241 Y92.601 E17.11810
G1 X126.977 Y92.601 E17.13260
G1 X109.996 Y109.583 E17.60529
G1 X109.996 Y110.319 E17.61979
G1 X127.714 Y92.601 E18.11299
G1 X128.451 Y92.601 E18.12749
G1 X109.996 Y111.056 E18.64119
G1 X109.996 Y111.792 E18.65569
G1 X129.187 Y92.601 E19.18990
G1 X129.924 Y92.601 E19.20440
G1 X109.996 Y112.529 E19.75911
G1 X109.996 Y113.266 E19.77361
G1 X130.660 Y92.601 E20.34882
G1 X131.397 Y92.601 E20.36332
G1 X109.996 Y114.002 E20.95904
G1 X109.996 Y114.739 E20.97354
G1 X132.134 Y92.601 E21.58976
G1 X132.870 Y92.601 E21.60426
G1 X109.996 Y115.475 E22.24099
G1 X109.996 Y116.212 E22.25548
G1 X133.607 Y92.601 E22.91271
G1 X134.343 Y92.601 E22.92721
G1 X109.996 Y116.948 E23.60495
G1 X109.996 Y117.685 E23.61944
G1 X135.080 Y92.601 E24.31768
G1 X135.817 Y92.601 E24.33218
G1 X109.996 Y118.422 E25.05092
G1 X109.996 Y119.158 E25.06542
G1 X136.553 Y92.601 E25.80466
G1 X137.290 Y92.601 E25.81916
G1 X109.996 Y119.895 E26.57891
G1 X109.996 Y120.631 E26.59341
G1 X138.026 Y92.601 E27.37366
G1 X138.763 Y92.601 E27.38816
G1 X110.562 Y120.802 E28.17316
G1 X111.298 Y120.802 E28.18765
G1 X139.499 Y92.601 E28.97265
G1 X140.236 Y92.601 E28.98715
G1 X112.035 Y120.802 E29.77215
G1 X112.772 Y120.802 E29.78665
G1 X140.802 Y92.772 E30.56690
G1 X140.802 Y93.508 E30.58140
G1 X113.508 Y120.802 E31.34115
G1 X114.245 Y120.802 E31.35565
G1 X140.802 Y94.245 E32.09489
G1 X140.802 Y94.981 E32.10939
G1 X114.981 Y120.802 E32.82813
G1 X115.718 Y120.802 E32.84263
G1 X140.802 Y95.718 E33.54086
G1 X140.802 Y96.455 E33.55536
G1 X116.455 Y120.802 E34.23309
G1 X117.191 Y120.802 E34.24759
G1 X140.802 Y97.191 E34.90482
G1 X140.802 Y97.928 E34.91932
G1 X117.928 Y120.802 E35.55605
G1 X118.664 Y120.802 E35.57054
G1 X140.802 Y98.664 E36.18677
G1 X140.802 Y99.401 E36.20126
G1 X119.401 Y120.802 E36.79698
G1 X120.138 Y120.802 E36.81148
G1 X140.802 Y100.138 E37.38670
G1 X140.802 Y100.874 E37.40119
G1 X120.874 Y120.802 E37.95591
G1 X121.611 Y120.802 E37.97040
G1 X140.802 Y101.611 E38.50461
G1 X140.802 Y102.347 E38.51911
G1 X122.347 Y120.802 E39.03281
G1 X123.084 Y120.802 E39.04731
G1 X140.802 Y103.084 E39.54051
G1 X140.802 Y103.820 E39.55501
G1 X123.820 Y120.802 E40.02771
G1 X124.557 Y120.802 E40.04221
G1 X140.802 Y104.557 E40.49440
G1 X140.802 Y105.294 E40.50890
G1 X125.294 Y120.802 E40.94059
G1 X126.030 Y120.802 E40.95508
G1 X140.802 Y106.030 E41.36627
G1 X140.802 Y106.767 E41.38077
G1 X126.767 Y120.802 E41.77145
G1 X127.503 Y120.802 E41.78595
G1 X140.802 Y107.503 E42.15613
G1 X140.802 Y108.240 E42.17063
G1 X128.240 Y120.802 E42.52030
G1 X128.977 Y120.802 E42.53480
G1 X140.802 Y108.977 E42.86397
G1 X140.802 Y109.713 E42.87847
G1 X129.713 Y120.802 E43.18714
G1 X130.450 Y120.802 E43.20164
G1 X140.802 Y110.450 E43.48980
G1 X140.802 Y111.186 E43.50430
G1 X131.186 Y120.802 E43.77196
G1 X131.923 Y120.802 E43.78646
G1 X140.802 Y111.923 E44.03361
G1 X140.802 Y112.660 E44.04811
G1 X132.660 Y120.802 E44.27477
G1 X133.396 Y120.802 E44.28926
G1 X140.802 Y113.396 E44.49541
G1 X140.802 Y114.133 E44.50991
G1 X134.133 Y120.802 E44.69556
G1 X134.869 Y120.802 E44.71006
G1 X140.802 Y114.869 E44.87520
G1 X140.802 Y115.606 E44.88970
G1 X135.606 Y120.802 E45.03434
G1 X136.342 Y120.802 E45.04883
G1 X140.802 Y116.342 E45.17297
G1 X140.802 Y117.079 E45.18747
G1 X137.079 Y120.802 E45.29110
G1 X137.816 Y120.802 E45.30560
G1 X140.802 Y117.816 E45.38872
G1 X140.802 Y118.552 E45.40322
G1 X138.552 Y120.802 E45.46585
G1 X139.289 Y120.802 E45.48035
G1 X140.802 Y119.289 E45.52247
G1 X140.802 Y120.025 E45.53696
G1 X140.025 Y120.802 E45.55858
G1 X140.762 Y120.802 E45.57308
G1 X140.802 Y120.762 E45.57419
G1 F1800.000 E44.57419
G92 E0
G1 X90.351 Y121.149 F7800.000
G1 E1.00000 F1800.000
G1 X58.851 Y121.149 E1.89127 F1800
G1 X58.851 Y92.254 E2.70882
G1 X90.351 Y92.254 E3.60009
G1 X90.351 Y121.074 E4.41553
G1 X90.851 Y121.649 F7800.000
G1 X58.351 Y121.649 E5.33509 F1800
G1 X58.351 Y91.754 E6.18094
G1 X90.851 Y91.754 E7.10050
G1 X90.851 Y121.574 E7.94423
G1 X91.351 Y122.149 F7800.000
G1 X57.851 Y122.149 E8.89208 F1260
G1 X57.851 Y91.254 E9.76623
G1 X91.351 Y91.254 E10.71408
G1 X91.351 Y122.074 E11.58611
G1 X90.918 Y121.899 F7800.000
G1 X90.004 Y120.762 F7800.000
G1 X89.964 Y120.802 E11.58722 F3600
G1 X89.228 Y120.802 E11.60172
G1 X90.004 Y120.025 E11.62334
G1 X90.004 Y119.289 E11.63783
G1 X88.491 Y120.802 E11.67995
